;FLAVOR:RepRap
;TIME:14427
M190 S50.000000
M104 S210.000000
M109 S210.000000
M109 S210.000000
M109 S210.000000
M109 S210.000000
M109 S210.000000
G21 ;metric values
G90 ;absolute positioning
M82 ;set extruder to absolute mode
M107 ;start with the fan off
G92 X0 Y0 Z0 ;Zero X Y and Z axis
G1 Z15.0 F9000 ;move the platform down 15mm
G92 E0 ;zero the extruded length
G1 F200 E3 ;extrude 3mm of feed stock
G92 E0 ;zero the extruded length again
G1 F9000
;Put printing message on LCD screen
M117 Printing...
;Generated with Cura_SteamEngine 2.1.3
;LAYER_COUNT:239
;LAYER:0
M107
G1 F4200.000000 E-6.40000
G1 Z20.200
G0 F7200.000 X62.922 Y83.294 Z0.500
;TYPE:SKIRT
G1 Z0.300
G1 F4200.000 E0.00000
G1 F1200.00000 X71.682 Y88.351 E0.43899
G1 X71.790 Y87.877 E0.46009
G1 X71.985 Y87.378 E0.48334
G1 X72.253 Y86.913 E0.50663
G1 X72.586 Y86.493 E0.52989
G1 X72.978 Y86.127 E0.55317
G1 X73.420 Y85.824 E0.57643
G1 X73.713 Y85.681 E0.59058
G1 X73.734 Y85.424 E0.60177
G1 X73.856 Y84.901 E0.62507
G1 X74.055 Y84.403 E0.64835
G1 X74.325 Y83.940 E0.67161
G1 X74.661 Y83.522 E0.69489
G1 X74.908 Y83.294 E0.70948
G1 X62.922 Y83.294 E1.22967
G0 F7200.00000 X61.429 Y82.894
G1 F1200.000 X72.031 Y89.015 E1.76098
G1 X72.031 Y88.935 E1.76445
G1 X72.071 Y88.431 E1.78639
G1 X72.190 Y87.940 E1.80832
G1 X72.384 Y87.473 E1.83027
G1 X72.650 Y87.043 E1.85221
G1 X72.980 Y86.660 E1.87415
G1 X73.367 Y86.334 E1.89611
G1 X73.800 Y86.073 E1.91806
G1 X74.092 Y85.955 E1.93172
G1 X74.134 Y85.457 E1.95341
G1 X74.256 Y84.966 E1.97537
G1 X74.453 Y84.501 E1.99729
G1 X74.722 Y84.072 E2.01927
G1 X75.054 Y83.691 E2.04120
G1 X75.443 Y83.368 E2.06314
G1 X75.877 Y83.109 E2.08508
G1 X76.347 Y82.922 E2.10703
G1 X76.472 Y82.894 E2.11259
G1 X61.429 Y82.894 E2.76546
G1 F4200.00000 E-3.63454
G1 Z0.500
G0 F7200.000 X55.587 Y79.521 Z0.500
G1 Z0.300
G1 F4200.000 E2.76546
G1 F1200.00000 X55.587 Y55.694 E3.79955
G1 X55.627 Y55.190 E3.82150
G1 X55.746 Y54.699 E3.84342
G1 X55.940 Y54.232 E3.86537
G1 X56.206 Y53.802 E3.88731
G1 X56.536 Y53.419 E3.90925
G1 X56.923 Y53.093 E3.93122
G1 X57.356 Y52.832 E3.95316
G1 X57.824 Y52.642 E3.97508
G1 X58.317 Y52.529 E3.99703
G1 X58.787 Y52.494 E4.01748
G1 X73.088 Y52.494 E4.63815
G1 X73.091 Y44.537 E4.98349
G1 X73.139 Y43.557 E5.02607
G1 X73.170 Y43.245 E5.03968
G1 X73.314 Y42.274 E5.08228
G1 X73.375 Y41.967 E5.09586
G1 X73.613 Y41.015 E5.13845
G1 X73.704 Y40.712 E5.15218
G1 X74.035 Y39.788 E5.19478
G1 X74.155 Y39.500 E5.20832
G1 X74.574 Y38.613 E5.25089
G1 X74.723 Y38.334 E5.26462
G1 X75.228 Y37.492 E5.30723
G1 X75.401 Y37.233 E5.32075
G1 X75.985 Y36.445 E5.36332
G1 X76.187 Y36.199 E5.37713
G1 X76.847 Y35.472 E5.41975
G1 X77.067 Y35.252 E5.43325
G1 X77.794 Y34.593 E5.47584
G1 X78.036 Y34.395 E5.48941
G1 X78.824 Y33.810 E5.53200
G1 X79.087 Y33.633 E5.54576
G1 X79.929 Y33.129 E5.58835
G1 X80.204 Y32.983 E5.60186
G1 X81.091 Y32.563 E5.64445
G1 X81.384 Y32.441 E5.65823
G1 X82.308 Y32.111 E5.70081
G1 X82.605 Y32.021 E5.71428
G1 X83.087 Y31.900 E5.73585
G1 X83.087 Y27.694 E5.91839
G1 X83.127 Y27.190 E5.94033
G1 X83.246 Y26.699 E5.96226
G1 X83.440 Y26.232 E5.98421
G1 X83.706 Y25.802 E6.00615
G1 X84.036 Y25.419 E6.02809
G1 X84.423 Y25.093 E6.05005
G1 X84.856 Y24.832 E6.07199
G1 X85.324 Y24.642 E6.09391
G1 X85.817 Y24.529 E6.11587
G1 X86.287 Y24.494 E6.13632
G1 X97.287 Y24.494 E6.61372
G1 X97.791 Y24.534 E6.63566
G1 X98.282 Y24.653 E6.65759
G1 X98.749 Y24.847 E6.67954
G1 X99.179 Y25.113 E6.70148
G1 X99.562 Y25.443 E6.72342
G1 X99.888 Y25.830 E6.74538
G1 X100.149 Y26.263 E6.76733
G1 X100.339 Y26.731 E6.78925
G1 X100.452 Y27.224 E6.81120
G1 X100.487 Y27.694 E6.83165
G1 X100.487 Y31.901 E7.01424
G1 X100.968 Y32.022 E7.03576
G1 X101.264 Y32.111 E7.04918
G1 X102.188 Y32.441 E7.09176
G1 X102.480 Y32.562 E7.10548
G1 X103.368 Y32.982 E7.14811
G1 X103.645 Y33.130 E7.16174
G1 X104.486 Y33.634 E7.20429
G1 X104.747 Y33.808 E7.21791
G1 X105.536 Y34.393 E7.26054
G1 X105.779 Y34.593 E7.27420
G1 X106.506 Y35.252 E7.31678
G1 X106.728 Y35.474 E7.33041
G1 X107.387 Y36.201 E7.37299
G1 X107.587 Y36.445 E7.38668
G1 X108.171 Y37.233 E7.42925
G1 X108.344 Y37.492 E7.44277
G1 X108.849 Y38.334 E7.48538
G1 X108.998 Y38.613 E7.49911
G1 X109.417 Y39.500 E7.54168
G1 X109.537 Y39.788 E7.55522
G1 X109.868 Y40.712 E7.59782
G1 X109.959 Y41.015 E7.61155
G1 X110.197 Y41.967 E7.65414
G1 X110.258 Y42.274 E7.66772
G1 X110.402 Y43.245 E7.71033
G1 X110.433 Y43.554 E7.72380
G1 X110.486 Y44.694 E7.77333
G1 X110.486 Y52.494 E8.11186
G1 X124.786 Y52.494 E8.73248
G1 X125.290 Y52.534 E8.75442
G1 X125.781 Y52.653 E8.77635
G1 X126.248 Y52.847 E8.79829
G1 X126.678 Y53.113 E8.82024
G1 X127.061 Y53.443 E8.84218
G1 X127.387 Y53.830 E8.86414
G1 X127.648 Y54.263 E8.88608
G1 X127.838 Y54.731 E8.90800
G1 X127.951 Y55.224 E8.92996
G1 X127.986 Y55.694 E8.95041
G1 X127.986 Y79.694 E9.99201
G1 X127.946 Y80.198 E10.01396
G1 X127.827 Y80.689 E10.03588
G1 X127.793 Y80.771 E10.03973
G1 X133.248 Y80.771 E10.27648
G1 X133.501 Y80.781 E10.28747
G1 X133.892 Y80.812 E10.30449
G1 X134.382 Y80.890 E10.32603
G1 X134.763 Y80.981 E10.34303
G1 X135.242 Y81.136 E10.36488
G1 X135.605 Y81.286 E10.38192
G1 X136.057 Y81.516 E10.40394
G1 X136.391 Y81.721 E10.42094
G1 X136.632 Y81.896 E10.43387
G1 X136.632 Y52.335 E11.71682
G1 X136.647 Y52.022 E11.73042
G1 X136.695 Y51.534 E11.75170
G1 X136.817 Y50.920 E11.77887
G1 X136.959 Y50.451 E11.80014
G1 X137.209 Y49.852 E11.82831
G1 X137.451 Y49.406 E11.85033
G1 X137.808 Y48.881 E11.87789
G1 X138.122 Y48.505 E11.89915
G1 X138.546 Y48.084 E11.92508
G1 X138.911 Y47.784 E11.94558
G1 X139.434 Y47.434 E11.97290
G1 X139.866 Y47.203 E11.99416
G1 X140.448 Y46.962 E12.02149
G1 X140.917 Y46.820 E12.04276
G1 X141.531 Y46.698 E12.06993
G1 X142.019 Y46.650 E12.09121
G1 X142.332 Y46.635 E12.10481
G1 X152.332 Y46.635 E12.53881
G1 X152.646 Y46.650 E12.55246
G1 X153.133 Y46.698 E12.57370
G1 X153.746 Y46.820 E12.60082
G1 X154.215 Y46.962 E12.62209
G1 X154.814 Y47.212 E12.65026
G1 X155.260 Y47.454 E12.67228
G1 X155.785 Y47.811 E12.69983
G1 X156.161 Y48.125 E12.72110
G1 X156.582 Y48.549 E12.74703
G1 X156.882 Y48.914 E12.76753
G1 X157.232 Y49.437 E12.79484
G1 X157.463 Y49.869 E12.81611
G1 X157.702 Y50.445 E12.84317
G1 X157.845 Y50.914 E12.86445
G1 X157.969 Y51.534 E12.89189
G1 X158.017 Y52.022 E12.91317
G1 X158.032 Y52.335 E12.92677
G1 X158.032 Y132.334 E16.39874
G1 X158.017 Y132.647 E16.41234
G1 X157.969 Y133.135 E16.43362
G1 X157.845 Y133.755 E16.46106
G1 X157.702 Y134.224 E16.48234
G1 X157.454 Y134.817 E16.51024
G1 X157.212 Y135.263 E16.53226
G1 X156.855 Y135.788 E16.55982
G1 X156.541 Y136.164 E16.58108
G1 X156.117 Y136.585 E16.60701
G1 X155.752 Y136.885 E16.62751
G1 X155.229 Y137.235 E16.65483
G1 X154.797 Y137.466 E16.67609
G1 X154.215 Y137.707 E16.70343
G1 X153.746 Y137.849 E16.72469
G1 X153.133 Y137.971 E16.75182
G1 X152.646 Y138.019 E16.77306
G1 X152.332 Y138.034 E16.78670
G1 X142.332 Y138.034 E17.22070
G1 X142.019 Y138.019 E17.23430
G1 X141.872 Y138.005 E17.24071
G1 X141.975 Y138.342 E17.25600
G1 X142.208 Y139.385 E17.30239
G1 X142.363 Y140.443 E17.34879
G1 X142.438 Y141.509 E17.39517
G1 X142.433 Y142.581 E17.44170
G1 X142.347 Y143.643 E17.48794
G1 X142.180 Y144.707 E17.53468
G1 X141.935 Y145.743 E17.58089
G1 X141.612 Y146.765 E17.62740
G1 X141.213 Y147.756 E17.67377
G1 X140.742 Y148.715 E17.72014
G1 X140.197 Y149.639 E17.76670
G1 X139.586 Y150.516 E17.81308
G1 X138.911 Y151.345 E17.85948
G1 X138.175 Y152.121 E17.90590
G1 X137.381 Y152.841 E17.95242
G1 X136.540 Y153.495 E17.99865
G1 X135.645 Y154.089 E18.04527
G1 X134.711 Y154.612 E18.09173
G1 X133.745 Y155.061 E18.13796
G1 X132.740 Y155.439 E18.18456
G1 X131.715 Y155.738 E18.23090
G1 X130.667 Y155.961 E18.27740
G1 X129.847 Y156.078 E18.31335
G1 X129.602 Y156.094 E18.32401
G1 X129.565 Y156.102 E18.32565
G1 X129.253 Y156.133 E18.33926
G1 X128.507 Y156.166 E18.37167
G1 X127.798 Y156.162 E18.40244
G1 X127.231 Y156.133 E18.42708
G1 X127.031 Y156.107 E18.43583
G1 X126.639 Y156.076 E18.45290
G1 X125.582 Y155.915 E18.49930
G1 X124.537 Y155.675 E18.54583
G1 X123.520 Y155.358 E18.59207
G1 X122.523 Y154.963 E18.63861
G1 X121.559 Y154.494 E18.68514
G1 X120.638 Y153.957 E18.73140
G1 X119.758 Y153.350 E18.77780
G1 X118.923 Y152.677 E18.82435
G1 X118.146 Y151.947 E18.87062
G1 X117.424 Y151.159 E18.91700
G1 X116.761 Y150.316 E18.96355
G1 X116.166 Y149.429 E19.00990
G1 X115.638 Y148.496 E19.05643
G1 X115.183 Y147.530 E19.10277
G1 X114.802 Y146.531 E19.14917
G1 X114.497 Y145.507 E19.19554
G1 X114.269 Y144.459 E19.24209
G1 X114.122 Y143.404 E19.28832
G1 X114.054 Y142.334 E19.33485
G1 X114.067 Y141.266 E19.38121
G1 X114.160 Y140.197 E19.42778
G1 X114.333 Y139.146 E19.47401
G1 X114.586 Y138.103 E19.52058
G1 X114.915 Y137.089 E19.56685
G1 X115.321 Y136.097 E19.61337
G1 X115.798 Y135.144 E19.65962
G1 X116.350 Y134.222 E19.70626
G1 X116.967 Y133.349 E19.75266
G1 X117.548 Y132.645 E19.79227
G1 X117.550 Y123.222 E20.20123
G1 X117.402 Y123.389 E20.21091
G1 X117.012 Y123.710 E20.23284
G1 X116.576 Y123.966 E20.25478
G1 X116.105 Y124.150 E20.27673
G1 X115.611 Y124.258 E20.29867
G1 X115.179 Y124.287 E20.31746
G1 X112.384 Y124.287 E20.43877
G1 X111.880 Y124.247 E20.46071
G1 X111.389 Y124.128 E20.48264
G1 X110.922 Y123.934 E20.50458
G1 X110.597 Y123.733 E20.52117
G1 X81.874 Y123.733 E21.76775
G1 X81.516 Y123.949 E21.78590
G1 X81.048 Y124.139 E21.80782
G1 X80.555 Y124.252 E21.82977
G1 X80.085 Y124.287 E21.85022
G1 X77.292 Y124.287 E21.97144
G1 X76.788 Y124.247 E21.99338
G1 X76.297 Y124.128 E22.01531
G1 X75.830 Y123.934 E22.03726
G1 X75.400 Y123.668 E22.05920
G1 X75.017 Y123.338 E22.08114
G1 X74.691 Y122.951 E22.10310
G1 X74.430 Y122.518 E22.12504
G1 X74.240 Y122.050 E22.14697
G1 X74.127 Y121.557 E22.16892
G1 X74.094 Y121.114 E22.18820
G1 X73.769 Y120.979 E22.20347
G1 X73.339 Y120.713 E22.22541
G1 X73.080 Y120.490 E22.24025
G1 X52.268 Y132.506 E23.28323
G1 X51.812 Y132.724 E23.30516
G1 X51.327 Y132.866 E23.32710
G1 X50.825 Y132.931 E23.34907
G1 X50.320 Y132.916 E23.37099
G1 X49.823 Y132.821 E23.39295
G1 X49.348 Y132.650 E23.41486
G1 X48.905 Y132.406 E23.43681
G1 X48.506 Y132.095 E23.45877
G1 X48.162 Y131.725 E23.48069
G1 X47.897 Y131.335 E23.50116
G1 X42.650 Y122.248 E23.95656
G1 X42.431 Y121.915 E23.97386
G1 X42.253 Y121.702 E23.98590
G1 X42.040 Y121.500 E23.99864
G1 X41.802 Y121.323 E24.01152
G1 X41.555 Y121.180 E24.02390
G1 X41.283 Y121.062 E24.03677
G1 X41.014 Y120.981 E24.04896
G1 X40.708 Y120.927 E24.06245
G1 X40.328 Y120.905 E24.07897
G1 X29.830 Y120.905 E24.53458
G1 X29.326 Y120.865 E24.55653
G1 X28.835 Y120.746 E24.57845
G1 X28.368 Y120.552 E24.60040
G1 X27.938 Y120.286 E24.62234
G1 X27.555 Y119.956 E24.64428
G1 X27.229 Y119.569 E24.66625
G1 X26.968 Y119.136 E24.68819
G1 X26.778 Y118.668 E24.71011
G1 X26.665 Y118.175 E24.73206
G1 X26.630 Y117.705 E24.75252
G1 X26.630 Y92.406 E25.85050
G1 X26.670 Y91.902 E25.87244
G1 X26.789 Y91.411 E25.89436
G1 X26.983 Y90.944 E25.91631
G1 X27.249 Y90.514 E25.93826
G1 X27.579 Y90.131 E25.96020
G1 X27.966 Y89.805 E25.98216
G1 X28.399 Y89.544 E26.00410
G1 X28.867 Y89.354 E26.02602
G1 X29.360 Y89.241 E26.04797
G1 X29.830 Y89.206 E26.06843
G1 X40.328 Y89.206 E26.52404
G1 X40.719 Y89.183 E26.54104
G1 X41.001 Y89.134 E26.55346
G1 X41.272 Y89.054 E26.56573
G1 X41.553 Y88.933 E26.57900
G1 X41.793 Y88.795 E26.59102
G1 X42.028 Y88.620 E26.60374
G1 X42.243 Y88.418 E26.61654
G1 X42.438 Y88.186 E26.62969
G1 X42.648 Y87.867 E26.64627
G1 X47.897 Y78.776 E27.10186
G1 X48.183 Y78.359 E27.12381
G1 X48.532 Y77.993 E27.14576
G1 X48.934 Y77.687 E27.16768
G1 X49.379 Y77.447 E27.18963
G1 X49.857 Y77.281 E27.21159
G1 X50.354 Y77.191 E27.23351
G1 X50.860 Y77.182 E27.25547
G1 X51.360 Y77.252 E27.27738
G1 X51.844 Y77.400 E27.29935
G1 X52.268 Y77.605 E27.31979
G1 X55.587 Y79.521 E27.48611
G0 F7200.00000 X55.187 Y78.828
G1 F1200.000 X55.187 Y55.694 E28.49013
G1 X55.227 Y55.159 E28.51342
G1 X55.346 Y54.636 E28.53669
G1 X55.541 Y54.137 E28.55995
G1 X55.809 Y53.672 E28.58324
G1 X56.142 Y53.252 E28.60650
G1 X56.534 Y52.886 E28.62978
G1 X56.976 Y52.583 E28.65303
G1 X57.459 Y52.348 E28.67635
G1 X57.970 Y52.188 E28.69958
G1 X58.500 Y52.105 E28.72287
G1 X58.787 Y52.094 E28.73533
G1 X72.688 Y52.094 E29.33864
G1 X72.691 Y44.518 E29.66744
G1 X72.739 Y43.538 E29.71002
G1 X72.774 Y43.186 E29.72537
G1 X72.918 Y42.215 E29.76797
G1 X72.986 Y41.870 E29.78324
G1 X73.224 Y40.918 E29.82582
G1 X73.328 Y40.577 E29.84130
G1 X73.659 Y39.653 E29.88389
G1 X73.793 Y39.329 E29.89911
G1 X74.212 Y38.442 E29.94169
G1 X74.380 Y38.128 E29.95714
G1 X74.885 Y37.286 E29.99975
G1 X75.080 Y36.994 E30.01499
G1 X75.664 Y36.206 E30.05756
G1 X75.891 Y35.930 E30.07307
G1 X76.551 Y35.203 E30.11568
G1 X76.798 Y34.956 E30.13084
G1 X77.525 Y34.297 E30.17343
G1 X77.797 Y34.073 E30.18872
G1 X78.585 Y33.488 E30.23132
G1 X78.882 Y33.290 E30.24681
G1 X79.724 Y32.786 E30.28940
G1 X80.032 Y32.621 E30.30456
G1 X80.919 Y32.201 E30.34715
G1 X81.249 Y32.065 E30.36264
G1 X82.173 Y31.735 E30.40523
G1 X82.507 Y31.633 E30.42038
G1 X82.687 Y31.588 E30.42844
G1 X82.687 Y27.694 E30.59744
G1 X82.727 Y27.159 E30.62072
G1 X82.846 Y26.636 E30.64400
G1 X83.041 Y26.137 E30.66725
G1 X83.309 Y25.672 E30.69054
G1 X83.642 Y25.252 E30.71381
G1 X84.034 Y24.886 E30.73708
G1 X84.476 Y24.583 E30.76034
G1 X84.959 Y24.348 E30.78365
G1 X85.470 Y24.188 E30.80689
G1 X86.000 Y24.105 E30.83017
G1 X86.287 Y24.094 E30.84264
G1 X97.287 Y24.094 E31.32004
G1 X97.822 Y24.134 E31.34332
G1 X98.345 Y24.253 E31.36660
G1 X98.844 Y24.448 E31.38985
G1 X99.309 Y24.716 E31.41315
G1 X99.729 Y25.049 E31.43641
G1 X100.095 Y25.441 E31.45968
G1 X100.398 Y25.883 E31.48294
G1 X100.633 Y26.366 E31.50625
G1 X100.793 Y26.877 E31.52949
G1 X100.876 Y27.407 E31.55277
G1 X100.887 Y27.694 E31.56524
G1 X100.887 Y31.589 E31.73428
G1 X101.065 Y31.634 E31.74225
G1 X101.399 Y31.735 E31.75739
G1 X102.323 Y32.065 E31.79998
G1 X102.651 Y32.201 E31.81539
G1 X103.539 Y32.621 E31.85802
G1 X103.851 Y32.787 E31.87336
G1 X104.692 Y33.291 E31.91591
G1 X104.985 Y33.487 E31.93121
G1 X105.774 Y34.072 E31.97384
G1 X106.048 Y34.297 E31.98923
G1 X106.775 Y34.956 E32.03181
G1 X107.024 Y35.205 E32.04709
G1 X107.683 Y35.932 E32.08968
G1 X107.908 Y36.206 E32.10507
G1 X108.492 Y36.994 E32.14763
G1 X108.687 Y37.286 E32.16287
G1 X109.192 Y38.128 E32.20548
G1 X109.360 Y38.442 E32.22094
G1 X109.779 Y39.329 E32.26351
G1 X109.913 Y39.653 E32.27873
G1 X110.244 Y40.577 E32.32133
G1 X110.348 Y40.918 E32.33680
G1 X110.586 Y41.870 E32.37939
G1 X110.654 Y42.215 E32.39465
G1 X110.798 Y43.186 E32.43725
G1 X110.833 Y43.534 E32.45243
G1 X110.886 Y44.694 E32.50283
G1 X110.886 Y52.094 E32.82399
G1 X124.786 Y52.094 E33.42725
G1 X125.321 Y52.134 E33.45054
G1 X125.844 Y52.253 E33.47382
G1 X126.343 Y52.448 E33.49707
G1 X126.808 Y52.716 E33.52036
G1 X127.228 Y53.049 E33.54362
G1 X127.594 Y53.441 E33.56690
G1 X127.897 Y53.883 E33.59016
G1 X128.132 Y54.366 E33.61347
G1 X128.292 Y54.877 E33.63671
G1 X128.375 Y55.407 E33.65999
G1 X128.386 Y55.694 E33.67245
G1 X128.386 Y79.694 E34.71406
G1 X128.346 Y80.229 E34.73734
G1 X128.314 Y80.371 E34.74366
G1 X133.248 Y80.371 E34.95779
G1 X133.533 Y80.382 E34.97017
G1 X133.924 Y80.413 E34.98720
G1 X134.475 Y80.500 E35.01141
G1 X134.856 Y80.591 E35.02841
G1 X135.395 Y80.766 E35.05300
G1 X135.758 Y80.916 E35.07005
G1 X136.232 Y81.158 E35.09314
G1 X136.232 Y52.335 E36.34407
G1 X136.249 Y51.983 E36.35936
G1 X136.297 Y51.495 E36.38064
G1 X136.434 Y50.804 E36.41122
G1 X136.576 Y50.335 E36.43248
G1 X136.858 Y49.661 E36.46419
G1 X137.100 Y49.215 E36.48622
G1 X137.501 Y48.624 E36.51721
G1 X137.815 Y48.248 E36.53847
G1 X138.292 Y47.775 E36.56763
G1 X138.657 Y47.475 E36.58813
