;FLAVOR:RepRap
;TIME:9995
M190 S50.000000
M104 S210.000000
M109 S210.000000
G21 ;metric values
G90 ;absolute positioning
M82 ;set extruder to absolute mode
M107 ;start with the fan off
G92 X0 Y0 Z0 ;Zero X Y and Z axis
G1 Z15.0 F9000 ;move the platform down 15mm
G92 E0 ;zero the extruded length
G1 F200 E3 ;extrude 3mm of feed stock
G92 E0 ;zero the extruded length again
G1 F9000
;Put printing message on LCD screen
M117 Printing...
;Generated with Cura_SteamEngine 2.1.3
;LAYER_COUNT:83
;LAYER:0
M107
G1 F4200.000000 E-6.40000
G1 Z20.200
G0 F7200.000 X81.916 Y46.493 Z0.500
;TYPE:SKIRT
G1 Z0.300
G1 F4200.000 E0.00000
G1 F1200.00000 X82.219 Y46.051 E0.02326
G1 X82.584 Y45.658 E0.04654
G1 X83.003 Y45.323 E0.06982
G1 X83.467 Y45.055 E0.09307
G1 X83.966 Y44.858 E0.11636
G1 X84.489 Y44.738 E0.13964
G1 X85.032 Y44.697 E0.16328
G1 X87.550 Y44.697 E0.27256
G1 X88.085 Y44.737 E0.29584
G1 X88.608 Y44.856 E0.31912
G1 X89.107 Y45.051 E0.34237
G1 X89.454 Y45.251 E0.35976
G1 X110.544 Y45.251 E1.27506
G1 X110.639 Y45.186 E1.28006
G1 X111.122 Y44.951 E1.30337
G1 X111.633 Y44.791 E1.32661
G1 X112.163 Y44.708 E1.34989
G1 X112.450 Y44.697 E1.36236
G1 X114.967 Y44.697 E1.47160
G1 X115.502 Y44.737 E1.49488
G1 X116.025 Y44.856 E1.51816
G1 X116.524 Y45.051 E1.54141
G1 X116.989 Y45.319 E1.56470
G1 X117.409 Y45.652 E1.58797
G1 X117.775 Y46.044 E1.61124
G1 X118.078 Y46.486 E1.63450
G1 X118.313 Y46.969 E1.65781
G1 X118.473 Y47.480 E1.68105
G1 X118.556 Y48.010 E1.70433
G1 X118.567 Y48.296 E1.71675
G1 X118.580 Y96.480 E3.80795
G1 X118.724 Y96.689 E3.81896
G1 X118.959 Y97.172 E3.84227
G1 X119.119 Y97.683 E3.86551
G1 X119.202 Y98.213 E3.88880
G1 X119.213 Y98.500 E3.90126
G1 X119.213 Y101.500 E4.03146
G1 X119.173 Y102.035 E4.05475
G1 X119.054 Y102.558 E4.07802
G1 X118.859 Y103.057 E4.10128
G1 X118.591 Y103.522 E4.12457
G1 X118.583 Y103.533 E4.12516
G1 X118.596 Y151.341 E6.20003
G1 X118.585 Y151.620 E6.21215
G1 X118.557 Y151.981 E6.22787
G1 X118.476 Y152.511 E6.25114
G1 X118.317 Y153.024 E6.27444
G1 X118.084 Y153.507 E6.29772
G1 X117.781 Y153.949 E6.32098
G1 X117.416 Y154.342 E6.34425
G1 X116.997 Y154.677 E6.36754
G1 X116.533 Y154.945 E6.39079
G1 X116.034 Y155.142 E6.41407
G1 X115.511 Y155.262 E6.43736
G1 X114.968 Y155.303 E6.46100
G1 X112.450 Y155.303 E6.57028
G1 X111.915 Y155.263 E6.59356
G1 X111.392 Y155.144 E6.61684
G1 X110.893 Y154.949 E6.64009
G1 X110.546 Y154.749 E6.65747
G1 X89.456 Y154.749 E7.57278
G1 X89.361 Y154.814 E7.57778
G1 X88.878 Y155.049 E7.60109
G1 X88.367 Y155.209 E7.62433
G1 X87.837 Y155.292 E7.64761
G1 X87.550 Y155.303 E7.66008
G1 X85.033 Y155.303 E7.76932
G1 X84.498 Y155.263 E7.79260
G1 X83.975 Y155.144 E7.81588
G1 X83.476 Y154.949 E7.83913
G1 X83.011 Y154.681 E7.86242
G1 X82.591 Y154.348 E7.88568
G1 X82.225 Y153.956 E7.90896
G1 X81.922 Y153.514 E7.93222
G1 X81.687 Y153.031 E7.95553
G1 X81.527 Y152.520 E7.97877
G1 X81.444 Y151.990 E8.00205
G1 X81.433 Y151.704 E8.01447
G1 X81.404 Y48.659 E12.48664
G1 X81.415 Y48.380 E12.49876
G1 X81.443 Y48.019 E12.51447
G1 X81.524 Y47.489 E12.53774
G1 X81.683 Y46.976 E12.56105
G1 X81.916 Y46.493 E12.58433
G0 F7200.00000 X82.307 Y46.619
G1 F1200.000 X82.605 Y46.211 E12.60625
G1 X82.964 Y45.855 E12.62820
G1 X83.375 Y45.560 E12.65015
G1 X83.826 Y45.333 E12.67207
G1 X84.308 Y45.180 E12.69401
G1 X85.032 Y45.097 E12.72564
G1 X87.550 Y45.097 E12.83492
G1 X88.054 Y45.137 E12.85687
G1 X88.545 Y45.256 E12.87879
G1 X89.012 Y45.450 E12.90074
G1 X89.337 Y45.651 E12.91732
G1 X110.661 Y45.651 E13.84279
G1 X111.019 Y45.435 E13.86094
G1 X111.487 Y45.245 E13.88286
G1 X111.980 Y45.132 E13.90481
G1 X112.450 Y45.097 E13.92526
G1 X114.967 Y45.097 E14.03450
G1 X115.471 Y45.137 E14.05644
G1 X115.962 Y45.256 E14.07837
G1 X116.429 Y45.450 E14.10032
G1 X116.859 Y45.716 E14.12226
G1 X117.242 Y46.046 E14.14420
G1 X117.568 Y46.433 E14.16616
G1 X117.829 Y46.866 E14.18810
G1 X118.019 Y47.334 E14.21003
G1 X118.132 Y47.827 E14.23198
G1 X118.167 Y48.296 E14.25239
G1 X118.180 Y96.596 E16.34862
G1 X118.214 Y96.636 E16.35089
G1 X118.475 Y97.069 E16.37284
G1 X118.665 Y97.537 E16.39476
G1 X118.778 Y98.030 E16.41671
G1 X118.813 Y98.500 E16.43716
G1 X118.813 Y101.500 E16.56736
G1 X118.773 Y102.004 E16.58931
G1 X118.654 Y102.495 E16.61123
G1 X118.460 Y102.962 E16.63318
G1 X118.194 Y103.392 E16.65512
G1 X118.182 Y103.406 E16.65592
G1 X118.186 Y151.589 E18.74707
G1 X118.158 Y151.950 E18.76279
G1 X118.080 Y152.450 E18.78475
G1 X117.923 Y152.931 E18.80671
G1 X117.693 Y153.381 E18.82864
G1 X117.395 Y153.789 E18.85057
G1 X117.036 Y154.145 E18.87251
G1 X116.625 Y154.440 E18.89447
G1 X116.174 Y154.667 E18.91638
G1 X115.692 Y154.820 E18.93833
G1 X114.968 Y154.903 E18.96996
G1 X112.450 Y154.903 E19.07924
G1 X111.946 Y154.863 E19.10118
G1 X111.455 Y154.744 E19.12311
G1 X110.988 Y154.550 E19.14506
G1 X110.663 Y154.349 E19.16164
G1 X89.339 Y154.349 E20.08711
G1 X88.981 Y154.565 E20.10525
G1 X88.513 Y154.755 E20.12717
G1 X88.020 Y154.868 E20.14912
G1 X87.550 Y154.903 E20.16958
G1 X85.033 Y154.903 E20.27882
G1 X84.529 Y154.863 E20.30076
G1 X84.038 Y154.744 E20.32269
G1 X83.571 Y154.550 E20.34463
G1 X83.141 Y154.284 E20.36658
G1 X82.758 Y153.954 E20.38852
G1 X82.432 Y153.567 E20.41048
G1 X82.171 Y153.134 E20.43242
G1 X81.981 Y152.666 E20.45434
G1 X81.868 Y152.173 E20.47629
G1 X81.833 Y151.704 E20.49671
G1 X81.814 Y48.411 E24.97964
G1 X81.842 Y48.050 E24.99535
G1 X81.920 Y47.550 E25.01732
G1 X82.077 Y47.069 E25.03928
G1 X82.307 Y46.619 E25.06121
G0 F7200.00000 X85.204 Y48.658
;TYPE:SUPPORT
G1 F1200.000 X85.217 Y48.497 E25.06822
G1 X87.350 Y48.497 E25.16079
G1 X87.350 Y151.503 E29.63127
G1 X85.233 Y151.503 E29.72315
G1 X85.204 Y48.658 E34.18664
G0 F7200.00000 X85.365 Y53.320
G1 F1200.000 X87.190 Y53.320 E34.26584
G1 F4200.00000 E27.86584
G1 Z0.500
G0 F7200.000 X87.190 Y58.652 Z0.500
G1 Z0.300
G1 F4200.000 E34.26584
G1 F1200.00000 X85.366 Y58.652 E34.34500
G0 F7200.00000 X85.368 Y63.984
G1 F1200.000 X87.190 Y63.984 E34.42408
G1 F4200.00000 E28.02408
G1 Z0.500
G0 F7200.000 X87.190 Y69.316 Z0.500
G1 Z0.300
G1 F4200.000 E34.42408
G1 F1200.00000 X85.369 Y69.316 E34.50311
G0 F7200.00000 X85.371 Y74.648
G1 F1200.000 X87.190 Y74.648 E34.58205
G1 F4200.00000 E28.18205
G1 Z0.500
G0 F7200.000 X87.190 Y79.980 Z0.500
G1 Z0.300
G1 F4200.000 E34.58205
G1 F1200.00000 X85.372 Y79.980 E34.66096
G0 F7200.00000 X85.383 Y117.304
G1 F1200.000 X87.190 Y117.304 E34.73938
G1 F4200.00000 E28.33938
G1 Z0.500
G0 F7200.000 X87.190 Y111.972 Z0.500
G1 Z0.300
G1 F4200.000 E34.73938
G1 F1200.00000 X85.381 Y111.972 E34.81789
G0 F7200.00000 X85.380 Y106.640
G1 F1200.000 X87.190 Y106.640 E34.89644
G1 F4200.00000 E28.49644
G1 Z0.500
G0 F7200.000 X87.190 Y101.308 Z0.500
G1 Z0.300
G1 F4200.000 E34.89644
G1 F1200.00000 X85.378 Y101.308 E34.97509
G0 F7200.00000 X85.377 Y95.976
G1 F1200.000 X87.190 Y95.976 E35.05377
G1 F4200.00000 E28.65377
G1 Z0.500
G0 F7200.000 X87.190 Y90.644 Z0.500
G1 Z0.300
G1 F4200.000 E35.05377
G1 F1200.00000 X85.375 Y90.644 E35.13254
G0 F7200.00000 X85.374 Y85.312
G1 F1200.000 X87.190 Y85.312 E35.21136
G1 F4200.00000 E28.81136
G1 Z0.500
G0 F7200.000 X87.189 Y127.968 Z0.500
G1 Z0.300
G1 F4200.000 E35.21136
G1 F1200.00000 X85.385 Y127.968 E35.28965
G0 F7200.00000 X85.386 Y133.300
G1 F1200.000 X87.189 Y133.300 E35.36790
G1 F4200.00000 E28.96790
G1 Z0.500
G0 F7200.000 X87.189 Y138.632 Z0.500
G1 Z0.300
G1 F4200.000 E35.36790
G1 F1200.00000 X85.388 Y138.632 E35.44606
G0 F7200.00000 X85.389 Y143.964
G1 F1200.000 X87.189 Y143.964 E35.52418
G1 F4200.00000 E29.12418
G1 Z0.500
G0 F7200.000 X87.189 Y149.296 Z0.500
G1 Z0.300
G1 F4200.000 E35.52418
G1 F1200.00000 X85.391 Y149.296 E35.60222
G0 F7200.00000 X85.383 Y122.636
G1 F1200.000 X87.189 Y122.636 E35.68060
G1 F4200.00000 E29.28060
G1 Z0.500
G0 F7200.000 X114.782 Y101.300 Z0.500
G1 Z0.300
G1 F4200.000 E35.68060
G1 F1200.00000 X114.796 Y151.342 E37.85243
G1 X114.783 Y151.503 E37.85944
G1 X112.650 Y151.503 E37.95201
G1 X112.650 Y48.497 E42.42249
G1 X114.767 Y48.497 E42.51437
G1 X114.781 Y98.700 E44.69319
G1 X115.413 Y98.700 E44.72061
G1 X115.413 Y101.300 E44.83346
G1 X114.782 Y101.300 E44.86084
G0 F7200.00000 X114.623 Y101.308
G1 F1200.000 X112.810 Y101.308 E44.93953
G1 F4200.00000 E38.53953
G1 Z0.500
G0 F7200.000 X112.810 Y95.976 Z0.500
G1 Z0.300
G1 F4200.000 E44.93953
G1 F1200.00000 X114.621 Y95.976 E45.01812
G0 F7200.00000 X114.619 Y90.644
G1 F1200.000 X112.810 Y90.644 E45.09663
G1 F4200.00000 E38.69663
G1 Z0.500
G0 F7200.000 X112.810 Y85.312 Z0.500
G1 Z0.300
G1 F4200.000 E45.09663
G1 F1200.00000 X114.618 Y85.312 E45.17510
G0 F7200.00000 X114.629 Y127.968
G1 F1200.000 X112.809 Y127.968 E45.25409
G1 F4200.00000 E38.85409
G1 Z0.500
G0 F7200.000 X112.809 Y122.636 Z0.500
G1 Z0.300
G1 F4200.000 E45.25409
G1 F1200.00000 X114.627 Y122.636 E45.33299
G0 F7200.00000 X114.627 Y117.304
G1 F1200.000 X112.810 Y117.304 E45.41185
G1 F4200.00000 E39.01185
G1 Z0.500
G0 F7200.000 X112.810 Y111.972 Z0.500
G1 Z0.300
G1 F4200.000 E45.41185
G1 F1200.00000 X114.626 Y111.972 E45.49066
G0 F7200.00000 X114.624 Y106.640
G1 F1200.000 X112.810 Y106.640 E45.56939
G1 F4200.00000 E39.16939
G1 Z0.500
G0 F7200.000 X112.810 Y69.316 Z0.500
G1 Z0.300
G1 F4200.000 E45.56939
G1 F1200.00000 X114.613 Y69.316 E45.64764
G0 F7200.00000 X114.612 Y63.984
G1 F1200.000 X112.810 Y63.984 E45.72585
G1 F4200.00000 E39.32585
G1 Z0.500
G0 F7200.000 X112.810 Y58.652 Z0.500
G1 Z0.300
G1 F4200.000 E45.72585
G1 F1200.00000 X114.610 Y58.652 E45.80397
G0 F7200.00000 X114.609 Y53.320
G1 F1200.000 X112.810 Y53.320 E45.88205
G1 F4200.00000 E39.48205
G1 Z0.500
G0 F7200.000 X112.810 Y74.648 Z0.500
G1 Z0.300
G1 F4200.000 E45.88205
G1 F1200.00000 X114.615 Y74.648 E45.96038
G0 F7200.00000 X114.616 Y79.980
G1 F1200.000 X112.810 Y79.980 E46.03876
G1 F4200.00000 E39.63876
G1 Z0.500
G0 F7200.000 X112.809 Y133.300 Z0.500
G1 Z0.300
G1 F4200.000 E46.03876
G1 F1200.00000 X114.630 Y133.300 E46.11780
G0 F7200.00000 X114.632 Y138.632
G1 F1200.000 X112.809 Y138.632 E46.19691
G1 F4200.00000 E39.79691
G1 Z0.500
G0 F7200.000 X112.809 Y143.964 Z0.500
G1 Z0.300
G1 F4200.000 E46.19691
G1 F1200.00000 X114.633 Y143.964 E46.27608
G0 F7200.00000 X114.635 Y149.296
G1 F1200.000 X112.809 Y149.296 E46.35533
G1 F4200.00000 E39.95533
G1 Z0.500
G0 F7200.000 X110.750 Y150.149 Z0.500
;TYPE:WALL-INNER
G1 Z0.300
G1 F4200.000 E46.35533
G1 F1200.00000 X89.250 Y150.149 E47.28843
G1 X89.250 Y49.851 E51.64138
G1 X110.750 Y49.851 E52.57448
G1 X110.750 Y150.149 E56.92743
G0 F7200.00000 X107.922 Y146.481
G1 F1200.000 X108.321 Y145.958 E56.95598
G1 X108.571 Y145.353 E56.98439
G1 X108.657 Y144.705 E57.01276
G1 X108.571 Y144.057 E57.04113
G1 X108.321 Y143.452 E57.06954
G1 X107.922 Y142.929 E57.09809
G1 X107.400 Y142.531 E57.12658
G1 X106.795 Y142.281 E57.15499
G1 X106.147 Y142.195 E57.18336
G1 X105.499 Y142.281 E57.21173
G1 X104.893 Y142.531 E57.24018
G1 X104.371 Y142.929 E57.26867
G1 X103.973 Y143.451 E57.29716
G1 X103.723 Y144.057 E57.32561
G1 X103.637 Y144.705 E57.35398
G1 X103.723 Y145.353 E57.38235
G1 X103.973 Y145.959 E57.41080
G1 X104.371 Y146.481 E57.43929
G1 X104.893 Y146.879 E57.46778
G1 X105.499 Y147.129 E57.49623
G1 X106.147 Y147.215 E57.52460
G1 X106.795 Y147.129 E57.55297
G1 X107.400 Y146.879 E57.58138
G1 X107.922 Y146.481 E57.60987
G0 F7200.00000 X106.701 Y146.777
G0 X106.147 Y146.851
G0 X105.593 Y146.777
G0 X105.076 Y146.563
G0 X104.629 Y146.223
G0 X95.629 Y136.070
G1 F1200.000 X96.027 Y135.548 E57.63835
G1 X96.277 Y134.942 E57.66681
G1 X96.363 Y134.294 E57.69518
G1 X96.277 Y133.646 E57.72354
G1 X96.027 Y133.040 E57.75200
G1 X95.629 Y132.518 E57.78048
G1 X95.107 Y132.120 E57.80897
G1 X94.501 Y131.870 E57.83742
G1 X93.853 Y131.784 E57.86579
G1 X93.205 Y131.870 E57.89416
G1 X92.600 Y132.120 E57.92257
G1 X92.078 Y132.518 E57.95106
G1 X91.679 Y133.041 E57.97961
G1 X91.429 Y133.646 E58.00802
G1 X91.343 Y134.294 E58.03639
G1 X91.429 Y134.942 E58.06476
G1 X91.679 Y135.547 E58.09317
G1 X92.078 Y136.070 E58.12172
G1 X92.600 Y136.468 E58.15021
G1 X93.205 Y136.718 E58.17862
G1 X93.853 Y136.804 E58.20699
G1 X94.501 Y136.718 E58.23536
G1 X95.107 Y136.468 E58.26381
G1 X95.629 Y136.070 E58.29230
G0 F7200.00000 X95.925 Y134.848
G0 X105.499 Y66.130
G1 F1200.000 X106.147 Y66.216 E58.32067
G1 X106.795 Y66.130 E58.34904
G1 X107.400 Y65.880 E58.37745
G1 X107.922 Y65.482 E58.40594
G1 X108.321 Y64.959 E58.43449
G1 X108.571 Y64.354 E58.46290
G1 X108.657 Y63.706 E58.49127
G1 X108.571 Y63.058 E58.51964
G1 X108.321 Y62.453 E58.54805
G1 X107.922 Y61.930 E58.57660
G1 X107.400 Y61.532 E58.60509
G1 X106.795 Y61.282 E58.63350
G1 X106.147 Y61.196 E58.66187
G1 X105.499 Y61.282 E58.69024
G1 X104.893 Y61.532 E58.71869
G1 X104.371 Y61.930 E58.74718
G1 X103.973 Y62.452 E58.77567
G1 X103.723 Y63.058 E58.80412
G1 X103.637 Y63.706 E58.83249
G1 X103.723 Y64.354 E58.86086
G1 X103.973 Y64.960 E58.88931
G1 X104.371 Y65.482 E58.91780
G1 X104.893 Y65.880 E58.94629
G1 X105.499 Y66.130 E58.97474
G0 F7200.00000 X104.629 Y65.224
G0 X95.629 Y55.071
G1 F1200.000 X96.027 Y54.549 E59.00323
G1 X96.277 Y53.943 E59.03168
G1 X96.363 Y53.295 E59.06005
G1 X96.277 Y52.647 E59.08842
G1 X96.027 Y52.041 E59.11687
G1 X95.629 Y51.519 E59.14536
G1 X95.107 Y51.121 E59.17384
G1 X94.501 Y50.871 E59.20230
G1 X93.853 Y50.785 E59.23066
G1 X93.205 Y50.871 E59.25903
G1 X92.600 Y51.121 E59.28745
G1 X92.078 Y51.519 E59.31593
G1 X91.679 Y52.042 E59.34448
G1 X91.429 Y52.647 E59.37289
G1 X91.343 Y53.295 E59.40126
G1 X91.429 Y53.943 E59.42963
G1 X91.679 Y54.548 E59.45804
G1 X92.078 Y55.071 E59.48659
G1 X92.600 Y55.469 E59.51508
G1 X93.205 Y55.719 E59.54349
G1 X93.853 Y55.805 E59.57186
G1 X94.501 Y55.719 E59.60023
G1 X95.107 Y55.469 E59.62868
G1 X95.629 Y55.071 E59.65717
G0 F7200.00000 X95.343 Y54.785
G1 F1200.000 X95.677 Y54.347 E59.68108
G1 X95.887 Y53.839 E59.70494
G1 X95.959 Y53.295 E59.72875
G1 X95.887 Y52.751 E59.75257
G1 X95.677 Y52.243 E59.77642
G1 X95.343 Y51.805 E59.80033
G1 X94.905 Y51.471 E59.82423
G1 X94.397 Y51.261 E59.84809
G1 X93.853 Y51.189 E59.87191
G1 X93.309 Y51.261 E59.89572
G1 X92.801 Y51.471 E59.91958
G1 X92.364 Y51.805 E59.94345
G1 X92.029 Y52.243 E59.96738
G1 X91.819 Y52.751 E59.99124
G1 X91.747 Y53.295 E60.01505
G1 X91.819 Y53.839 E60.03887
G1 X92.029 Y54.347 E60.06273
G1 X92.364 Y54.785 E60.08666
G1 X92.801 Y55.119 E60.11053
G1 X93.309 Y55.329 E60.13439
G1 X93.853 Y55.401 E60.15820
G1 X94.397 Y55.329 E60.18202
G1 X94.905 Y55.119 E60.20587
G1 X95.343 Y54.785 E60.22978
G0 F7200.00000 X95.413 Y54.855
G0 X94.924 Y55.153
G0 X94.407 Y55.367
G0 X93.853 Y55.441
G0 X93.299 Y55.367
G0 X92.782 Y55.153
G0 X92.336 Y54.813
G0 X91.995 Y54.366
G0 X88.920 Y49.521
G0 X88.850 Y49.451
G1 F1200.000 X111.150 Y49.451 E61.19760
G1 X111.150 Y150.549 E65.58527
G1 X88.850 Y150.549 E66.55310
G1 X88.850 Y49.451 E70.94077
G0 F7200.00000 X88.950 Y49.521
G0 X94.407 Y51.223
G0 X94.924 Y51.437
G0 X95.371 Y51.777
G0 X104.587 Y62.146
G0 X104.657 Y62.216
G1 F1200.000 X104.323 Y62.654 E70.96467
G1 X104.113 Y63.162 E70.98853
G1 X104.041 Y63.706 E71.01234
G1 X104.113 Y64.250 E71.03616
G1 X104.323 Y64.758 E71.06002
G1 X104.657 Y65.196 E71.08392
G1 X105.095 Y65.530 E71.10783
G1 X105.603 Y65.740 E71.13168
G1 X106.147 Y65.812 E71.15550
G1 X106.691 Y65.740 E71.17932
G1 X107.199 Y65.530 E71.20317
G1 X107.636 Y65.196 E71.22704
G1 X107.971 Y64.758 E71.25098
G1 X108.181 Y64.250 E71.27483
G1 X108.253 Y63.706 E71.29865
G1 X108.181 Y63.162 E71.32246
G1 X107.971 Y62.654 E71.34632
G1 X107.636 Y62.216 E71.37025
G1 X107.199 Y61.882 E71.39412
G1 X106.691 Y61.672 E71.41798
G1 X106.147 Y61.600 E71.44180
G1 X105.603 Y61.672 E71.46561
G1 X105.095 Y61.882 E71.48947
