; generated by Slic3r 1.2.9 on 2017-12-07 at 09:29:49

; external perimeters extrusion width = 0.40mm
; perimeters extrusion width = 0.48mm
; infill extrusion width = 0.48mm
; solid infill extrusion width = 0.48mm
; top infill extrusion width = 0.48mm
; support material extrusion width = 0.40mm

M190 S50 ; set bed temperature
M104 S199 ; set temperature
G92 X0 Y0 Z0 ;Zero X Y and Z axis
G1 Z5 F5000 ; lift nozzle

M109 S199 ; wait for temperature to be reached
G21 ; set units to millimeters
G90 ; use absolute coordinates
M82 ; use absolute distances for extrusion
G92 E0
G1 Z0.350 F7800.000
G1 E-6.40000 F4200.00000
G92 E0
G1 Z0.550 F7800.000
G1 X66.884 Y21.426 F7800.000
G1 Z0.350 F7800.000
G1 E6.40000 F4200.00000
M204 S1000
G1 X67.585 Y19.236 E6.55225 F1080.000
G1 X67.920 Y18.389 E6.61259
G1 X68.222 Y17.750 E6.65939
G1 X68.839 Y16.699 E6.74008
G1 X69.235 Y16.144 E6.78523
G1 X70.041 Y15.197 E6.86756
G1 X70.711 Y14.546 E6.92944
G1 X78.247 Y7.640 E7.60628
G1 X80.216 Y6.374 E7.76130
G1 X82.909 Y5.827 E7.94326
G1 X132.909 Y5.827 E11.25423
G1 X135.216 Y6.224 E11.40924
G1 X137.570 Y7.640 E11.59121 F1080.000
G1 X145.271 Y14.703 E12.28314
G1 X145.776 Y15.198 E12.32994
G1 X146.568 Y16.124 E12.41063
G1 X146.978 Y16.699 E12.45741
G1 X147.595 Y17.750 E12.53813
G1 X147.897 Y18.389 E12.58491
G1 X148.319 Y19.532 E12.66561
G1 X148.505 Y20.215 E12.71246
G1 X148.666 Y20.979 E12.76415
G1 X153.229 Y50.768 E14.75977
G1 X153.308 Y51.812 E14.82914
G1 X153.299 Y90.339 E17.38036
G1 X150.173 Y151.593 E21.44186
G1 X149.450 Y154.333 E21.62950
G1 X148.119 Y156.990 E21.82629
G1 X146.730 Y158.874 E21.98130
G1 X144.791 Y160.186 E22.13632
G1 X141.950 Y160.798 E22.32875
G1 X77.536 Y160.798 E26.59420
G1 X75.229 Y160.401 E26.74921
G1 X73.188 Y159.255 E26.90423
G1 X71.409 Y157.070 E27.09085
G1 X70.897 Y156.082 E27.16452
G1 X70.554 Y155.304 E27.22084
G1 X47.707 Y93.516 E31.58316
G1 X47.356 Y92.369 E31.66257
G1 X47.246 Y91.945 E31.69156
G1 X46.995 Y90.773 E31.77095
G1 X46.819 Y89.586 E31.85038
G1 X46.719 Y88.392 E31.92976
G1 X46.695 Y87.193 E32.00914
G1 X46.719 Y86.431 E32.05962
G1 X46.747 Y85.994 E32.08861
G1 X46.875 Y84.802 E32.16800
G1 X47.078 Y83.620 E32.24742
G1 X47.356 Y82.454 E32.32683
G1 X47.570 Y81.723 E32.37726
G1 X66.866 Y21.483 E36.56596
G1 X67.294 Y21.620 F7800.000
G1 X68.014 Y19.374 E36.72218 F1080.000
G1 X68.327 Y18.581 E36.77858
G1 X68.629 Y17.943 E36.82538
G1 X69.206 Y16.960 E36.90081
G1 X69.601 Y16.405 E36.94596
G1 X70.356 Y15.519 E37.02303
G1 X71.015 Y14.878 E37.08393
G1 X78.551 Y7.972 E37.76077
G1 X80.461 Y6.759 E37.91061
G1 X82.909 Y6.277 E38.07580
G1 X132.909 Y6.277 E41.38677
G1 X135.136 Y6.674 E41.53660
G1 X137.266 Y7.972 E41.70179 F1080.000
G1 X144.956 Y15.024 E42.39274
G1 X145.461 Y15.519 E42.43955
G1 X146.202 Y16.385 E42.51497
G1 X146.612 Y16.960 E42.56176
G1 X147.188 Y17.943 E42.63720
G1 X147.491 Y18.581 E42.68399
G1 X147.885 Y19.650 E42.75943
G1 X148.071 Y20.333 E42.80627
G1 X148.222 Y21.047 E42.85460
G1 X152.784 Y50.836 E44.85021
G1 X152.858 Y51.812 E44.91506
G1 X152.850 Y90.316 E47.46476
G1 X149.723 Y151.570 E51.52626
G1 X149.048 Y154.131 E51.70166
G1 X147.717 Y156.788 E51.89846
G1 X146.364 Y158.602 E52.04829
G1 X144.467 Y159.837 E52.19813
G1 X141.950 Y160.348 E52.36822
G1 X77.536 Y160.348 E56.63367
G1 X75.309 Y159.951 E56.78350
G1 X73.355 Y158.809 E56.93334
G1 X71.808 Y156.863 E57.09799
G1 X71.297 Y155.875 E57.17165
G1 X70.976 Y155.148 E57.22430
G1 X48.130 Y93.362 E61.58646
G1 X47.787 Y92.242 E61.66398
G1 X47.685 Y91.846 E61.69109
G1 X47.439 Y90.702 E61.76858
G1 X47.267 Y89.544 E61.84612
G1 X47.169 Y88.377 E61.92362
G1 X47.145 Y87.207 E62.00111
G1 X47.169 Y86.446 E62.05158
G1 X47.195 Y86.037 E62.07869
G1 X47.319 Y84.873 E62.15619
G1 X47.517 Y83.719 E62.23372
G1 X47.787 Y82.581 E62.31123
G1 X48.002 Y81.850 E62.36166
G1 X67.276 Y21.677 E66.54566
G1 E60.14566 F4200.00000
G92 E0
G1 Z0.550 F7800.000
G1 X135.489 Y51.489 F7800.000
G1 Z0.350 F7800.000
G1 E6.40000 F4200.00000
G1 X135.873 Y50.925 E6.44520 F1080.000
G1 X136.402 Y50.466 E6.49152
G1 X136.992 Y50.168 E6.53533
G1 X137.659 Y50.020 E6.58053 F1080.000
G1 X138.357 Y50.047 E6.62685
G1 X138.992 Y50.234 E6.67065
G1 X139.579 Y50.583 E6.71586
G1 X140.070 Y51.081 E6.76217
G1 X140.405 Y51.652 E6.80598
G1 X140.594 Y52.307 E6.85118
G1 X140.611 Y53.007 E6.89750
G1 X140.464 Y53.652 E6.94131
G1 X140.154 Y54.258 E6.98636
G1 X139.703 Y54.768 E7.03147
G1 X139.137 Y55.151 E7.07674
G1 X138.478 Y55.383 E7.12305
G1 X137.819 Y55.443 E7.16686
G1 X137.147 Y55.336 E7.21192
G1 X136.522 Y55.064 E7.25703
G1 X135.982 Y54.645 E7.30229
G1 X135.558 Y54.089 E7.34861
G1 X135.297 Y53.481 E7.39242
G1 X135.192 Y52.806 E7.43762
G1 X135.263 Y52.111 E7.48393
G1 X135.469 Y51.545 E7.52377
G1 X135.891 Y51.699 F7800.000
G1 X136.212 Y51.226 E7.56163 F1080.000
G1 X136.654 Y50.843 E7.60038
G1 X137.145 Y50.595 E7.63675
G1 X137.699 Y50.472 E7.67437 F1080.000
G1 X138.284 Y50.495 E7.71313
G1 X138.811 Y50.650 E7.74950
G1 X139.300 Y50.940 E7.78712
G1 X139.710 Y51.357 E7.82587
G1 X139.988 Y51.831 E7.86224
G1 X140.146 Y52.376 E7.89986
G1 X140.160 Y52.961 E7.93862
G1 X140.038 Y53.497 E7.97499
G1 X139.780 Y54.002 E8.01255
G1 X139.404 Y54.427 E8.05014
G1 X138.933 Y54.746 E8.08778
G1 X138.381 Y54.940 E8.12653
G1 X137.834 Y54.990 E8.16291
G1 X137.274 Y54.901 E8.20047
G1 X136.753 Y54.674 E8.23806
G1 X136.305 Y54.325 E8.27570
G1 X135.949 Y53.860 E8.31445
G1 X135.733 Y53.355 E8.35083
G1 X135.645 Y52.794 E8.38845
G1 X135.704 Y52.212 E8.42720
G1 X135.871 Y51.756 E8.45935
G1 X135.688 Y51.355 F7800.000
G1 X137.399 Y40.397 F7800.000
G1 X136.751 Y40.186 E8.50447 F1080.000
G1 X136.176 Y39.821 E8.54959
G1 X135.710 Y39.325 E8.59470
G1 X135.381 Y38.727 E8.63982
G1 X135.212 Y38.068 E8.68494
G1 X135.212 Y37.386 E8.73005
G1 X135.381 Y36.726 E8.77517
G1 X135.710 Y36.129 E8.82029
G1 X136.176 Y35.633 E8.86540
G1 X136.751 Y35.268 E8.91052
G1 X137.399 Y35.057 E8.95564
G1 X138.059 Y35.015 E8.99939 F1080.000
G1 X138.746 Y35.141 E9.04564
G1 X139.365 Y35.432 E9.09095
G1 X139.890 Y35.866 E9.13607
G1 X140.290 Y36.417 E9.18119
G1 X140.541 Y37.051 E9.22630
G1 X140.627 Y37.727 E9.27142
G1 X140.541 Y38.403 E9.31654
G1 X140.290 Y39.036 E9.36166
G1 X139.890 Y39.588 E9.40677
G1 X139.365 Y40.022 E9.45189
G1 X138.749 Y40.312 E9.49701
G1 X138.079 Y40.440 E9.54212
G1 X137.459 Y40.401 E9.58327
G1 X137.487 Y39.952 F7800.000
G1 X136.944 Y39.776 E9.62106 F1080.000
G1 X136.465 Y39.472 E9.65865
G1 X136.076 Y39.058 E9.69624
G1 X135.803 Y38.561 E9.73383
G1 X135.662 Y38.011 E9.77142
G1 X135.662 Y37.443 E9.80901
G1 X135.803 Y36.893 E9.84660
G1 X136.076 Y36.396 E9.88419
G1 X136.465 Y35.982 E9.92178
G1 X136.944 Y35.678 E9.95937
G1 X137.484 Y35.502 E9.99696
G1 X138.032 Y35.468 E10.03331 F1080.000
G1 X138.607 Y35.573 E10.07203
G1 X139.122 Y35.815 E10.10969
G1 X139.559 Y36.177 E10.14728
G1 X139.893 Y36.636 E10.18487
G1 X140.102 Y37.164 E10.22246
G1 X140.173 Y37.727 E10.26005
G1 X140.102 Y38.290 E10.29764
G1 X139.893 Y38.818 E10.33523
G1 X139.559 Y39.277 E10.37282
G1 X139.122 Y39.639 E10.41041
G1 X138.608 Y39.881 E10.44800
G1 X138.051 Y39.987 E10.48559
G1 X137.547 Y39.955 E10.51900
G1 X137.214 Y40.243 F7800.000
G1 E4.11900 F4200.00000
G92 E0
G1 Z0.550 F7800.000
G1 X138.079 Y25.440 F7800.000
G1 Z0.350 F7800.000
G1 E6.40000 F4200.00000
G1 X137.399 Y25.397 E6.44512 F1080.000
G1 X136.751 Y25.186 E6.49023
G1 X136.176 Y24.821 E6.53535
G1 X135.710 Y24.325 E6.58047
G1 X135.391 Y23.746 E6.62422
G1 X135.212 Y23.071 E6.67046
G1 X135.212 Y22.386 E6.71578
G1 X135.381 Y21.726 E6.76090
G1 X135.710 Y21.129 E6.80602
G1 X136.176 Y20.633 E6.85113
G1 X136.751 Y20.268 E6.89625
G1 X137.399 Y20.057 E6.94137
G1 X138.059 Y20.015 E6.98512 F1080.000
G1 X138.746 Y20.141 E7.03137
G1 X139.365 Y20.432 E7.07668
G1 X139.890 Y20.866 E7.12180
G1 X140.290 Y21.417 E7.16692
G1 X140.541 Y22.051 E7.21203
G1 X140.627 Y22.727 E7.25715
G1 X140.541 Y23.403 E7.30227
G1 X140.290 Y24.036 E7.34739
G1 X139.890 Y24.588 E7.39250
G1 X139.365 Y25.022 E7.43762
G1 X138.749 Y25.312 E7.48274
G1 X138.138 Y25.428 E7.52388
G1 X138.054 Y24.986 F7800.000
G1 X137.484 Y24.951 E7.56167 F1080.000
G1 X136.944 Y24.776 E7.59926
G1 X136.465 Y24.472 E7.63685
G1 X136.076 Y24.058 E7.67444
G1 X135.812 Y23.577 E7.71080
G1 X135.662 Y23.012 E7.74951
G1 X135.662 Y22.443 E7.78718
G1 X135.803 Y21.893 E7.82477
G1 X136.076 Y21.396 E7.86236
G1 X136.465 Y20.982 E7.89995
G1 X136.944 Y20.678 E7.93754
G1 X137.484 Y20.502 E7.97513
G1 X138.032 Y20.468 E8.01148 F1080.000
G1 X138.607 Y20.573 E8.05020
G1 X139.122 Y20.815 E8.08786
G1 X139.559 Y21.177 E8.12545
G1 X139.893 Y21.636 E8.16304
G1 X140.102 Y22.164 E8.20063
G1 X140.173 Y22.727 E8.23822
G1 X140.102 Y23.290 E8.27581
G1 X139.893 Y23.818 E8.31340
G1 X139.559 Y24.277 E8.35099
G1 X139.122 Y24.639 E8.38858
G1 X138.608 Y24.881 E8.42617
G1 X138.113 Y24.975 E8.45958
G1 X137.862 Y25.337 F7800.000
G1 E2.05958 F4200.00000
G92 E0
G1 Z0.550 F7800.000
G1 X137.567 Y74.892 F7800.000
G1 Z0.350 F7800.000
G1 E6.40000 F4200.00000
G1 X138.206 Y74.970 E6.44261 F1080.000
G1 X138.795 Y75.214 E6.48482
G1 X139.296 Y75.599 E6.52670
G1 X139.681 Y76.101 E6.56857
G1 X139.923 Y76.685 E6.61044
G1 X140.006 Y77.312 E6.65232
G1 X139.923 Y77.939 E6.69419
G1 X139.681 Y78.523 E6.73607
G1 X139.296 Y79.025 E6.77794
G1 X138.795 Y79.410 E6.81981
G1 X138.211 Y79.652 E6.86169
G1 X137.584 Y79.734 E6.90356
G1 X136.957 Y79.652 E6.94543
G1 X136.388 Y79.416 E6.98621
G1 X135.874 Y79.029 E7.02882
G1 X135.486 Y78.523 E7.07103
G1 X135.244 Y77.939 E7.11290
G1 X135.161 Y77.312 E7.15478
G1 X135.244 Y76.685 E7.19665
G1 X135.479 Y76.116 E7.23743
G1 X135.867 Y75.603 E7.28003
G1 X136.372 Y75.214 E7.32225
G1 X136.957 Y74.972 E7.36412
G1 X137.508 Y74.900 E7.40093 F1080.000
G1 X137.566 Y75.346 F7800.000
G1 X138.090 Y75.410 E7.43586 F1080.000
G1 X138.568 Y75.607 E7.47010
G1 X138.976 Y75.920 E7.50413
G1 X139.288 Y76.328 E7.53816
G1 X139.485 Y76.803 E7.57219
G1 X139.552 Y77.312 E7.60622
G1 X139.485 Y77.822 E7.64025
G1 X139.288 Y78.296 E7.67428
G1 X138.976 Y78.704 E7.70831
G1 X138.568 Y79.017 E7.74234
G1 X138.093 Y79.214 E7.77637
G1 X137.584 Y79.281 E7.81040
G1 X137.074 Y79.214 E7.84443
G1 X136.613 Y79.023 E7.87749
G1 X136.194 Y78.707 E7.91225
G1 X135.879 Y78.296 E7.94649
G1 X135.682 Y77.822 E7.98052
G1 X135.615 Y77.312 E8.01455
G1 X135.682 Y76.803 E8.04858
G1 X135.873 Y76.341 E8.08165
G1 X136.189 Y75.922 E8.11641
G1 X136.599 Y75.607 E8.15065
G1 X137.074 Y75.411 E8.18468
G1 X137.507 Y75.354 E8.21358 F1080.000
G1 X137.566 Y75.800 F7800.000
G1 X137.975 Y75.849 E8.24086 F1080.000
G1 X138.341 Y76.000 E8.26712
G1 X138.655 Y76.241 E8.29330
G1 X138.895 Y76.555 E8.31949
G1 X139.047 Y76.920 E8.34567
G1 X139.098 Y77.312 E8.37186
G1 X139.047 Y77.704 E8.39805
G1 X138.895 Y78.070 E8.42423
G1 X138.655 Y78.383 E8.45042
G1 X138.341 Y78.624 E8.47660
G1 X137.976 Y78.775 E8.50279
G1 X137.584 Y78.827 E8.52897
G1 X137.192 Y78.775 E8.55516
G1 X136.838 Y78.629 E8.58051
G1 X136.513 Y78.384 E8.60743
G1 X136.272 Y78.070 E8.63369
G1 X136.120 Y77.704 E8.65987
G1 X136.069 Y77.312 E8.68606
G1 X136.120 Y76.920 E8.71224
G1 X136.267 Y76.566 E8.73760
G1 X136.512 Y76.242 E8.76451
G1 X136.826 Y76.000 E8.79078
G1 X137.192 Y75.849 E8.81696
G1 X137.506 Y75.808 E8.83797 F1080.000
G1 X137.778 Y75.461 F7800.000
G1 X137.584 Y66.734 F7800.000
G1 X136.957 Y66.652 E8.87984 F1080.000
G1 X136.388 Y66.416 E8.92062
G1 X135.874 Y66.029 E8.96323
G1 X135.486 Y65.523 E9.00544
G1 X135.244 Y64.939 E9.04732
G1 X135.161 Y64.312 E9.08919
G1 X135.244 Y63.685 E9.13106
G1 X135.479 Y63.116 E9.17184
G1 X135.867 Y62.603 E9.21444
G1 X136.372 Y62.214 E9.25666
G1 X136.957 Y61.972 E9.29854
G1 X137.567 Y61.892 E9.33931 F1080.000
G1 X138.206 Y61.970 E9.38192
G1 X138.795 Y62.214 E9.42413
G1 X139.296 Y62.599 E9.46601
G1 X139.681 Y63.101 E9.50788
G1 X139.923 Y63.685 E9.54975
G1 X140.006 Y64.312 E9.59163
G1 X139.923 Y64.939 E9.63350
G1 X139.688 Y65.508 E9.67428
G1 X139.301 Y66.022 E9.71688
G1 X138.795 Y66.410 E9.75910
G1 X138.211 Y66.652 E9.80097
G1 X137.643 Y66.727 E9.83887
G1 X137.584 Y66.281 F7800.000
G1 X137.074 Y66.214 E9.87295 F1080.000
G1 X136.613 Y66.023 E9.90602
G1 X136.194 Y65.707 E9.94078
G1 X135.879 Y65.296 E9.97502
G1 X135.682 Y64.822 E10.00905
G1 X135.615 Y64.312 E10.04308
G1 X135.682 Y63.803 E10.07710
G1 X135.873 Y63.341 E10.11017
G1 X136.189 Y62.922 E10.14493
G1 X136.599 Y62.607 E10.17917
G1 X137.074 Y62.411 E10.21320
G1 X137.569 Y62.346 E10.24626 F1080.000
G1 X138.090 Y62.410 E10.28102
G1 X138.568 Y62.607 E10.31526
G1 X138.976 Y62.920 E10.34929
G1 X139.288 Y63.328 E10.38332
G1 X139.485 Y63.803 E10.41735
G1 X139.552 Y64.312 E10.45138
G1 X139.485 Y64.822 E10.48541
G1 X139.294 Y65.283 E10.51847
G1 X138.978 Y65.702 E10.55324
G1 X138.568 Y66.017 E10.58748
G1 X138.093 Y66.214 E10.62151
G1 X137.644 Y66.273 E10.65151
G1 X137.585 Y65.827 F7800.000
G1 X137.192 Y65.775 E10.67779 F1080.000
G1 X136.838 Y65.629 E10.70315
G1 X136.513 Y65.384 E10.73006
G1 X136.272 Y65.070 E10.75633
G1 X136.120 Y64.704 E10.78251
G1 X136.069 Y64.312 E10.80870
G1 X136.120 Y63.920 E10.83488
G1 X136.267 Y63.566 E10.86023
G1 X136.512 Y63.242 E10.88715
G1 X136.826 Y63.000 E10.91341
G1 X137.192 Y62.849 E10.93960
G1 X137.571 Y62.799 E10.96495 F1080.000
G1 X137.975 Y62.849 E10.99187
G1 X138.341 Y63.000 E11.01813
G1 X138.655 Y63.241 E11.04432
G1 X138.895 Y63.555 E11.07050
G1 X139.047 Y63.920 E11.09669
G1 X139.098 Y64.312 E11.12287
G1 X139.047 Y64.704 E11.14906
G1 X138.900 Y65.058 E11.17441
G1 X138.656 Y65.383 E11.20133
G1 X138.341 Y65.624 E11.22759
G1 X137.976 Y65.775 E11.25377
G1 X137.645 Y65.819 E11.27588
G1 X137.372 Y66.162 F7800.000
G1 X122.356 Y64.312 F7800.000
G1 X122.273 Y64.939 E11.31776 F1080.000
G1 X122.031 Y65.523 E11.35963
G1 X121.646 Y66.025 E11.40150
G1 X121.145 Y66.410 E11.44338
G1 X120.561 Y66.652 E11.48525
G1 X119.934 Y66.734 E11.52713
G1 X119.307 Y66.652 E11.56900
G1 X118.722 Y66.410 E11.61087
G1 X118.221 Y66.025 E11.65275
G1 X117.836 Y65.523 E11.69462
G1 X117.594 Y64.939 E11.73650
G1 X117.511 Y64.312 E11.77837
G1 X117.594 Y63.685 E11.82024
G1 X117.829 Y63.116 E11.86102
G1 X118.217 Y62.603 E11.90362
G1 X118.722 Y62.214 E11.94584
G1 X119.307 Y61.972 E11.98771
G1 X119.917 Y61.892 E12.02849 F1080.000
G1 X120.556 Y61.970 E12.07109
G1 X121.145 Y62.214 E12.11331
G1 X121.646 Y62.599 E12.15518
G1 X122.031 Y63.101 E12.19706
G1 X122.273 Y63.685 E12.23893
G1 X122.348 Y64.253 E12.27683
G1 X121.902 Y64.311 F7800.000
G1 X121.835 Y64.822 E12.31091 F1080.000
G1 X121.638 Y65.296 E12.34494
G1 X121.326 Y65.704 E12.37897
G1 X120.918 Y66.017 E12.41300
G1 X120.443 Y66.214 E12.44703
G1 X119.934 Y66.281 E12.48106
G1 X119.424 Y66.214 E12.51509
G1 X118.949 Y66.017 E12.54912
G1 X118.542 Y65.704 E12.58315
G1 X118.229 Y65.296 E12.61718
G1 X118.032 Y64.822 E12.65121
G1 X117.965 Y64.312 E12.68524
G1 X118.032 Y63.803 E12.71927
G1 X118.223 Y63.341 E12.75233
G1 X118.539 Y62.922 E12.78709
G1 X118.949 Y62.607 E12.82133
G1 X119.424 Y62.411 E12.85536
G1 X119.919 Y62.346 E12.88842 F1080.000
G1 X120.440 Y62.410 E12.92319
G1 X120.918 Y62.607 E12.95743
G1 X121.326 Y62.920 E12.99145
G1 X121.638 Y63.328 E13.02548
G1 X121.835 Y63.803 E13.05951
G1 X121.894 Y64.252 E13.08952
G1 X121.448 Y64.311 F7800.000
G1 X121.397 Y64.704 E13.11580 F1080.000
G1 X121.245 Y65.070 E13.14199
G1 X121.005 Y65.383 E13.16817
G1 X120.691 Y65.624 E13.19436
G1 X120.326 Y65.775 E13.22054
G1 X119.934 Y65.827 E13.24673
G1 X119.542 Y65.775 E13.27292
G1 X119.176 Y65.624 E13.29910
G1 X118.862 Y65.383 E13.32529
G1 X118.622 Y65.070 E13.35147
G1 X118.470 Y64.704 E13.37766
G1 X118.419 Y64.312 E13.40384
G1 X118.470 Y63.920 E13.43003
G1 X118.617 Y63.566 E13.45538
G1 X118.862 Y63.242 E13.48230
