;FLAVOR:RepRap
;TIME:4240
M190 S50.000000
M104 S210.000000
M109 S210.000000
M109 S210.000000
G21 ;metric values
G90 ;absolute positioning
M82 ;set extruder to absolute mode
M107 ;start with the fan off
G92 X0 Y0 Z0 ;Zero X Y and Z axis
G1 Z15.0 F9000 ;move the platform down 15mm
G92 E0 ;zero the extruded length
G1 F200 E3 ;extrude 3mm of feed stock
G92 E0 ;zero the extruded length again
G1 F9000
;Put printing message on LCD screen
M117 Printing...
;Generated with Cura_SteamEngine 2.1.3
;LAYER_COUNT:12
;LAYER:0
M107
G1 F4200.000000 E-6.40000
G1 Z20.200
G0 F7200.000 X71.705 Y41.285 Z0.500
;TYPE:SKIRT
G1 Z0.300
G1 F4200.000 E0.00000
G1 F1200.00000 X72.038 Y40.865 E0.02326
G1 X72.430 Y40.499 E0.04654
G1 X72.872 Y40.196 E0.06980
G1 X73.355 Y39.961 E0.09311
G1 X73.866 Y39.801 E0.11635
G1 X74.396 Y39.718 E0.13963
G1 X74.683 Y39.707 E0.15209
G1 X125.182 Y39.707 E2.34376
G1 X125.717 Y39.747 E2.36704
G1 X126.240 Y39.866 E2.39032
G1 X126.739 Y40.061 E2.41357
G1 X127.204 Y40.329 E2.43687
G1 X127.624 Y40.662 E2.46013
G1 X127.990 Y41.054 E2.48340
G1 X128.293 Y41.496 E2.50666
G1 X128.528 Y41.979 E2.52997
G1 X128.688 Y42.490 E2.55321
G1 X128.771 Y43.020 E2.57649
G1 X128.782 Y43.307 E2.58896
G1 X128.782 Y94.807 E4.82407
G1 X128.742 Y95.342 E4.84735
G1 X128.623 Y95.865 E4.87063
G1 X128.428 Y96.364 E4.89388
G1 X128.333 Y96.529 E4.90214
G1 X128.361 Y96.570 E4.90430
G1 X128.596 Y97.053 E4.92761
G1 X128.756 Y97.564 E4.95085
G1 X128.839 Y98.094 E4.97413
G1 X128.850 Y98.381 E4.98660
G1 X128.850 Y149.880 E7.22166
G1 X128.810 Y150.415 E7.24495
G1 X128.691 Y150.938 E7.26822
G1 X128.496 Y151.437 E7.29148
G1 X128.228 Y151.902 E7.31477
G1 X127.895 Y152.322 E7.33803
G1 X127.503 Y152.688 E7.36131
G1 X127.061 Y152.991 E7.38456
G1 X126.578 Y153.226 E7.40788
G1 X126.067 Y153.386 E7.43111
G1 X125.537 Y153.469 E7.45440
G1 X125.250 Y153.480 E7.46686
G1 X74.750 Y153.480 E9.65857
G1 X74.215 Y153.440 E9.68185
G1 X73.692 Y153.321 E9.70513
G1 X73.193 Y153.126 E9.72838
G1 X72.728 Y152.858 E9.75168
G1 X72.308 Y152.525 E9.77494
G1 X71.942 Y152.133 E9.79822
G1 X71.639 Y151.691 E9.82147
G1 X71.404 Y151.208 E9.84478
G1 X71.244 Y150.697 E9.86802
G1 X71.161 Y150.167 E9.89131
G1 X71.150 Y149.880 E9.90377
G1 X71.150 Y98.381 E12.13884
G1 X71.190 Y97.846 E12.16212
G1 X71.309 Y97.323 E12.18540
G1 X71.504 Y96.824 E12.20865
G1 X71.600 Y96.658 E12.21697
G1 X71.572 Y96.618 E12.21909
G1 X71.337 Y96.135 E12.24240
G1 X71.177 Y95.624 E12.26564
G1 X71.094 Y95.094 E12.28892
G1 X71.083 Y94.807 E12.30139
G1 X71.083 Y43.307 E14.53650
G1 X71.123 Y42.772 E14.55978
G1 X71.242 Y42.249 E14.58306
G1 X71.437 Y41.750 E14.60631
G1 X71.705 Y41.285 E14.62960
G0 F7200.00000 X72.102 Y41.415
G1 F1200.000 X72.432 Y41.032 E14.65155
G1 X72.819 Y40.706 E14.67351
G1 X73.252 Y40.445 E14.69545
G1 X73.720 Y40.255 E14.71737
G1 X74.213 Y40.142 E14.73932
G1 X74.683 Y40.107 E14.75978
G1 X125.182 Y40.107 E16.95144
G1 X125.686 Y40.147 E16.97338
G1 X126.177 Y40.266 E16.99531
G1 X126.644 Y40.460 E17.01726
G1 X127.074 Y40.726 E17.03920
G1 X127.457 Y41.056 E17.06114
G1 X127.783 Y41.443 E17.08310
G1 X128.044 Y41.876 E17.10505
G1 X128.234 Y42.344 E17.12697
G1 X128.347 Y42.837 E17.14892
G1 X128.382 Y43.307 E17.16937
G1 X128.382 Y94.807 E19.40448
G1 X128.342 Y95.311 E19.42642
G1 X128.223 Y95.802 E19.44835
G1 X128.029 Y96.269 E19.47030
G1 X127.863 Y96.537 E19.48398
G1 X128.112 Y96.950 E19.50491
G1 X128.302 Y97.418 E19.52683
G1 X128.415 Y97.911 E19.54878
G1 X128.450 Y98.381 E19.56923
G1 X128.450 Y149.880 E21.80430
G1 X128.410 Y150.384 E21.82624
G1 X128.291 Y150.875 E21.84817
G1 X128.097 Y151.342 E21.87012
G1 X127.831 Y151.772 E21.89206
G1 X127.501 Y152.155 E21.91400
G1 X127.114 Y152.481 E21.93596
G1 X126.681 Y152.742 E21.95790
G1 X126.213 Y152.932 E21.97983
G1 X125.720 Y153.045 E22.00178
G1 X125.250 Y153.080 E22.02223
G1 X74.750 Y153.080 E24.21394
G1 X74.246 Y153.040 E24.23588
G1 X73.755 Y152.921 E24.25781
G1 X73.288 Y152.727 E24.27976
G1 X72.858 Y152.461 E24.30170
G1 X72.475 Y152.131 E24.32364
G1 X72.149 Y151.744 E24.34560
G1 X71.888 Y151.311 E24.36754
G1 X71.698 Y150.843 E24.38947
G1 X71.585 Y150.350 E24.41142
G1 X71.550 Y149.880 E24.43187
G1 X71.550 Y98.381 E26.66694
G1 X71.590 Y97.877 E26.68888
G1 X71.709 Y97.386 E26.71080
G1 X71.903 Y96.919 E26.73275
G1 X72.069 Y96.650 E26.74647
G1 X71.821 Y96.238 E26.76734
G1 X71.631 Y95.770 E26.78926
G1 X71.518 Y95.277 E26.81121
G1 X71.483 Y94.807 E26.83167
G1 X71.483 Y43.307 E29.06678
G1 X71.523 Y42.803 E29.08872
G1 X71.642 Y42.312 E29.11064
G1 X71.836 Y41.845 E29.13259
G1 X72.102 Y41.415 E29.15454
G1 F4200.00000 E22.75454
G1 Z0.500
G0 F7200.000 X75.283 Y43.907 Z0.500
;TYPE:WALL-INNER
G1 Z0.300
G1 F4200.000 E29.15454
G1 F1200.00000 X124.582 Y43.907 E31.29412
G1 X124.582 Y94.207 E33.47715
G1 X75.283 Y94.207 E35.61673
G1 X75.283 Y43.907 E37.79976
G0 F7200.00000 X75.383 Y43.977
G0 X78.734 Y47.305
G0 X78.803 Y47.376
G1 F1200.000 X78.540 Y47.682 E37.81727
G1 X78.330 Y48.027 E37.83480
G1 X78.181 Y48.406 E37.85248
G1 X78.100 Y48.793 E37.86964
G1 X78.084 Y49.200 E37.88731
G1 X78.137 Y49.596 E37.90465
G1 X78.260 Y49.985 E37.92236
G1 X78.444 Y50.343 E37.93983
G1 X78.686 Y50.663 E37.95724
G1 X78.977 Y50.941 E37.97471
G1 X79.316 Y51.165 E37.99234
G1 X79.676 Y51.326 E38.00946
G1 X80.076 Y51.427 E38.02736
G1 X80.472 Y51.459 E38.04460
G1 X80.874 Y51.422 E38.06212
G1 X81.270 Y51.315 E38.07993
G1 X81.625 Y51.151 E38.09690
G1 X81.964 Y50.919 E38.11473
G1 X82.256 Y50.635 E38.13241
G1 X82.490 Y50.314 E38.14965
G1 X82.670 Y49.948 E38.16735
G1 X82.783 Y49.570 E38.18447
G1 X82.834 Y49.173 E38.20184
G1 X82.814 Y48.759 E38.21983
G1 X82.726 Y48.374 E38.23697
G1 X82.573 Y47.996 E38.25467
G1 X82.358 Y47.655 E38.27216
G1 X82.091 Y47.355 E38.28959
G1 X81.776 Y47.105 E38.30705
G1 X81.419 Y46.908 E38.32474
G1 X81.040 Y46.778 E38.34213
G1 X80.677 Y46.716 E38.35811
G1 X80.456 Y46.706 E38.36772
G1 X80.226 Y46.718 E38.37771
G1 X79.842 Y46.787 E38.39464
G1 X79.463 Y46.923 E38.41212
G1 X79.114 Y47.122 E38.42956
G1 X78.803 Y47.376 E38.44698
G0 F7200.00000 X78.734 Y47.305
G0 X79.447 Y46.887
G0 X80.222 Y46.679
G0 X81.049 Y46.740
G0 X81.798 Y47.072
G0 X97.162 Y57.351
G0 X97.247 Y57.403
G1 F1200.000 X97.006 Y57.882 E38.47025
G1 X96.849 Y58.395 E38.49354
G1 X96.781 Y58.918 E38.51643
G1 X96.804 Y59.459 E38.53993
G1 X96.915 Y59.978 E38.56296
G1 X97.119 Y60.481 E38.58652
G1 X97.396 Y60.931 E38.60945
G1 X97.750 Y61.335 E38.63277
G1 X98.167 Y61.670 E38.65598
G1 X98.634 Y61.932 E38.67922
G1 X99.141 Y62.110 E38.70254
G1 X99.665 Y62.200 E38.72562
G1 X100.202 Y62.200 E38.74892
G1 X100.724 Y62.110 E38.77191
G1 X101.232 Y61.932 E38.79527
G1 X101.699 Y61.670 E38.81851
G1 X102.116 Y61.335 E38.84173
G1 X102.470 Y60.931 E38.86504
G1 X102.749 Y60.479 E38.88809
G1 X102.949 Y59.981 E38.91138
G1 X103.061 Y59.459 E38.93455
G1 X103.085 Y58.925 E38.95775
G1 X103.016 Y58.389 E38.98121
G1 X102.860 Y57.882 E39.00423
G1 X102.619 Y57.403 E39.02750
G1 X102.298 Y56.969 E39.05093
G1 X101.915 Y56.604 E39.07389
G1 X101.470 Y56.302 E39.09723
G1 X100.984 Y56.082 E39.12038
G1 X100.464 Y55.947 E39.14370
G1 X99.933 Y55.901 E39.16683
G1 X99.402 Y55.947 E39.18996
G1 X98.882 Y56.082 E39.21328
G1 X98.395 Y56.302 E39.23647
G1 X97.951 Y56.604 E39.25978
G1 X97.567 Y56.969 E39.28277
G1 X97.247 Y57.403 E39.30617
G0 F7200.00000 X97.162 Y57.351
G0 X96.810 Y58.387
G0 X96.742 Y58.917
G0 X96.765 Y59.464
G0 X99.386 Y75.849
G0 X99.402 Y75.947
G1 F1200.000 X98.882 Y76.082 E39.32949
G1 X98.395 Y76.302 E39.35268
G1 X97.951 Y76.604 E39.37599
G1 X97.567 Y76.969 E39.39898
G1 X97.247 Y77.403 E39.42238
G1 X97.006 Y77.882 E39.44565
G1 X96.849 Y78.395 E39.46894
G1 X96.781 Y78.918 E39.49183
G1 X96.804 Y79.459 E39.51533
G1 X96.915 Y79.978 E39.53836
G1 X97.119 Y80.481 E39.56192
G1 X97.396 Y80.931 E39.58485
G1 X97.750 Y81.335 E39.60816
G1 X98.167 Y81.670 E39.63138
G1 X98.634 Y81.932 E39.65462
G1 X99.141 Y82.110 E39.67794
G1 X99.665 Y82.200 E39.70101
G1 X100.202 Y82.200 E39.72432
G1 X100.724 Y82.110 E39.74731
G1 X101.232 Y81.932 E39.77067
G1 X101.699 Y81.670 E39.79391
G1 X102.116 Y81.335 E39.81712
G1 X102.470 Y80.931 E39.84044
G1 X102.749 Y80.479 E39.86349
G1 X102.949 Y79.981 E39.88678
G1 X103.061 Y79.459 E39.90995
G1 X103.085 Y78.925 E39.93315
G1 X103.016 Y78.389 E39.95660
G1 X102.860 Y77.882 E39.97963
G1 X102.619 Y77.403 E40.00290
G1 X102.298 Y76.969 E40.02633
G1 X101.915 Y76.604 E40.04929
G1 X101.470 Y76.302 E40.07263
G1 X100.984 Y76.082 E40.09578
G1 X100.464 Y75.947 E40.11910
G1 X99.933 Y75.901 E40.14223
G1 X99.402 Y75.947 E40.16536
G0 F7200.00000 X99.386 Y75.849
G0 X98.376 Y76.268
G0 X82.437 Y87.545
G0 X82.358 Y87.605
G1 F1200.000 X82.091 Y87.305 E40.18279
G1 X81.776 Y87.055 E40.20024
G1 X81.419 Y86.858 E40.21794
G1 X81.040 Y86.728 E40.23533
G1 X80.677 Y86.666 E40.25131
G1 X80.456 Y86.656 E40.26091
G1 X80.226 Y86.668 E40.27091
G1 X79.842 Y86.737 E40.28784
G1 X79.463 Y86.873 E40.30532
G1 X79.114 Y87.072 E40.32275
G1 X78.803 Y87.326 E40.34018
G1 X78.537 Y87.632 E40.35778
G1 X78.331 Y87.974 E40.37510
G1 X78.181 Y88.356 E40.39292
G1 X78.100 Y88.743 E40.41008
G1 X78.084 Y89.150 E40.42775
G1 X78.137 Y89.546 E40.44509
G1 X78.260 Y89.935 E40.46280
G1 X78.444 Y90.293 E40.48027
G1 X78.686 Y90.613 E40.49768
G1 X78.977 Y90.891 E40.51515
G1 X79.316 Y91.115 E40.53278
G1 X79.676 Y91.276 E40.54990
G1 X80.076 Y91.377 E40.56780
G1 X80.472 Y91.409 E40.58504
G1 X80.874 Y91.372 E40.60256
G1 X81.270 Y91.265 E40.62037
G1 X81.625 Y91.101 E40.63734
G1 X81.964 Y90.869 E40.65517
G1 X82.256 Y90.585 E40.67285
G1 X82.490 Y90.264 E40.69009
G1 X82.670 Y89.898 E40.70779
G1 X82.783 Y89.520 E40.72491
G1 X82.834 Y89.123 E40.74228
G1 X82.814 Y88.714 E40.76005
G1 X82.724 Y88.319 E40.77764
G1 X82.572 Y87.944 E40.79520
G1 X82.358 Y87.605 E40.81260
G0 F7200.00000 X82.437 Y87.545
G0 X116.934 Y89.154
G0 X117.033 Y89.150
G1 F1200.000 X117.086 Y89.546 E40.82994
G1 X117.209 Y89.935 E40.84764
G1 X117.393 Y90.293 E40.86511
G1 X117.635 Y90.613 E40.88252
G1 X117.926 Y90.891 E40.89999
G1 X118.265 Y91.115 E40.91762
G1 X118.625 Y91.276 E40.93474
G1 X119.025 Y91.377 E40.95264
G1 X119.421 Y91.409 E40.96989
G1 X119.823 Y91.372 E40.98741
G1 X120.219 Y91.265 E41.00521
G1 X120.574 Y91.101 E41.02218
G1 X120.913 Y90.869 E41.04001
G1 X121.205 Y90.585 E41.05769
G1 X121.439 Y90.264 E41.07493
G1 X121.619 Y89.898 E41.09263
G1 X121.732 Y89.520 E41.10975
G1 X121.783 Y89.123 E41.12712
G1 X121.763 Y88.714 E41.14490
G1 X121.673 Y88.319 E41.16248
G1 X121.521 Y87.944 E41.18004
G1 X121.307 Y87.605 E41.19744
G1 X121.040 Y87.305 E41.21487
G1 X120.725 Y87.055 E41.23232
G1 X120.368 Y86.858 E41.25002
G1 X119.989 Y86.728 E41.26741
G1 X119.626 Y86.666 E41.28339
G1 X119.405 Y86.656 E41.29299
G1 X119.175 Y86.668 E41.30299
G1 X118.791 Y86.737 E41.31992
G1 X118.412 Y86.873 E41.33740
G1 X118.063 Y87.072 E41.35483
G1 X117.752 Y87.326 E41.37226
G1 X117.486 Y87.632 E41.38985
G1 X117.280 Y87.974 E41.40718
G1 X117.130 Y88.356 E41.42499
G1 X117.049 Y88.743 E41.44215
G1 X117.033 Y89.150 E41.45983
G0 F7200.00000 X116.934 Y89.154
G0 X119.421 Y51.559
G0 X119.421 Y51.459
G1 F1200.000 X119.823 Y51.422 E41.47735
G1 X120.219 Y51.315 E41.49515
G1 X120.574 Y51.151 E41.51213
G1 X120.913 Y50.919 E41.52995
G1 X121.205 Y50.635 E41.54763
G1 X121.439 Y50.314 E41.56487
G1 X121.619 Y49.948 E41.58257
G1 X121.732 Y49.570 E41.59970
G1 X121.783 Y49.173 E41.61707
G1 X121.763 Y48.759 E41.63506
G1 X121.675 Y48.374 E41.65220
G1 X121.522 Y47.996 E41.66990
G1 X121.307 Y47.655 E41.68739
G1 X121.040 Y47.355 E41.70482
G1 X120.725 Y47.105 E41.72227
G1 X120.368 Y46.908 E41.73997
G1 X119.989 Y46.778 E41.75736
G1 X119.626 Y46.716 E41.77334
G1 X119.405 Y46.706 E41.78294
G1 X119.175 Y46.718 E41.79294
G1 X118.791 Y46.787 E41.80987
G1 X118.412 Y46.923 E41.82735
G1 X118.063 Y47.122 E41.84478
G1 X117.752 Y47.376 E41.86221
G1 X117.489 Y47.682 E41.87972
G1 X117.279 Y48.027 E41.89725
G1 X117.130 Y48.406 E41.91492
G1 X117.049 Y48.793 E41.93208
G1 X117.033 Y49.200 E41.94976
G1 X117.086 Y49.596 E41.96710
G1 X117.209 Y49.985 E41.98481
G1 X117.393 Y50.343 E42.00228
G1 X117.635 Y50.663 E42.01969
G1 X117.926 Y50.941 E42.03716
G1 X118.265 Y51.165 E42.05479
G1 X118.625 Y51.326 E42.07191
G1 X119.025 Y51.427 E42.08981
G1 X119.421 Y51.459 E42.10705
G0 F7200.00000 X119.420 Y51.057
;TYPE:WALL-OUTER
G1 F1200.000 X119.754 Y51.026 E42.12161
G1 X120.078 Y50.939 E42.13617
G1 X120.382 Y50.799 E42.15070
G1 X120.658 Y50.610 E42.16521
G1 X120.899 Y50.375 E42.17982
G1 X121.096 Y50.105 E42.19433
G1 X121.244 Y49.804 E42.20889
G1 X121.339 Y49.486 E42.22329
G1 X121.382 Y49.153 E42.23786
G1 X121.365 Y48.817 E42.25246
G1 X121.291 Y48.491 E42.26697
G1 X121.165 Y48.180 E42.28153
G1 X120.986 Y47.896 E42.29610
G1 X120.763 Y47.646 E42.31064
G1 X120.501 Y47.438 E42.32516
G1 X120.207 Y47.276 E42.33973
G1 X119.892 Y47.168 E42.35418
G1 X119.579 Y47.114 E42.36797
G1 X119.406 Y47.107 E42.37548
G1 X119.222 Y47.116 E42.38348
G1 X118.896 Y47.174 E42.39785
G1 X118.581 Y47.288 E42.41239
G1 X118.289 Y47.454 E42.42696
G1 X118.031 Y47.665 E42.44143
G1 X117.812 Y47.919 E42.45598
G1 X117.638 Y48.205 E42.47051
G1 X117.516 Y48.517 E42.48505
G1 X117.448 Y48.844 E42.49955
G1 X117.434 Y49.178 E42.51406
G1 X117.479 Y49.512 E42.52868
G1 X117.579 Y49.830 E42.54315
G1 X117.733 Y50.129 E42.55775
G1 X117.934 Y50.395 E42.57222
G1 X118.177 Y50.627 E42.58680
G1 X118.457 Y50.812 E42.60136
G1 X118.762 Y50.948 E42.61586
G1 X119.086 Y51.030 E42.63036
G1 X119.420 Y51.057 E42.64490
G0 F7200.00000 X119.380 Y51.555
G0 X120.232 Y51.352
G0 X120.938 Y50.949
G0 X121.473 Y50.334
G0 X124.512 Y43.977
G0 X124.982 Y43.507
G1 F1200.000 X124.982 Y94.607 E44.86265
G1 X74.883 Y94.607 E47.03696
G1 X74.883 Y43.507 E49.25471
G1 X124.982 Y43.507 E51.42901
G0 F7200.00000 X124.482 Y43.977
G0 X118.041 Y47.090
G0 X102.679 Y57.317
G0 X102.277 Y57.613
G1 F1200.000 X101.999 Y57.237 E51.44930
G1 X101.662 Y56.915 E51.46953
G1 X101.275 Y56.653 E51.48982
G1 X100.850 Y56.461 E51.51006
G1 X100.398 Y56.343 E51.53033
G1 X99.933 Y56.303 E51.55059
G1 X99.468 Y56.343 E51.57084
G1 X99.016 Y56.461 E51.59112
G1 X98.590 Y56.653 E51.61140
G1 X98.204 Y56.915 E51.63164
G1 X97.866 Y57.237 E51.65190
G1 X97.589 Y57.613 E51.67217
G1 X97.379 Y58.030 E51.69243
G1 X97.242 Y58.477 E51.71273
G1 X97.182 Y58.939 E51.73294
G1 X97.202 Y59.406 E51.75323
G1 X97.300 Y59.863 E51.77352
G1 X97.475 Y60.296 E51.79379
G1 X97.720 Y60.694 E51.81407
G1 X98.028 Y61.045 E51.83434
G1 X98.392 Y61.338 E51.85462
G1 X98.799 Y61.566 E51.87486
G1 X99.240 Y61.721 E51.89515
G1 X99.700 Y61.800 E51.91541
G1 X100.166 Y61.800 E51.93563
G1 X100.625 Y61.721 E51.95584
G1 X101.067 Y61.566 E51.97617
G1 X101.474 Y61.338 E51.99642
G1 X101.838 Y61.045 E52.01670
G1 X102.146 Y60.694 E52.03696
G1 X102.391 Y60.296 E52.05725
G1 X102.565 Y59.863 E52.07750
G1 X102.663 Y59.407 E52.09774
G1 X102.684 Y58.940 E52.11803
G1 X102.624 Y58.477 E52.13829
G1 X102.487 Y58.030 E52.15858
G1 X102.277 Y57.613 E52.17885
G0 F7200.00000 X102.680 Y57.318
G0 X103.055 Y58.381
G0 X103.124 Y58.924
G0 X103.100 Y59.464
G0 X100.524 Y75.861
G0 X100.398 Y76.343
G1 F1200.000 X99.933 Y76.303 E52.19910
G1 X99.468 Y76.343 E52.21936
G1 X99.016 Y76.461 E52.23963
G1 X98.590 Y76.653 E52.25991
G1 X98.204 Y76.915 E52.28016
G1 X97.866 Y77.237 E52.30042
G1 X97.589 Y77.613 E52.32069
G1 X97.379 Y78.030 E52.34095
G1 X97.242 Y78.477 E52.36124
G1 X97.182 Y78.939 E52.38146
G1 X97.202 Y79.406 E52.40175
G1 X97.300 Y79.863 E52.42203
G1 X97.475 Y80.296 E52.44230
G1 X97.720 Y80.694 E52.46259
G1 X98.028 Y81.045 E52.48285
G1 X98.392 Y81.338 E52.50313
G1 X98.799 Y81.566 E52.52338
G1 X99.240 Y81.721 E52.54367
G1 X99.700 Y81.800 E52.56392
G1 X100.166 Y81.800 E52.58415
