;FLAVOR:RepRap
;TIME:1503
M190 S50.000000
M104 S210.000000
M109 S210.000000
G21 ;metric values
G90 ;absolute positioning
M82 ;set extruder to absolute mode
M107 ;start with the fan off
G28 Z0 ;move Z to min endstops
G92 X0 Y0 Z0 ;Zero X Y and Z axis
G1 Z15.0 F9000 ;move the platform down 15mm
G92 E0 ;zero the extruded length
G1 F200 E3 ;extrude 3mm of feed stock
G92 E0 ;zero the extruded length again
G1 F9000
;Put printing message on LCD screen
M117 Printing...
;Generated with Cura_SteamEngine 2.1.3
;LAYER_COUNT:8
;LAYER:0
M107
G1 F4200.000000 E-6.40000
G1 Z20.200
G0 F7200.000 X72.497 Y84.693 Z0.500
;TYPE:SKIRT
G1 Z0.300
G1 F4200.000 E0.00000
G1 F1200.00000 X72.939 Y84.390 E0.02326
G1 X73.422 Y84.155 E0.04657
G1 X73.933 Y83.995 E0.06981
G1 X74.463 Y83.912 E0.09309
G1 X74.750 Y83.901 E0.10556
G1 X125.250 Y83.901 E2.29726
G1 X125.785 Y83.941 E2.32055
G1 X126.308 Y84.060 E2.34383
G1 X126.807 Y84.255 E2.36708
G1 X127.272 Y84.523 E2.39037
G1 X127.692 Y84.856 E2.41363
G1 X128.058 Y85.248 E2.43691
G1 X128.361 Y85.690 E2.46017
G1 X128.596 Y86.173 E2.48348
G1 X128.756 Y86.684 E2.50672
G1 X128.839 Y87.214 E2.53000
G1 X128.850 Y87.501 E2.54246
G1 X128.850 Y112.499 E3.62738
G1 X128.810 Y113.034 E3.65067
G1 X128.691 Y113.557 E3.67394
G1 X128.496 Y114.056 E3.69720
G1 X128.228 Y114.521 E3.72049
G1 X127.895 Y114.941 E3.74375
G1 X127.503 Y115.307 E3.76703
G1 X127.061 Y115.610 E3.79028
G1 X126.578 Y115.845 E3.81360
G1 X126.067 Y116.005 E3.83683
G1 X125.537 Y116.088 E3.86012
G1 X125.250 Y116.099 E3.87258
G1 X74.750 Y116.099 E6.06429
G1 X74.215 Y116.059 E6.08757
G1 X73.692 Y115.940 E6.11085
G1 X73.193 Y115.745 E6.13410
G1 X72.728 Y115.477 E6.15740
G1 X72.308 Y115.144 E6.18066
G1 X71.942 Y114.752 E6.20393
G1 X71.639 Y114.310 E6.22719
G1 X71.404 Y113.827 E6.25050
G1 X71.244 Y113.316 E6.27374
G1 X71.161 Y112.786 E6.29703
G1 X71.150 Y112.499 E6.30949
G1 X71.150 Y87.501 E7.39441
G1 X71.190 Y86.966 E7.41769
G1 X71.309 Y86.443 E7.44097
G1 X71.504 Y85.944 E7.46422
G1 X71.772 Y85.479 E7.48751
G1 X72.105 Y85.059 E7.51078
G1 X72.497 Y84.693 E7.53405
G0 F7200.00000 X72.886 Y84.900
G1 F1200.000 X73.319 Y84.639 E7.55599
G1 X73.787 Y84.449 E7.57792
G1 X74.280 Y84.336 E7.59987
G1 X74.750 Y84.301 E7.62032
G1 X125.250 Y84.301 E9.81203
G1 X125.754 Y84.341 E9.83397
G1 X126.245 Y84.460 E9.85590
G1 X126.712 Y84.654 E9.87785
G1 X127.142 Y84.920 E9.89979
G1 X127.525 Y85.250 E9.92173
G1 X127.851 Y85.637 E9.94369
G1 X128.112 Y86.070 E9.96563
G1 X128.302 Y86.538 E9.98756
G1 X128.415 Y87.031 E10.00951
G1 X128.450 Y87.501 E10.02996
G1 X128.450 Y112.499 E11.11488
G1 X128.410 Y113.003 E11.13682
G1 X128.291 Y113.494 E11.15875
G1 X128.097 Y113.961 E11.18069
G1 X127.831 Y114.391 E11.20264
G1 X127.501 Y114.774 E11.22458
G1 X127.114 Y115.100 E11.24654
G1 X126.681 Y115.361 E11.26848
G1 X126.213 Y115.551 E11.29040
G1 X125.720 Y115.664 E11.31236
G1 X125.250 Y115.699 E11.33281
G1 X74.750 Y115.699 E13.52452
G1 X74.246 Y115.659 E13.54646
G1 X73.755 Y115.540 E13.56839
G1 X73.288 Y115.346 E13.59033
G1 X72.858 Y115.080 E13.61228
G1 X72.475 Y114.750 E13.63422
G1 X72.149 Y114.363 E13.65618
G1 X71.888 Y113.930 E13.67812
G1 X71.698 Y113.462 E13.70004
G1 X71.585 Y112.969 E13.72199
G1 X71.550 Y112.499 E13.74245
G1 X71.550 Y87.501 E14.82737
G1 X71.590 Y86.997 E14.84931
G1 X71.709 Y86.506 E14.87124
G1 X71.903 Y86.039 E14.89318
G1 X72.169 Y85.609 E14.91513
G1 X72.499 Y85.226 E14.93707
G1 X72.886 Y84.900 E14.95903
G1 F4200.00000 E8.55903
G1 Z0.500
G0 F7200.000 X75.350 Y88.101 Z0.500
;TYPE:WALL-INNER
G1 Z0.300
G1 F4200.000 E14.95903
G1 F1200.00000 X124.650 Y88.101 E17.09866
G1 X124.650 Y111.899 E18.13149
G1 X75.350 Y111.899 E20.27112
G1 X75.350 Y88.101 E21.30396
G0 F7200.00000 X75.450 Y88.171
G0 X78.812 Y91.486
G0 X78.881 Y91.558
G1 F1200.000 X78.615 Y91.861 E21.32146
G1 X78.404 Y92.206 E21.33901
G1 X78.251 Y92.582 E21.35663
G1 X78.168 Y92.972 E21.37393
G1 X78.150 Y93.379 E21.39161
G1 X78.201 Y93.773 E21.40886
G1 X78.319 Y94.160 E21.42641
G1 X78.501 Y94.521 E21.44396
G1 X78.740 Y94.844 E21.46140
G1 X79.032 Y95.125 E21.47899
G1 X79.369 Y95.351 E21.49660
G1 X79.733 Y95.517 E21.51396
G1 X80.126 Y95.620 E21.53159
G1 X80.526 Y95.654 E21.54901
G1 X80.925 Y95.620 E21.56639
G1 X81.318 Y95.517 E21.58403
G1 X81.682 Y95.351 E21.60139
G1 X82.019 Y95.125 E21.61900
G1 X82.311 Y94.844 E21.63659
G1 X82.550 Y94.521 E21.65403
G1 X82.732 Y94.160 E21.67157
G1 X82.850 Y93.773 E21.68913
G1 X82.901 Y93.379 E21.70637
G1 X82.883 Y92.972 E21.72405
G1 X82.800 Y92.582 E21.74136
G1 X82.647 Y92.206 E21.75898
G1 X82.436 Y91.861 E21.77653
G1 X82.170 Y91.558 E21.79403
G1 X81.856 Y91.307 E21.81147
G1 X81.507 Y91.110 E21.82887
G1 X81.120 Y90.975 E21.84666
G1 X80.729 Y90.907 E21.86388
G1 X80.322 Y90.907 E21.88154
G1 X79.931 Y90.975 E21.89877
G1 X79.544 Y91.110 E21.91656
G1 X79.195 Y91.307 E21.93395
G1 X78.881 Y91.558 E21.95140
G0 F7200.00000 X78.812 Y91.486
G0 X79.528 Y91.074
G0 X80.319 Y90.868
G0 X81.130 Y90.937
G0 X81.878 Y91.274
G0 X97.742 Y101.860
G0 X97.827 Y101.912
G1 F1200.000 X97.632 Y102.299 E21.97020
G1 X97.505 Y102.715 E21.98908
G1 X97.450 Y103.137 E22.00755
G1 X97.469 Y103.574 E22.02653
G1 X97.561 Y103.999 E22.04541
G1 X97.723 Y104.401 E22.06422
G1 X97.948 Y104.765 E22.08279
G1 X98.234 Y105.092 E22.10164
G1 X98.572 Y105.363 E22.12044
G1 X98.946 Y105.574 E22.13908
G1 X99.362 Y105.720 E22.15822
G1 X99.781 Y105.792 E22.17667
G1 X100.219 Y105.792 E22.19568
G1 X100.638 Y105.720 E22.21413
G1 X101.054 Y105.574 E22.23326
G1 X101.428 Y105.363 E22.25190
G1 X101.766 Y105.092 E22.27070
G1 X102.052 Y104.765 E22.28955
G1 X102.277 Y104.401 E22.30813
G1 X102.439 Y103.999 E22.32694
G1 X102.531 Y103.574 E22.34581
G1 X102.550 Y103.137 E22.36479
G1 X102.495 Y102.715 E22.38326
G1 X102.368 Y102.299 E22.40214
G1 X102.173 Y101.912 E22.42095
G1 X101.916 Y101.565 E22.43969
G1 X101.599 Y101.260 E22.45878
G1 X101.247 Y101.023 E22.47720
G1 X100.849 Y100.843 E22.49615
G1 X100.431 Y100.735 E22.51489
G1 X100.000 Y100.696 E22.53367
G1 X99.569 Y100.735 E22.55245
G1 X99.151 Y100.843 E22.57119
G1 X98.753 Y101.023 E22.59015
G1 X98.401 Y101.260 E22.60857
G1 X98.084 Y101.565 E22.62766
G1 X97.827 Y101.912 E22.64640
G0 F7200.00000 X97.742 Y101.860
G0 X98.376 Y101.229
G0 X99.138 Y100.806
G0 X117.176 Y94.197
G0 X117.268 Y94.160
G1 F1200.000 X117.450 Y94.521 E22.66394
G1 X117.689 Y94.844 E22.68138
G1 X117.981 Y95.125 E22.69897
G1 X118.318 Y95.351 E22.71658
G1 X118.682 Y95.517 E22.73394
G1 X119.075 Y95.620 E22.75158
G1 X119.475 Y95.654 E22.76900
G1 X119.874 Y95.620 E22.78638
G1 X120.267 Y95.517 E22.80401
G1 X120.631 Y95.351 E22.82137
G1 X120.968 Y95.125 E22.83898
G1 X121.260 Y94.844 E22.85657
G1 X121.499 Y94.521 E22.87401
G1 X121.681 Y94.160 E22.89156
G1 X121.799 Y93.773 E22.90912
G1 X121.850 Y93.379 E22.92636
G1 X121.832 Y92.972 E22.94404
G1 X121.749 Y92.582 E22.96134
G1 X121.596 Y92.206 E22.97896
G1 X121.385 Y91.861 E22.99651
G1 X121.119 Y91.558 E23.01401
G1 X120.805 Y91.307 E23.03146
G1 X120.456 Y91.110 E23.04885
G1 X120.069 Y90.975 E23.06664
G1 X119.678 Y90.907 E23.08386
G1 X119.271 Y90.907 E23.10153
G1 X118.880 Y90.975 E23.11875
G1 X118.493 Y91.110 E23.13654
G1 X118.144 Y91.307 E23.15393
G1 X117.830 Y91.558 E23.17138
G1 X117.564 Y91.861 E23.18888
G1 X117.353 Y92.206 E23.20643
G1 X117.200 Y92.582 E23.22405
G1 X117.117 Y92.972 E23.24135
G1 X117.099 Y93.379 E23.25903
G1 X117.150 Y93.773 E23.27628
G1 X117.268 Y94.160 E23.29384
G0 F7200.00000 X117.641 Y94.012
;TYPE:WALL-OUTER
G1 F1200.000 X117.792 Y94.311 E23.30837
G1 X117.991 Y94.580 E23.32290
G1 X118.233 Y94.813 E23.33748
G1 X118.511 Y95.000 E23.35202
G1 X118.816 Y95.138 E23.36654
G1 X119.141 Y95.223 E23.38112
G1 X119.475 Y95.252 E23.39567
G1 X119.808 Y95.223 E23.41018
G1 X120.133 Y95.138 E23.42476
G1 X120.438 Y95.000 E23.43929
G1 X120.716 Y94.813 E23.45383
G1 X120.958 Y94.580 E23.46841
G1 X121.157 Y94.311 E23.48293
G1 X121.308 Y94.012 E23.49747
G1 X121.406 Y93.691 E23.51204
G1 X121.449 Y93.359 E23.52657
G1 X121.434 Y93.025 E23.54108
G1 X121.364 Y92.697 E23.55563
G1 X121.238 Y92.386 E23.57019
G1 X121.063 Y92.101 E23.58471
G1 X120.842 Y91.849 E23.59926
G1 X120.580 Y91.639 E23.61383
G1 X120.289 Y91.475 E23.62833
G1 X119.972 Y91.364 E23.64290
G1 X119.642 Y91.307 E23.65744
G1 X119.307 Y91.307 E23.67198
G1 X118.977 Y91.364 E23.68651
G1 X118.660 Y91.475 E23.70109
G1 X118.369 Y91.639 E23.71558
G1 X118.107 Y91.849 E23.73016
G1 X117.886 Y92.101 E23.74470
G1 X117.711 Y92.386 E23.75922
G1 X117.585 Y92.697 E23.77378
G1 X117.515 Y93.025 E23.78834
G1 X117.500 Y93.359 E23.80285
G1 X117.543 Y93.691 E23.81738
G1 X117.641 Y94.012 E23.83194
G0 F7200.00000 X117.194 Y94.236
G0 X117.060 Y93.380
G0 X117.162 Y92.571
G0 X117.532 Y91.838
G0 X118.122 Y91.274
G0 X124.580 Y88.171
G0 X125.050 Y87.701
G1 F1200.000 X125.050 Y112.299 E24.89950
G1 X74.950 Y112.299 E27.07385
G1 X74.950 Y87.701 E28.14141
G1 X125.050 Y87.701 E30.31575
G0 F7200.00000 X124.550 Y88.171
G0 X118.122 Y91.274
G0 X102.277 Y101.897
G0 X101.831 Y102.122
G1 F1200.000 X101.614 Y101.829 E30.33158
G1 X101.351 Y101.576 E30.34742
G1 X101.049 Y101.372 E30.36323
G1 X100.716 Y101.222 E30.37908
G1 X100.363 Y101.130 E30.39492
G1 X100.000 Y101.098 E30.41073
G1 X99.637 Y101.130 E30.42655
G1 X99.284 Y101.222 E30.44238
G1 X98.951 Y101.372 E30.45823
G1 X98.649 Y101.576 E30.47405
G1 X98.386 Y101.829 E30.48988
G1 X98.169 Y102.122 E30.50571
G1 X98.005 Y102.447 E30.52151
G1 X97.898 Y102.797 E30.53739
G1 X97.851 Y103.158 E30.55319
G1 X97.867 Y103.523 E30.56905
G1 X97.944 Y103.880 E30.58490
G1 X98.080 Y104.217 E30.60067
G1 X98.272 Y104.528 E30.61653
G1 X98.512 Y104.802 E30.63234
G1 X98.797 Y105.031 E30.64821
G1 X99.114 Y105.209 E30.66399
G1 X99.458 Y105.331 E30.67983
G1 X99.818 Y105.392 E30.69567
G1 X100.182 Y105.392 E30.71147
G1 X100.542 Y105.331 E30.72732
G1 X100.886 Y105.209 E30.74316
G1 X101.203 Y105.031 E30.75894
G1 X101.488 Y104.802 E30.77480
G1 X101.728 Y104.528 E30.79061
G1 X101.920 Y104.217 E30.80647
G1 X102.056 Y103.880 E30.82225
G1 X102.133 Y103.523 E30.83810
G1 X102.149 Y103.158 E30.85395
G1 X102.102 Y102.797 E30.86975
G1 X101.995 Y102.447 E30.88564
G1 X101.831 Y102.122 E30.90144
G0 F7200.00000 X102.277 Y101.897
G0 X101.624 Y101.229
G0 X100.862 Y100.806
G0 X82.804 Y94.238
G0 X82.359 Y94.012
G1 F1200.000 X82.457 Y93.691 E30.91600
G1 X82.500 Y93.359 E30.93053
G1 X82.485 Y93.025 E30.94504
G1 X82.415 Y92.697 E30.95960
G1 X82.289 Y92.386 E30.97416
G1 X82.114 Y92.101 E30.98868
G1 X81.893 Y91.849 E31.00322
G1 X81.631 Y91.639 E31.01779
G1 X81.340 Y91.475 E31.03229
G1 X81.023 Y91.364 E31.04687
G1 X80.693 Y91.307 E31.06140
G1 X80.358 Y91.307 E31.07594
G1 X80.028 Y91.364 E31.09048
G1 X79.711 Y91.475 E31.10505
G1 X79.420 Y91.639 E31.11955
G1 X79.158 Y91.849 E31.13412
G1 X78.937 Y92.101 E31.14867
G1 X78.762 Y92.386 E31.16318
G1 X78.636 Y92.697 E31.17775
G1 X78.566 Y93.025 E31.19230
G1 X78.551 Y93.359 E31.20681
G1 X78.594 Y93.691 E31.22134
G1 X78.692 Y94.012 E31.23591
G1 X78.843 Y94.311 E31.25045
G1 X79.042 Y94.580 E31.26497
G1 X79.284 Y94.813 E31.27955
G1 X79.562 Y95.000 E31.29409
G1 X79.867 Y95.138 E31.30862
G1 X80.192 Y95.223 E31.32320
G1 X80.526 Y95.252 E31.33775
G1 X80.859 Y95.223 E31.35225
G1 X81.184 Y95.138 E31.36683
G1 X81.489 Y95.000 E31.38136
G1 X81.767 Y94.813 E31.39590
G1 X82.009 Y94.580 E31.41048
G1 X82.208 Y94.311 E31.42501
G1 X82.359 Y94.012 E31.43954
G0 F7200.00000 X82.886 Y94.200
;TYPE:SKIN
G1 F1200.000 X100.424 Y111.738 E32.51597
G0 X100.494 Y111.808
G0 F7200.000 X99.859 Y111.738
G1 F1200.000 X82.698 Y94.578 E33.56924
G0 X82.628 Y94.508
G0 F7200.000 X82.462 Y94.907
G1 F1200.000 X99.293 Y111.738 E34.60227
G0 X99.363 Y111.808
G0 F7200.000 X98.727 Y111.738
G1 F1200.000 X82.179 Y95.190 E35.61794
G0 X82.109 Y95.120
G0 F7200.000 X81.853 Y95.429
G1 F1200.000 X98.161 Y111.738 E36.61891
G0 X98.231 Y111.808
G0 F7200.000 X97.596 Y111.738
G1 F1200.000 X81.477 Y95.619 E37.60825
G0 X81.407 Y95.549
G0 F7200.000 X81.045 Y95.752
G1 F1200.000 X97.030 Y111.738 E38.58939
G0 X97.100 Y111.808
G0 F7200.000 X96.464 Y111.738
G1 F1200.000 X80.539 Y95.812 E39.56685
G0 X80.469 Y95.742
G0 F7200.000 X79.881 Y95.721
G1 F1200.000 X95.899 Y111.738 E40.54996
G0 X95.969 Y111.808
G0 F7200.000 X95.333 Y111.738
G1 F1200.000 X75.509 Y91.914 E41.76670
G0 X75.439 Y91.844
G0 F7200.000 X75.509 Y91.349
G1 F1200.000 X78.079 Y93.918 E41.92441
G0 X78.149 Y93.988
G0 F7200.000 X77.994 Y93.268
G1 F1200.000 X75.509 Y90.783 E42.07693
G0 X75.439 Y90.713
G0 F7200.000 X75.509 Y90.217
G1 F1200.000 X78.049 Y92.757 E42.23283
G0 X78.119 Y92.827
G0 F7200.000 X78.183 Y92.325
G1 F1200.000 X75.509 Y89.651 E42.39695
G0 X75.439 Y89.581
G0 F7200.000 X75.509 Y89.086
G1 F1200.000 X78.372 Y91.949 E42.57267
G0 X78.442 Y92.019
G0 F7200.000 X78.611 Y91.621
G1 F1200.000 X75.509 Y88.520 E42.76303
G0 X75.439 Y88.450
G0 F7200.000 X75.815 Y88.261
G1 F1200.000 X78.895 Y91.340 E42.95204
G0 X78.965 Y91.410
G0 F7200.000 X79.225 Y91.105
G1 F1200.000 X76.381 Y88.261 E43.12660
G0 X76.311 Y88.191
G0 F7200.000 X76.947 Y88.261
G1 F1200.000 X79.603 Y90.917 E43.28962
G0 X79.673 Y90.987
G0 F7200.000 X80.043 Y90.791
G1 F1200.000 X77.513 Y88.261 E43.44490
G0 X77.443 Y88.191
G0 F7200.000 X78.078 Y88.261
G1 F1200.000 X80.563 Y90.745 E43.59739
G0 X80.633 Y90.815
G0 F7200.000 X81.225 Y90.842
G1 F1200.000 X78.644 Y88.261 E43.75581
G0 X78.574 Y88.191
G0 F7200.000 X79.210 Y88.261
G1 F1200.000 X102.687 Y111.738 E45.19676
G0 X102.757 Y111.808
G0 F7200.000 X102.121 Y111.738
G1 F1200.000 X82.963 Y92.580 E46.37262
G0 X82.893 Y92.510
G0 F7200.000 X83.054 Y93.236
G1 F1200.000 X101.556 Y111.738 E47.50822
G0 X101.626 Y111.808
G0 F7200.000 X100.990 Y111.738
G1 F1200.000 X83.012 Y93.760 E48.61166
G0 X82.942 Y93.690
G0 F7200.000 X82.961 Y93.692
G0 X83.169 Y88.261
G1 F1200.000 X97.404 Y102.495 E49.48533
G0 X97.474 Y102.565
G0 F7200.000 X97.560 Y102.086
G1 F1200.000 X83.735 Y88.261 E50.33387
G0 X83.665 Y88.191
G0 F7200.000 X84.301 Y88.261
G1 F1200.000 X97.765 Y101.725 E51.16025
G0 X97.835 Y101.795
G0 F7200.000 X98.014 Y101.408
G1 F1200.000 X84.866 Y88.261 E51.96720
G0 X84.796 Y88.191
G0 F7200.000 X85.432 Y88.261
G1 F1200.000 X98.303 Y101.131 E52.75716
G0 X98.373 Y101.201
G0 F7200.000 X98.641 Y100.904
G1 F1200.000 X85.998 Y88.261 E53.53315
G0 X85.928 Y88.191
G0 F7200.000 X86.564 Y88.261
G1 F1200.000 X99.025 Y100.722 E54.29797
G0 X99.095 Y100.792
G0 F7200.000 X99.464 Y100.595
G1 F1200.000 X87.129 Y88.261 E55.05502
G0 X87.059 Y88.191
G0 F7200.000 X87.695 Y88.261
G1 F1200.000 X99.970 Y100.536 E55.80843
G0 X100.040 Y100.606
G0 F7200.000 X100.618 Y100.618
G1 F1200.000 X88.261 Y88.261 E56.56686
G0 X88.191 Y88.191
G0 F7200.000 X88.826 Y88.261
G1 F1200.000 X101.763 Y101.198 E57.36090
G0 X101.833 Y101.268
G0 F7200.000 X102.070 Y101.504
G1 F1200.000 X112.304 Y111.738 E57.98903
G0 X112.374 Y111.808
G0 F7200.000 X112.869 Y111.738
G1 F1200.000 X89.392 Y88.261 E59.42998
G0 X89.322 Y88.191
G0 F7200.000 X89.958 Y88.261
G1 F1200.000 X113.435 Y111.738 E60.87093
G0 X113.505 Y111.808
G0 F7200.000 X114.001 Y111.738
G1 F1200.000 X90.523 Y88.261 E62.31191
G0 X90.453 Y88.191
G0 F7200.000 X91.089 Y88.261
G1 F1200.000 X114.566 Y111.738 E63.75286
G0 X114.636 Y111.808
G0 F7200.000 X115.132 Y111.738
G1 F1200.000 X91.655 Y88.261 E65.19381
G0 X91.585 Y88.191
G0 F7200.000 X92.220 Y88.261
G1 F1200.000 X115.698 Y111.738 E66.63479
G0 X115.768 Y111.808
G0 F7200.000 X116.263 Y111.738
G1 F1200.000 X92.786 Y88.261 E68.07574
G0 X92.716 Y88.191
G0 F7200.000 X93.352 Y88.261
G1 F1200.000 X116.829 Y111.738 E69.51669
G0 X116.899 Y111.808
G0 F7200.000 X117.395 Y111.738
G1 F1200.000 X93.917 Y88.261 E70.95768
G0 X93.847 Y88.191
G0 F7200.000 X94.483 Y88.261
