;FLAVOR:RepRap
;TIME:338
M190 S50.000000
M104 S210.000000
M109 S210.000000
G21 ;metric values
G90 ;absolute positioning
M82 ;set extruder to absolute mode
M107 ;start with the fan off
G92 X0 Y0 Z0 ;Zero X Y and Z axis
G1 Z15.0 F9000 ;move the platform down 15mm
G92 E0 ;zero the extruded length
G1 F200 E3 ;extrude 3mm of feed stock
G92 E0 ;zero the extruded length again
G1 F9000
;Put printing message on LCD screen
M117 Printing...
;Generated with Cura_SteamEngine 2.1.3
;LAYER_COUNT:1
;LAYER:0
M107
G1 F4200.000000 E-6.40000
G1 Z20.200
G0 F7200.000 X72.105 Y71.809 Z0.500
;TYPE:SKIRT
G1 Z0.300
G1 F4200.000 E0.00000
G1 F1200.00000 X72.497 Y71.443 E0.02328
G1 X72.939 Y71.140 E0.04653
G1 X73.421 Y70.905 E0.06981
G1 X73.933 Y70.745 E0.09309
G1 X74.463 Y70.662 E0.11637
G1 X74.750 Y70.651 E0.12883
G1 X125.250 Y70.651 E2.32054
G1 X125.785 Y70.691 E2.34383
G1 X126.308 Y70.810 E2.36710
G1 X126.807 Y71.005 E2.39036
G1 X127.272 Y71.273 E2.41365
G1 X127.692 Y71.606 E2.43691
G1 X128.058 Y71.998 E2.46019
G1 X128.361 Y72.440 E2.48344
G1 X128.596 Y72.923 E2.50676
G1 X128.756 Y73.434 E2.52999
G1 X128.839 Y73.964 E2.55328
G1 X128.850 Y74.251 E2.56574
G1 X128.850 Y125.744 E4.80055
G1 X128.810 Y126.279 E4.82383
G1 X128.691 Y126.802 E4.84711
G1 X128.496 Y127.301 E4.87036
G1 X128.228 Y127.766 E4.89365
G1 X127.895 Y128.186 E4.91692
G1 X127.503 Y128.552 E4.94019
G1 X127.061 Y128.855 E4.96345
G1 X126.578 Y129.090 E4.98676
G1 X126.067 Y129.250 E5.01000
G1 X125.537 Y129.333 E5.03328
G1 X125.250 Y129.344 E5.04575
G1 X74.755 Y129.349 E7.23724
G1 X74.221 Y129.309 E7.26048
G1 X73.698 Y129.190 E7.28376
G1 X73.198 Y128.995 E7.30705
G1 X72.733 Y128.728 E7.33032
G1 X72.313 Y128.394 E7.35361
G1 X71.947 Y128.002 E7.37689
G1 X71.644 Y127.560 E7.40014
G1 X71.409 Y127.078 E7.42342
G1 X71.249 Y126.566 E7.44670
G1 X71.166 Y126.036 E7.46998
G1 X71.155 Y125.749 E7.48244
G1 X71.150 Y74.251 E9.71747
G1 X71.190 Y73.717 E9.74071
G1 X71.309 Y73.194 E9.76398
G1 X71.504 Y72.694 E9.78728
G1 X71.771 Y72.229 E9.81055
G1 X72.105 Y71.809 E9.83384
G0 F7200.00000 X72.499 Y71.976
G1 F1200.000 X72.886 Y71.650 E9.85580
G1 X73.318 Y71.389 E9.87770
G1 X73.787 Y71.199 E9.89966
G1 X74.280 Y71.086 E9.92162
G1 X74.750 Y71.051 E9.94207
G1 X125.250 Y71.051 E12.13378
G1 X125.754 Y71.091 E12.15572
G1 X126.245 Y71.210 E12.17765
G1 X126.712 Y71.404 E12.19959
G1 X127.142 Y71.670 E12.22154
G1 X127.525 Y72.000 E12.24348
G1 X127.851 Y72.387 E12.26544
G1 X128.112 Y72.820 E12.28738
G1 X128.302 Y73.288 E12.30930
G1 X128.415 Y73.781 E12.33125
G1 X128.450 Y74.251 E12.35171
G1 X128.450 Y125.744 E14.58651
G1 X128.410 Y126.248 E14.60846
G1 X128.291 Y126.739 E14.63038
G1 X128.097 Y127.206 E14.65233
G1 X127.831 Y127.636 E14.67427
G1 X127.501 Y128.019 E14.69622
G1 X127.114 Y128.345 E14.71818
G1 X126.681 Y128.606 E14.74012
G1 X126.213 Y128.796 E14.76204
G1 X125.720 Y128.909 E14.78399
G1 X125.250 Y128.944 E14.80445
G1 X74.755 Y128.949 E16.99594
G1 X74.251 Y128.909 E17.01788
G1 X73.760 Y128.790 E17.03981
G1 X73.293 Y128.596 E17.06175
G1 X72.863 Y128.330 E17.08370
G1 X72.480 Y128.000 E17.10564
G1 X72.154 Y127.613 E17.12760
G1 X71.893 Y127.181 E17.14950
G1 X71.703 Y126.712 E17.17147
G1 X71.590 Y126.219 E17.19342
G1 X71.555 Y125.749 E17.21387
G1 X71.550 Y74.251 E19.44889
G1 X71.590 Y73.747 E19.47083
G1 X71.709 Y73.256 E19.49276
G1 X71.903 Y72.789 E19.51471
G1 X72.169 Y72.359 E19.53665
G1 X72.499 Y71.976 E19.55859
G1 F4200.00000 E13.15859
G1 Z0.500
G0 F7200.000 X75.350 Y74.851 Z0.500
;TYPE:WALL-INNER
G1 Z0.300
G1 F4200.000 E19.55859
G1 F1200.00000 X124.650 Y74.851 E21.69822
G1 X124.650 Y125.144 E23.88095
G1 X75.355 Y125.149 E26.02036
G1 X75.350 Y74.851 E28.20330
G0 F7200.00000 X75.451 Y74.922
G0 X78.813 Y78.235
G0 X78.882 Y78.307
G1 F1200.000 X78.616 Y78.610 E28.22080
G1 X78.405 Y78.955 E28.23835
G1 X78.252 Y79.331 E28.25597
G1 X78.169 Y79.721 E28.27327
G1 X78.151 Y80.123 E28.29074
G1 X78.202 Y80.527 E28.30841
G1 X78.317 Y80.908 E28.32568
G1 X78.500 Y81.270 E28.34328
G1 X78.739 Y81.593 E28.36072
G1 X79.031 Y81.874 E28.37831
G1 X79.368 Y82.100 E28.39592
G1 X79.732 Y82.266 E28.41328
G1 X80.125 Y82.369 E28.43092
G1 X80.522 Y82.403 E28.44821
G1 X80.923 Y82.370 E28.46567
G1 X81.316 Y82.268 E28.48329
G1 X81.681 Y82.102 E28.50070
G1 X82.018 Y81.876 E28.51831
G1 X82.310 Y81.595 E28.53589
G1 X82.549 Y81.272 E28.55333
G1 X82.731 Y80.911 E28.57088
G1 X82.848 Y80.529 E28.58822
G1 X82.898 Y80.126 E28.60584
G1 X82.885 Y79.726 E28.62321
G1 X82.801 Y79.333 E28.64065
G1 X82.648 Y78.957 E28.65827
G1 X82.437 Y78.612 E28.67582
G1 X82.171 Y78.309 E28.69332
G1 X81.857 Y78.058 E28.71077
G1 X81.508 Y77.861 E28.72816
G1 X81.121 Y77.726 E28.74595
G1 X80.743 Y77.661 E28.76259
G1 X80.530 Y77.652 E28.77185
G1 X80.314 Y77.657 E28.78122
G1 X79.931 Y77.724 E28.79810
G1 X79.545 Y77.859 E28.81585
G1 X79.196 Y78.056 E28.83324
G1 X78.882 Y78.307 E28.85069
G0 F7200.00000 X78.813 Y78.235
G0 X79.529 Y77.823
G0 X80.311 Y77.618
G0 X81.131 Y77.688
G0 X81.879 Y78.025
G0 X94.965 Y86.900
G0 X95.050 Y86.952
G1 F1200.000 X94.605 Y87.833 E28.89352
G1 X94.318 Y88.773 E28.93618
G1 X94.192 Y89.749 E28.97889
G1 X94.233 Y90.738 E29.02185
G1 X94.441 Y91.703 E29.06469
G1 X94.809 Y92.618 E29.10749
G1 X95.325 Y93.454 E29.15013
G1 X95.977 Y94.198 E29.19306
G1 X96.745 Y94.816 E29.23585
G1 X97.603 Y95.298 E29.27856
G1 X98.539 Y95.627 E29.32162
G1 X99.503 Y95.793 E29.36407
G1 X100.494 Y95.794 E29.40708
G1 X101.458 Y95.628 E29.44953
G1 X102.396 Y95.299 E29.49267
G1 X103.254 Y94.817 E29.53538
G1 X104.022 Y94.199 E29.57817
G1 X104.674 Y93.456 E29.62107
G1 X105.190 Y92.620 E29.66371
G1 X105.557 Y91.706 E29.70645
G1 X105.766 Y90.743 E29.74922
G1 X105.809 Y89.758 E29.79201
G1 X105.683 Y88.774 E29.83506
G1 X105.395 Y87.835 E29.87769
G1 X104.951 Y86.954 E29.92051
G1 X104.366 Y86.161 E29.96327
G1 X103.652 Y85.476 E30.00622
G1 X102.836 Y84.925 E30.04895
G1 X101.937 Y84.519 E30.09176
G1 X100.981 Y84.270 E30.13464
G1 X100.002 Y84.186 E30.17728
G1 X99.020 Y84.269 E30.22005
G1 X98.066 Y84.518 E30.26284
G1 X97.167 Y84.924 E30.30565
G1 X96.348 Y85.477 E30.34854
G1 X95.639 Y86.155 E30.39112
G1 X95.050 Y86.952 E30.43413
G0 F7200.00000 X94.965 Y86.900
G0 X94.568 Y87.819
G0 X94.279 Y88.765
G0 X94.153 Y89.748
G0 X94.194 Y90.743
G0 X94.403 Y91.714
G0 X99.004 Y104.170
G0 X99.020 Y104.268
G1 F1200.000 X98.066 Y104.517 E30.47692
G1 X97.167 Y104.923 E30.51973
G1 X96.348 Y105.476 E30.56262
G1 X95.639 Y106.154 E30.60519
G1 X95.050 Y106.951 E30.64820
G1 X94.605 Y107.832 E30.69104
G1 X94.318 Y108.772 E30.73370
G1 X94.192 Y109.748 E30.77641
G1 X94.233 Y110.736 E30.81932
G1 X94.441 Y111.702 E30.86221
G1 X94.809 Y112.617 E30.90501
G1 X95.325 Y113.453 E30.94765
G1 X95.977 Y114.197 E30.99058
G1 X96.745 Y114.815 E31.03336
G1 X97.603 Y115.297 E31.07608
G1 X98.539 Y115.626 E31.11913
G1 X99.503 Y115.792 E31.16159
G1 X100.494 Y115.793 E31.20460
G1 X101.458 Y115.627 E31.24705
G1 X102.396 Y115.298 E31.29019
G1 X103.254 Y114.816 E31.33290
G1 X104.022 Y114.198 E31.37569
G1 X104.674 Y113.455 E31.41859
G1 X105.190 Y112.619 E31.46122
G1 X105.557 Y111.705 E31.50397
G1 X105.766 Y110.741 E31.54678
G1 X105.809 Y109.757 E31.58953
G1 X105.683 Y108.773 E31.63258
G1 X105.395 Y107.834 E31.67521
G1 X104.951 Y106.953 E31.71802
G1 X104.366 Y106.160 E31.76079
G1 X103.652 Y105.475 E31.80373
G1 X102.836 Y104.924 E31.84647
G1 X101.937 Y104.518 E31.88928
G1 X100.981 Y104.269 E31.93215
G1 X100.002 Y104.185 E31.97480
G1 X99.020 Y104.268 E32.01757
G0 F7200.00000 X99.004 Y104.170
G0 X98.053 Y104.480
G0 X97.148 Y104.889
G0 X96.323 Y105.445
G0 X82.517 Y118.502
G0 X82.437 Y118.561
G1 F1200.000 X82.171 Y118.258 E32.03507
G1 X81.857 Y118.007 E32.05251
G1 X81.508 Y117.810 E32.06991
G1 X81.121 Y117.675 E32.08770
G1 X80.746 Y117.610 E32.10421
G1 X80.529 Y117.600 E32.11364
G1 X80.311 Y117.608 E32.12311
G1 X79.933 Y117.673 E32.13975
G1 X79.545 Y117.808 E32.15758
G1 X79.196 Y118.005 E32.17498
G1 X78.882 Y118.256 E32.19242
G1 X78.616 Y118.559 E32.20992
G1 X78.405 Y118.904 E32.22747
G1 X78.252 Y119.280 E32.24509
G1 X78.169 Y119.670 E32.26240
G1 X78.151 Y120.072 E32.27986
G1 X78.202 Y120.476 E32.29753
G1 X78.317 Y120.857 E32.31481
G1 X78.500 Y121.219 E32.33241
G1 X78.742 Y121.547 E32.35010
G1 X79.030 Y121.821 E32.36735
G1 X79.366 Y122.049 E32.38498
G1 X79.732 Y122.215 E32.40242
G1 X80.125 Y122.317 E32.42004
G1 X80.523 Y122.351 E32.43738
G1 X80.922 Y122.319 E32.45475
G1 X81.316 Y122.217 E32.47241
G1 X81.683 Y122.051 E32.48989
G1 X82.019 Y121.823 E32.50751
G1 X82.307 Y121.549 E32.52477
G1 X82.549 Y121.221 E32.54246
G1 X82.731 Y120.860 E32.56000
G1 X82.848 Y120.478 E32.57734
G1 X82.898 Y120.075 E32.59497
G1 X82.885 Y119.675 E32.61234
G1 X82.801 Y119.282 E32.62978
G1 X82.648 Y118.906 E32.64740
G1 X82.437 Y118.561 E32.66495
G0 F7200.00000 X82.517 Y118.502
G0 X117.001 Y120.076
G0 X117.100 Y120.072
G1 F1200.000 X117.151 Y120.476 E32.68262
G1 X117.266 Y120.857 E32.69989
G1 X117.449 Y121.219 E32.71750
G1 X117.691 Y121.547 E32.73519
G1 X117.979 Y121.821 E32.75244
G1 X118.315 Y122.049 E32.77006
G1 X118.681 Y122.215 E32.78750
G1 X119.074 Y122.317 E32.80513
G1 X119.472 Y122.351 E32.82246
G1 X119.871 Y122.319 E32.83983
G1 X120.265 Y122.217 E32.85750
G1 X120.632 Y122.051 E32.87498
G1 X120.968 Y121.823 E32.89260
G1 X121.256 Y121.549 E32.90985
G1 X121.498 Y121.221 E32.92754
G1 X121.680 Y120.860 E32.94509
G1 X121.797 Y120.478 E32.96243
G1 X121.847 Y120.075 E32.98005
G1 X121.834 Y119.675 E32.99742
G1 X121.750 Y119.282 E33.01486
G1 X121.597 Y118.906 E33.03248
G1 X121.386 Y118.561 E33.05003
G1 X121.120 Y118.258 E33.06753
G1 X120.806 Y118.007 E33.08498
G1 X120.457 Y117.810 E33.10237
G1 X120.070 Y117.675 E33.12016
G1 X119.695 Y117.610 E33.13668
G1 X119.478 Y117.600 E33.14611
G1 X119.260 Y117.608 E33.15557
G1 X118.882 Y117.673 E33.17222
G1 X118.494 Y117.808 E33.19005
G1 X118.145 Y118.005 E33.20744
G1 X117.831 Y118.256 E33.22489
G1 X117.565 Y118.559 E33.24239
G1 X117.354 Y118.904 E33.25994
G1 X117.201 Y119.280 E33.27756
G1 X117.118 Y119.670 E33.29486
G1 X117.100 Y120.072 E33.31233
G0 F7200.00000 X117.001 Y120.076
G0 X119.471 Y82.503
G0 X119.471 Y82.403
G1 F1200.000 X119.872 Y82.370 E33.32979
G1 X120.265 Y82.268 E33.34741
G1 X120.630 Y82.102 E33.36481
G1 X120.967 Y81.876 E33.38242
G1 X121.259 Y81.595 E33.40001
G1 X121.498 Y81.272 E33.41745
G1 X121.680 Y80.911 E33.43499
G1 X121.797 Y80.529 E33.45233
G1 X121.847 Y80.126 E33.46996
G1 X121.834 Y79.726 E33.48733
G1 X121.750 Y79.333 E33.50477
G1 X121.597 Y78.957 E33.52239
G1 X121.386 Y78.612 E33.53994
G1 X121.120 Y78.309 E33.55744
G1 X120.806 Y78.058 E33.57488
G1 X120.457 Y77.861 E33.59228
G1 X120.070 Y77.726 E33.61006
G1 X119.692 Y77.661 E33.62671
G1 X119.479 Y77.652 E33.63596
G1 X119.263 Y77.657 E33.64534
G1 X118.880 Y77.724 E33.66221
G1 X118.494 Y77.859 E33.67996
G1 X118.145 Y78.056 E33.69735
G1 X117.831 Y78.307 E33.71480
G1 X117.565 Y78.610 E33.73230
G1 X117.354 Y78.955 E33.74985
G1 X117.201 Y79.331 E33.76747
G1 X117.118 Y79.721 E33.78477
G1 X117.100 Y80.123 E33.80224
G1 X117.151 Y80.527 E33.81991
G1 X117.266 Y80.908 E33.83718
G1 X117.449 Y81.270 E33.85479
G1 X117.688 Y81.593 E33.87223
G1 X117.980 Y81.874 E33.88981
G1 X118.317 Y82.100 E33.90742
G1 X118.681 Y82.266 E33.92479
G1 X119.074 Y82.369 E33.94242
G1 X119.471 Y82.403 E33.95971
G0 F7200.00000 X119.473 Y82.001
;TYPE:WALL-OUTER
G1 F1200.000 X119.806 Y81.974 E33.97421
G1 X120.132 Y81.889 E33.98883
G1 X120.437 Y81.751 E34.00336
G1 X120.715 Y81.564 E34.01790
G1 X120.957 Y81.331 E34.03248
G1 X121.156 Y81.062 E34.04701
G1 X121.307 Y80.763 E34.06154
G1 X121.405 Y80.442 E34.07611
G1 X121.447 Y80.111 E34.09059
G1 X121.435 Y79.776 E34.10514
G1 X121.365 Y79.448 E34.11969
G1 X121.239 Y79.137 E34.13426
G1 X121.064 Y78.852 E34.14877
G1 X120.843 Y78.600 E34.16332
G1 X120.581 Y78.390 E34.17789
G1 X120.290 Y78.226 E34.19239
G1 X119.973 Y78.115 E34.20697
G1 X119.647 Y78.059 E34.22132
G1 X119.477 Y78.052 E34.22871
G1 X119.305 Y78.056 E34.23617
G1 X118.978 Y78.113 E34.25058
G1 X118.661 Y78.224 E34.26515
G1 X118.370 Y78.388 E34.27965
G1 X118.108 Y78.598 E34.29422
G1 X117.887 Y78.850 E34.30877
G1 X117.712 Y79.135 E34.32329
G1 X117.586 Y79.446 E34.33785
G1 X117.516 Y79.774 E34.35240
G1 X117.501 Y80.108 E34.36692
G1 X117.542 Y80.440 E34.38143
G1 X117.640 Y80.761 E34.39600
G1 X117.791 Y81.060 E34.41054
G1 X117.990 Y81.329 E34.42506
G1 X118.232 Y81.562 E34.43964
G1 X118.510 Y81.749 E34.45418
G1 X118.815 Y81.887 E34.46871
G1 X119.140 Y81.972 E34.48329
G1 X119.473 Y82.001 E34.49780
G0 F7200.00000 X119.432 Y82.499
G0 X120.278 Y82.305
G0 X120.992 Y81.907
G0 X121.532 Y81.292
G0 X124.580 Y74.921
G0 X125.050 Y74.451
G1 F1200.000 X125.050 Y125.544 E36.71524
G1 X74.955 Y125.549 E38.88937
G1 X74.950 Y74.451 E41.10703
G1 X125.050 Y74.451 E43.28138
G0 F7200.00000 X124.550 Y74.921
G0 X118.123 Y78.023
G0 X105.055 Y86.939
G0 X104.609 Y87.164
G1 F1200.000 X104.064 Y86.425 E43.32123
G1 X103.401 Y85.790 E43.36107
G1 X102.640 Y85.276 E43.40093
G1 X101.803 Y84.898 E43.44079
G1 X100.915 Y84.666 E43.48062
G1 X100.002 Y84.588 E43.52039
G1 X99.087 Y84.665 E43.56024
G1 X98.199 Y84.897 E43.60007
G1 X97.362 Y85.275 E43.63993
G1 X96.601 Y85.788 E43.67976
G1 X95.938 Y86.423 E43.71961
G1 X95.392 Y87.162 E43.75948
G1 X94.978 Y87.981 E43.79931
G1 X94.710 Y88.860 E43.83919
G1 X94.593 Y89.769 E43.87897
G1 X94.631 Y90.686 E43.91880
G1 X94.825 Y91.584 E43.95868
G1 X95.167 Y92.435 E43.99848
G1 X95.649 Y93.217 E44.03835
G1 X96.255 Y93.908 E44.07824
G1 X96.970 Y94.484 E44.11808
G1 X97.770 Y94.933 E44.15790
G1 X98.635 Y95.238 E44.19771
G1 X99.540 Y95.393 E44.23755
G1 X100.457 Y95.394 E44.27735
G1 X101.362 Y95.239 E44.31720
G1 X102.229 Y94.934 E44.35709
G1 X103.029 Y94.485 E44.39690
G1 X103.744 Y93.909 E44.43675
G1 X104.350 Y93.219 E44.47661
G1 X104.832 Y92.437 E44.51648
G1 X105.174 Y91.587 E44.55624
G1 X105.368 Y90.691 E44.59603
G1 X105.408 Y89.773 E44.63591
G1 X105.291 Y88.862 E44.67577
G1 X105.022 Y87.983 E44.71566
G1 X104.609 Y87.164 E44.75547
G0 F7200.00000 X105.055 Y86.939
G0 X105.432 Y87.821
G0 X105.722 Y88.766
G0 X105.848 Y89.757
G0 X105.805 Y90.748
G0 X105.595 Y91.717
G0 X100.959 Y104.168
G0 X100.915 Y104.665
G1 F1200.000 X100.002 Y104.587 E44.79524
G1 X99.087 Y104.664 E44.83509
G1 X98.199 Y104.896 E44.87493
G1 X97.362 Y105.274 E44.91478
G1 X96.601 Y105.787 E44.95462
G1 X95.938 Y106.422 E44.99446
G1 X95.392 Y107.161 E45.03434
G1 X94.978 Y107.980 E45.07416
G1 X94.710 Y108.859 E45.11405
G1 X94.593 Y109.768 E45.15382
G1 X94.631 Y110.684 E45.19361
G1 X94.825 Y111.583 E45.23353
G1 X95.167 Y112.434 E45.27333
G1 X95.649 Y113.216 E45.31320
G1 X96.255 Y113.907 E45.35309
G1 X96.970 Y114.483 E45.39293
G1 X97.770 Y114.932 E45.43275
G1 X98.635 Y115.237 E45.47256
G1 X99.540 Y115.392 E45.51240
G1 X100.457 Y115.393 E45.55220
G1 X101.362 Y115.238 E45.59205
G1 X102.229 Y114.933 E45.63194
G1 X103.029 Y114.484 E45.67175
G1 X103.744 Y113.908 E45.71160
G1 X104.350 Y113.218 E45.75146
G1 X104.832 Y112.436 E45.79133
G1 X105.174 Y111.586 E45.83109
G1 X105.368 Y110.689 E45.87092
G1 X105.408 Y109.772 E45.91076
G1 X105.291 Y108.861 E45.95062
G1 X105.022 Y107.982 E45.99051
G1 X104.609 Y107.163 E46.03032
G1 X104.064 Y106.424 E46.07017
G1 X103.401 Y105.789 E46.11002
G1 X102.640 Y105.275 E46.14987
G1 X101.803 Y104.897 E46.18973
G1 X100.915 Y104.665 E46.22956
G0 F7200.00000 X100.960 Y104.168
G0 X101.950 Y104.481
G0 X102.855 Y104.890
G0 X103.677 Y105.444
G0 X117.462 Y118.537
G0 X117.887 Y118.799
G1 F1200.000 X117.712 Y119.084 E46.24408
G1 X117.586 Y119.395 E46.25864
G1 X117.516 Y119.723 E46.27320
G1 X117.501 Y120.057 E46.28771
G1 X117.542 Y120.389 E46.30223
G1 X117.640 Y120.710 E46.31679
G1 X117.791 Y121.009 E46.33133
