;FLAVOR:RepRap
;TIME:3274
M190 S50.000000
M104 S210.000000
M109 S210.000000
G21 ;metric values
G90 ;absolute positioning
M82 ;set extruder to absolute mode
M107 ;start with the fan off
G92 X0 Y0 Z0 ;Zero X Y and Z axis
G1 Z15.0 F9000 ;move the platform down 15mm
G92 E0 ;zero the extruded length
G1 F200 E3 ;extrude 3mm of feed stock
G92 E0 ;zero the extruded length again
G1 F9000
;Put printing message on LCD screen
M117 Printing...
;Generated with Cura_SteamEngine 2.1.3
;LAYER_COUNT:83
;LAYER:0
M107
G1 F4200.000000 E-6.40000
G1 Z20.200
G0 F7200.000 X83.479 Y51.544 Z0.500
;TYPE:SKIRT
G1 Z0.300
G1 F4200.000 E0.00000
G1 F1200.00000 X84.488 Y49.954 E0.08173
G1 X84.783 Y49.548 E0.10351
G1 X85.984 Y48.096 E0.18529
G1 X86.330 Y47.727 E0.20724
G1 X87.712 Y46.431 E0.28947
G1 X88.101 Y46.110 E0.31136
G1 X89.626 Y45.005 E0.39309
G1 X90.047 Y44.738 E0.41473
G1 X91.698 Y43.831 E0.49648
G1 X92.153 Y43.617 E0.51830
G1 X93.893 Y42.929 E0.59951
G1 X94.368 Y42.775 E0.62118
G1 X96.188 Y42.307 E0.70274
G1 X96.683 Y42.212 E0.72461
G1 X98.570 Y41.974 E0.80716
G1 X99.071 Y41.943 E0.82894
G1 X100.941 Y41.943 E0.91010
G1 X101.442 Y41.975 E0.93189
G1 X103.311 Y42.211 E1.01365
G1 X103.805 Y42.305 E1.03547
G1 X105.627 Y42.773 E1.11712
G1 X106.106 Y42.928 E1.13897
G1 X107.870 Y43.627 E1.22131
G1 X108.328 Y43.843 E1.24329
G1 X109.978 Y44.753 E1.32507
G1 X110.396 Y45.019 E1.34657
G1 X111.911 Y46.119 E1.42783
G1 X112.300 Y46.441 E1.44974
G1 X113.668 Y47.726 E1.53120
G1 X114.010 Y48.089 E1.55285
G1 X115.216 Y49.545 E1.63490
G1 X115.512 Y49.954 E1.65681
G1 X116.521 Y51.544 E1.73854
G1 X116.764 Y51.986 E1.76043
G1 X117.563 Y53.686 E1.84195
G1 X117.746 Y54.148 E1.86352
G1 X118.331 Y55.944 E1.94550
G1 X118.458 Y56.439 E1.96767
G1 X118.811 Y58.305 E2.05010
G1 X118.873 Y58.796 E2.07157
G1 X118.991 Y60.657 E2.15250
G1 X118.991 Y61.161 E2.17438
G1 X118.873 Y63.040 E2.25609
G1 X118.810 Y63.537 E2.27783
G1 X118.457 Y65.392 E2.35978
G1 X118.332 Y65.880 E2.38165
G1 X117.750 Y67.671 E2.46338
G1 X117.566 Y68.138 E2.48516
G1 X116.764 Y69.843 E2.56694
G1 X116.521 Y70.283 E2.58875
G1 X115.512 Y71.873 E2.67048
G1 X115.217 Y72.279 E2.69226
G1 X114.016 Y73.731 E2.77404
G1 X113.670 Y74.100 E2.79599
G1 X112.288 Y75.396 E2.87822
G1 X111.899 Y75.717 E2.90011
G1 X110.374 Y76.822 E2.98184
G1 X109.953 Y77.089 E3.00348
G1 X108.302 Y77.996 E3.08523
G1 X107.847 Y78.210 E3.10705
G1 X106.107 Y78.898 E3.18826
G1 X105.632 Y79.052 E3.20993
G1 X103.812 Y79.520 E3.29149
G1 X103.317 Y79.615 E3.31336
G1 X101.430 Y79.853 E3.39591
G1 X100.929 Y79.884 E3.41769
G1 X99.059 Y79.884 E3.49885
G1 X98.558 Y79.852 E3.52064
G1 X96.689 Y79.616 E3.60240
G1 X96.195 Y79.522 E3.62422
G1 X94.373 Y79.054 E3.70587
G1 X93.894 Y78.899 E3.72772
G1 X92.130 Y78.200 E3.81006
G1 X91.672 Y77.984 E3.83204
G1 X90.022 Y77.074 E3.91382
G1 X89.604 Y76.808 E3.93532
G1 X88.089 Y75.708 E4.01658
G1 X87.700 Y75.386 E4.03849
G1 X86.332 Y74.101 E4.11995
G1 X85.990 Y73.738 E4.14160
G1 X84.784 Y72.282 E4.22365
G1 X84.488 Y71.873 E4.24556
G1 X83.479 Y70.283 E4.32729
G1 X83.236 Y69.841 E4.34918
G1 X82.437 Y68.141 E4.43070
G1 X82.254 Y67.679 E4.45227
G1 X81.669 Y65.883 E4.53425
G1 X81.543 Y65.394 E4.55616
G1 X81.190 Y63.544 E4.63790
G1 X81.127 Y63.047 E4.65964
G1 X81.008 Y61.167 E4.74140
G1 X81.008 Y60.661 E4.76336
G1 X81.127 Y58.781 E4.84511
G1 X81.190 Y58.285 E4.86681
G1 X81.543 Y56.434 E4.94860
G1 X81.668 Y55.947 E4.97042
G1 X82.250 Y54.156 E5.05215
G1 X82.434 Y53.689 E5.07393
G1 X83.236 Y51.984 E5.15571
G1 X83.479 Y51.544 E5.17752
G0 F7200.00000 X83.816 Y51.758
G1 F1200.000 X84.825 Y50.168 E5.25925
G1 X85.091 Y49.802 E5.27889
G1 X86.292 Y48.350 E5.36067
G1 X86.603 Y48.019 E5.38038
G1 X87.985 Y46.723 E5.46260
G1 X88.336 Y46.434 E5.48234
G1 X89.861 Y45.329 E5.56407
G1 X90.240 Y45.089 E5.58354
G1 X91.891 Y44.182 E5.66529
G1 X92.300 Y43.989 E5.68492
G1 X94.040 Y43.301 E5.76613
G1 X94.467 Y43.162 E5.78562
G1 X96.287 Y42.694 E5.86717
G1 X96.734 Y42.609 E5.88692
G1 X98.621 Y42.371 E5.96947
G1 X99.071 Y42.343 E5.98903
G1 X100.941 Y42.343 E6.07019
G1 X101.392 Y42.371 E6.08980
G1 X103.261 Y42.607 E6.17156
G1 X103.706 Y42.692 E6.19122
G1 X105.528 Y43.160 E6.27287
G1 X105.958 Y43.300 E6.29249
G1 X107.722 Y43.999 E6.37484
G1 X108.135 Y44.194 E6.39466
G1 X109.785 Y45.104 E6.47644
G1 X110.161 Y45.343 E6.49578
G1 X111.676 Y46.443 E6.57703
G1 X112.026 Y46.732 E6.59673
G1 X113.394 Y48.017 E6.67819
G1 X113.701 Y48.345 E6.69769
G1 X114.907 Y49.801 E6.77974
G1 X115.175 Y50.168 E6.79946
G1 X116.184 Y51.758 E6.88119
G1 X116.402 Y52.156 E6.90089
G1 X117.201 Y53.856 E6.98241
G1 X117.366 Y54.272 E7.00183
G1 X117.951 Y56.068 E7.08381
G1 X118.065 Y56.514 E7.10379
G1 X118.418 Y58.380 E7.18621
G1 X118.474 Y58.821 E7.20550
G1 X118.592 Y60.682 E7.28643
G1 X118.592 Y61.136 E7.30614
G1 X118.474 Y63.015 E7.38785
G1 X118.418 Y63.462 E7.40740
G1 X118.065 Y65.317 E7.48935
G1 X117.952 Y65.757 E7.50906
G1 X117.370 Y67.548 E7.59080
G1 X117.204 Y67.967 E7.61035
G1 X116.402 Y69.672 E7.69213
G1 X116.184 Y70.069 E7.71179
G1 X115.175 Y71.659 E7.79351
G1 X114.909 Y72.025 E7.81315
G1 X113.708 Y73.477 E7.89493
G1 X113.397 Y73.808 E7.91464
G1 X112.015 Y75.104 E7.99687
G1 X111.664 Y75.393 E8.01660
G1 X110.139 Y76.498 E8.09834
G1 X109.760 Y76.738 E8.11780
G1 X108.109 Y77.645 E8.19956
G1 X107.700 Y77.838 E8.21919
G1 X105.960 Y78.526 E8.30039
G1 X105.533 Y78.665 E8.31988
G1 X103.713 Y79.133 E8.40144
G1 X103.266 Y79.218 E8.42119
G1 X101.379 Y79.456 E8.50373
G1 X100.929 Y79.484 E8.52330
G1 X99.059 Y79.484 E8.60446
G1 X98.608 Y79.456 E8.62407
G1 X96.739 Y79.220 E8.70583
G1 X96.294 Y79.135 E8.72549
G1 X94.472 Y78.667 E8.80713
G1 X94.042 Y78.527 E8.82676
G1 X92.278 Y77.828 E8.90911
G1 X91.865 Y77.633 E8.92893
G1 X90.215 Y76.723 E9.01071
G1 X89.839 Y76.484 E9.03004
G1 X88.324 Y75.384 E9.11130
G1 X87.974 Y75.095 E9.13100
G1 X86.606 Y73.810 E9.21245
G1 X86.299 Y73.482 E9.23195
G1 X85.093 Y72.026 E9.31401
G1 X84.825 Y71.659 E9.33373
G1 X83.816 Y70.069 E9.41546
G1 X83.598 Y69.671 E9.43515
G1 X82.799 Y67.971 E9.51667
G1 X82.634 Y67.555 E9.53610
G1 X82.049 Y65.759 E9.61807
G1 X81.936 Y65.319 E9.63779
G1 X81.583 Y63.469 E9.71953
G1 X81.526 Y63.021 E9.73913
G1 X81.407 Y61.141 E9.82088
G1 X81.407 Y60.687 E9.84059
G1 X81.526 Y58.807 E9.92234
G1 X81.583 Y58.360 E9.94190
G1 X81.936 Y56.509 E10.02368
G1 X82.048 Y56.070 E10.04334
G1 X82.630 Y54.279 E10.12508
G1 X82.796 Y53.860 E10.14464
G1 X83.598 Y52.155 E10.22641
G1 X83.816 Y51.758 E10.24607
G0 F7200.00000 X84.154 Y51.972
G1 F1200.000 X85.163 Y50.382 E10.32779
G1 X85.399 Y50.057 E10.34523
G1 X86.600 Y48.605 E10.42701
G1 X86.877 Y48.311 E10.44454
G1 X88.259 Y47.015 E10.52676
G1 X88.570 Y46.758 E10.54427
G1 X90.095 Y45.653 E10.62601
G1 X90.432 Y45.439 E10.64333
G1 X92.083 Y44.532 E10.72509
G1 X92.447 Y44.361 E10.74254
G1 X94.187 Y43.673 E10.82375
G1 X94.567 Y43.550 E10.84108
G1 X96.387 Y43.082 E10.92264
G1 X96.784 Y43.006 E10.94018
G1 X98.671 Y42.768 E11.02273
G1 X99.071 Y42.743 E11.04012
G1 X100.941 Y42.743 E11.12128
G1 X101.342 Y42.768 E11.13872
G1 X103.211 Y43.004 E11.22048
G1 X103.606 Y43.080 E11.23793
G1 X105.428 Y43.548 E11.31957
G1 X105.811 Y43.672 E11.33705
G1 X107.575 Y44.371 E11.41940
G1 X107.941 Y44.544 E11.43697
G1 X109.591 Y45.454 E11.51874
G1 X109.926 Y45.667 E11.53597
G1 X111.441 Y46.767 E11.61723
G1 X111.752 Y47.024 E11.63474
G1 X113.120 Y48.309 E11.71619
G1 X113.393 Y48.600 E11.73351
G1 X114.599 Y50.056 E11.81556
G1 X114.837 Y50.382 E11.83308
G1 X115.846 Y51.972 E11.91481
G1 X116.040 Y52.326 E11.93233
G1 X116.839 Y54.026 E12.01385
G1 X116.986 Y54.396 E12.03113
G1 X117.571 Y56.192 E12.11311
G1 X117.672 Y56.588 E12.13085
G1 X118.025 Y58.454 E12.21327
G1 X118.075 Y58.847 E12.23046
G1 X118.193 Y60.708 E12.31139
G1 X118.193 Y61.111 E12.32888
G1 X118.075 Y62.990 E12.41059
G1 X118.025 Y63.387 E12.42796
G1 X117.672 Y65.242 E12.50991
G1 X117.571 Y65.633 E12.52743
G1 X116.989 Y67.424 E12.60917
G1 X116.842 Y67.797 E12.62657
G1 X116.040 Y69.502 E12.70834
G1 X115.846 Y69.855 E12.72582
G1 X114.837 Y71.445 E12.80755
G1 X114.601 Y71.770 E12.82498
G1 X113.400 Y73.222 E12.90676
G1 X113.123 Y73.516 E12.92429
G1 X111.741 Y74.812 E13.00652
G1 X111.430 Y75.069 E13.02403
G1 X109.905 Y76.174 E13.10576
G1 X109.568 Y76.388 E13.12309
G1 X107.917 Y77.295 E13.20484
G1 X107.553 Y77.466 E13.22230
G1 X105.813 Y78.154 E13.30350
G1 X105.433 Y78.277 E13.32084
G1 X103.613 Y78.745 E13.40239
G1 X103.216 Y78.821 E13.41994
G1 X101.329 Y79.059 E13.50248
G1 X100.929 Y79.084 E13.51988
G1 X99.059 Y79.084 E13.60103
G1 X98.658 Y79.059 E13.61847
G1 X96.789 Y78.823 E13.70023
G1 X96.394 Y78.747 E13.71769
G1 X94.572 Y78.279 E13.79933
G1 X94.189 Y78.155 E13.81680
G1 X92.425 Y77.456 E13.89915
G1 X92.059 Y77.283 E13.91672
G1 X90.409 Y76.373 E13.99850
G1 X90.074 Y76.160 E14.01573
G1 X88.559 Y75.060 E14.09698
G1 X88.248 Y74.803 E14.11449
G1 X86.880 Y73.518 E14.19595
G1 X86.607 Y73.227 E14.21327
G1 X85.401 Y71.771 E14.29532
G1 X85.163 Y71.445 E14.31284
G1 X84.154 Y69.855 E14.39456
G1 X83.960 Y69.501 E14.41208
G1 X83.161 Y67.801 E14.49361
G1 X83.014 Y67.431 E14.51089
G1 X82.429 Y65.635 E14.59286
G1 X82.329 Y65.244 E14.61038
G1 X81.976 Y63.394 E14.69212
G1 X81.925 Y62.996 E14.70953
G1 X81.806 Y61.116 E14.79129
G1 X81.806 Y60.712 E14.80882
G1 X81.925 Y58.832 E14.89058
G1 X81.976 Y58.435 E14.90795
G1 X82.329 Y56.584 E14.98973
G1 X82.429 Y56.194 E15.00720
G1 X83.011 Y54.403 E15.08893
G1 X83.158 Y54.030 E15.10633
G1 X83.960 Y52.325 E15.18811
G1 X84.154 Y51.972 E15.20559
G1 F4200.00000 E8.80559
G1 Z0.500
G0 F7200.000 X87.382 Y53.978 Z0.500
;TYPE:WALL-INNER
G1 Z0.300
G1 F4200.000 E15.20559
G1 F1200.00000 X88.354 Y52.447 E15.28430
G1 X89.502 Y51.059 E15.36247
G1 X90.833 Y49.811 E15.44166
G1 X92.299 Y48.749 E15.52022
G1 X93.875 Y47.882 E15.59829
G1 X95.544 Y47.222 E15.67618
G1 X97.307 Y46.770 E15.75517
G1 X99.102 Y46.543 E15.83369
G1 X100.910 Y46.543 E15.91216
G1 X102.687 Y46.768 E15.98990
G1 X104.449 Y47.219 E16.06884
G1 X106.139 Y47.890 E16.14775
G1 X107.723 Y48.763 E16.22625
G1 X109.177 Y49.820 E16.30426
G1 X110.490 Y51.051 E16.38238
G1 X111.649 Y52.451 E16.46125
G1 X112.618 Y53.978 E16.53974
G1 X113.386 Y55.614 E16.61818
G1 X113.944 Y57.324 E16.69625
G1 X114.284 Y59.123 E16.77571
G1 X114.397 Y60.909 E16.85337
G1 X114.283 Y62.722 E16.93221
G1 X113.947 Y64.490 E17.01032
G1 X113.387 Y66.213 E17.08895
G1 X112.618 Y67.849 E17.16740
G1 X111.646 Y69.380 E17.24611
G1 X110.498 Y70.768 E17.32428
G1 X109.167 Y72.016 E17.40347
G1 X107.701 Y73.078 E17.48203
G1 X106.125 Y73.945 E17.56010
G1 X104.456 Y74.605 E17.63799
G1 X102.693 Y75.057 E17.71698
G1 X100.898 Y75.284 E17.79551
G1 X99.090 Y75.284 E17.87397
G1 X97.313 Y75.059 E17.95171
G1 X95.551 Y74.608 E18.03065
G1 X93.861 Y73.937 E18.10956
G1 X92.277 Y73.064 E18.18806
G1 X90.823 Y72.007 E18.26607
G1 X89.510 Y70.776 E18.34419
G1 X88.351 Y69.376 E18.42307
G1 X87.382 Y67.849 E18.50156
G1 X86.614 Y66.213 E18.57999
G1 X86.054 Y64.496 E18.65837
G1 X85.717 Y62.725 E18.73661
G1 X85.602 Y60.909 E18.81559
G1 X85.717 Y59.100 E18.89426
G1 X86.053 Y57.335 E18.97223
G1 X86.613 Y55.614 E19.05078
G1 X87.382 Y53.978 E19.12924
G0 F7200.00000 X87.469 Y54.026
G0 X96.697 Y59.088
G0 X96.784 Y59.136
G1 F1200.000 X96.583 Y59.559 E19.14956
G1 X96.441 Y59.995 E19.16946
G1 X96.354 Y60.449 E19.18952
G1 X96.326 Y60.909 E19.20952
G1 X96.352 Y61.371 E19.22961
G1 X96.439 Y61.826 E19.24971
G1 X96.581 Y62.262 E19.26961
G1 X96.780 Y62.685 E19.28990
G1 X97.021 Y63.067 E19.30950
G1 X97.322 Y63.432 E19.33004
G1 X97.653 Y63.742 E19.34972
G1 X98.032 Y64.018 E19.37007
G1 X98.438 Y64.241 E19.39017
G1 X98.865 Y64.411 E19.41012
G1 X99.305 Y64.524 E19.42983
G1 X99.772 Y64.583 E19.45026
G1 X100.228 Y64.583 E19.47005
G1 X100.695 Y64.524 E19.49048
G1 X101.135 Y64.411 E19.51020
G1 X101.562 Y64.241 E19.53014
G1 X101.968 Y64.018 E19.55025
G1 X102.348 Y63.742 E19.57063
G1 X102.676 Y63.435 E19.59013
G1 X102.974 Y63.074 E19.61044
G1 X102.975 Y58.763 E19.79754
G1 X102.685 Y58.404 E19.81757
G1 X102.341 Y58.078 E19.83814
G1 X101.972 Y57.812 E19.85788
G1 X101.562 Y57.586 E19.87820
G1 X101.133 Y57.415 E19.89824
G1 X100.694 Y57.303 E19.91791
G1 X100.227 Y57.245 E19.93833
G1 X99.773 Y57.245 E19.95803
G1 X99.306 Y57.303 E19.97846
G1 X98.867 Y57.415 E19.99812
G1 X98.438 Y57.586 E20.01816
G1 X98.028 Y57.812 E20.03848
G1 X97.659 Y58.078 E20.05822
G1 X97.321 Y58.398 E20.07842
G1 X97.026 Y58.754 E20.09849
G1 X96.784 Y59.136 E20.11811
G0 F7200.00000 X97.133 Y59.333
;TYPE:WALL-OUTER
G1 F1200.000 X96.956 Y59.705 E20.13599
G1 X96.829 Y60.096 E20.15384
G1 X96.752 Y60.500 E20.17169
G1 X96.726 Y60.910 E20.18952
G1 X96.750 Y61.321 E20.20738
G1 X96.827 Y61.725 E20.22523
G1 X96.954 Y62.117 E20.24312
G1 X97.129 Y62.488 E20.26092
G1 X97.349 Y62.836 E20.27879
G1 X97.611 Y63.154 E20.29667
G1 X97.912 Y63.437 E20.31460
G1 X98.246 Y63.679 E20.33250
G1 X98.606 Y63.877 E20.35033
G1 X98.988 Y64.029 E20.36817
G1 X99.386 Y64.131 E20.38601
G1 X99.794 Y64.183 E20.40386
G1 X100.206 Y64.183 E20.42174
G1 X100.614 Y64.131 E20.43959
G1 X101.012 Y64.029 E20.45742
G1 X101.394 Y63.877 E20.47526
G1 X101.754 Y63.679 E20.49309
G1 X102.088 Y63.437 E20.51099
G1 X102.387 Y63.156 E20.52880
G1 X102.574 Y62.930 E20.54153
G1 X102.575 Y58.904 E20.71626
G1 X102.389 Y58.674 E20.72910
G1 X102.088 Y58.390 E20.74706
G1 X101.754 Y58.148 E20.76496
G1 X101.394 Y57.950 E20.78279
G1 X101.012 Y57.798 E20.80064
G1 X100.613 Y57.696 E20.81851
G1 X100.205 Y57.645 E20.83635
G1 X99.795 Y57.645 E20.85415
G1 X99.387 Y57.696 E20.87199
G1 X98.988 Y57.798 E20.88987
G1 X98.606 Y57.950 E20.90771
G1 X98.246 Y58.148 E20.92554
G1 X97.912 Y58.390 E20.94344
G1 X97.613 Y58.672 E20.96128
G1 X97.353 Y58.986 E20.97897
G1 X97.133 Y59.333 E20.99680
G0 F7200.00000 X96.682 Y59.119
G0 X87.469 Y54.026
G0 X87.031 Y53.784
G1 F1200.000 X88.029 Y52.212 E21.07762
G1 X89.209 Y50.786 E21.15795
G1 X90.578 Y49.502 E21.23941
G1 X92.082 Y48.412 E21.32002
G1 X93.705 Y47.520 E21.40039
G1 X95.425 Y46.840 E21.48067
G1 X97.228 Y46.377 E21.56145
G1 X99.080 Y46.143 E21.64247
G1 X100.932 Y46.143 E21.72285
G1 X102.766 Y46.375 E21.80308
G1 X104.571 Y46.838 E21.88395
G1 X106.311 Y47.528 E21.96519
G1 X107.936 Y48.424 E22.04572
G1 X109.434 Y49.512 E22.12608
G1 X110.783 Y50.778 E22.20637
G1 X111.974 Y52.216 E22.28740
G1 X112.969 Y53.784 E22.36800
G1 X113.757 Y55.462 E22.44845
G1 X114.333 Y57.228 E22.52907
G1 X114.682 Y59.074 E22.61061
G1 X114.798 Y60.910 E22.69045
G1 X114.681 Y62.772 E22.77142
G1 X114.335 Y64.591 E22.85178
G1 X113.760 Y66.360 E22.93251
G1 X112.969 Y68.043 E23.01322
G1 X111.971 Y69.615 E23.09403
G1 X110.791 Y71.041 E23.17436
G1 X109.422 Y72.325 E23.25582
G1 X107.918 Y73.415 E23.33643
G1 X106.295 Y74.307 E23.41681
G1 X104.575 Y74.987 E23.49708
G1 X102.772 Y75.450 E23.57787
G1 X100.920 Y75.684 E23.65888
G1 X99.068 Y75.684 E23.73926
G1 X97.234 Y75.452 E23.81949
G1 X95.429 Y74.989 E23.90036
G1 X93.689 Y74.299 E23.98160
G1 X92.064 Y73.403 E24.06214
G1 X90.566 Y72.315 E24.14249
G1 X89.217 Y71.049 E24.22278
G1 X88.026 Y69.611 E24.30382
G1 X87.031 Y68.043 E24.38441
G1 X86.243 Y66.365 E24.46487
G1 X85.665 Y64.591 E24.54584
G1 X85.319 Y62.776 E24.62603
G1 X85.201 Y60.910 E24.70718
G1 X85.319 Y59.049 E24.78811
G1 X85.665 Y57.236 E24.86821
G1 X86.240 Y55.467 E24.94894
G1 X87.031 Y53.784 E25.02965
G0 F7200.00000 X87.492 Y54.117
;TYPE:SKIN
G1 F1200.000 X106.778 Y73.402 E26.21334
G0 X106.848 Y73.472
G0 F7200.000 X107.142 Y73.201
G1 F1200.000 X98.276 Y64.335 E26.75751
G0 X98.206 Y64.265
G0 F7200.000 X99.158 Y64.652
G1 F1200.000 X107.507 Y73.000 E27.26991
G0 X107.577 Y73.070
G0 F7200.000 X107.846 Y72.774
G1 F1200.000 X99.815 Y64.743 E27.76283
G0 X99.745 Y64.673
