;FLAVOR:RepRap
;TIME:3714
M190 S50.000000
M104 S210.000000
M109 S210.000000
G21 ;metric values
G90 ;absolute positioning
M82 ;set extruder to absolute mode
M107 ;start with the fan off
G92 X0 Y0 Z0 ;Zero X Y and Z axis
G1 Z15.0 F9000 ;move the platform down 15mm
G92 E0 ;zero the extruded length
G1 F200 E3 ;extrude 3mm of feed stock
G92 E0 ;zero the extruded length again
G1 F9000
;Put printing message on LCD screen
M117 Printing...
;Generated with Cura_SteamEngine 2.1.3
;LAYER_COUNT:100
;LAYER:0
M107
G1 F4200.000000 E-6.40000
G1 Z20.200
G0 F7200.000 X86.334 Y86.810 Z0.500
;TYPE:SKIRT
G1 Z0.300
G1 F4200.000 E0.00000
G1 F1200.00000 X87.712 Y85.519 E0.08195
G1 X88.095 Y85.203 E0.10350
G1 X89.611 Y84.101 E0.18484
G1 X90.035 Y83.831 E0.20666
G1 X91.686 Y82.923 E0.28843
G1 X92.143 Y82.708 E0.31035
G1 X93.893 Y82.016 E0.39202
G1 X94.370 Y81.861 E0.41379
G1 X96.206 Y81.390 E0.49606
G1 X96.701 Y81.296 E0.51792
G1 X98.570 Y81.061 E0.59968
G1 X99.071 Y81.030 E0.62146
G1 X100.953 Y81.031 E0.70314
G1 X101.453 Y81.063 E0.72488
G1 X103.312 Y81.298 E0.80621
G1 X103.807 Y81.392 E0.82807
G1 X105.641 Y81.864 E0.91026
G1 X106.117 Y82.019 E0.93199
G1 X107.859 Y82.709 E1.01331
G1 X108.314 Y82.923 E1.03513
G1 X109.965 Y83.831 E1.11691
G1 X110.388 Y84.100 E1.13866
G1 X111.912 Y85.207 E1.22041
G1 X112.299 Y85.527 E1.24220
G1 X113.668 Y86.812 E1.32369
G1 X114.012 Y87.179 E1.34552
G1 X115.217 Y88.636 E1.42758
G1 X115.512 Y89.042 E1.44936
G1 X116.521 Y90.632 E1.53109
G1 X116.763 Y91.072 E1.55288
G1 X117.563 Y92.772 E1.63443
G1 X117.748 Y93.238 E1.65619
G1 X118.332 Y95.034 E1.73815
G1 X118.457 Y95.522 E1.76001
G1 X118.810 Y97.374 E1.84184
G1 X118.873 Y97.872 E1.86362
G1 X118.991 Y99.746 E1.94512
G1 X118.991 Y100.247 E1.96686
G1 X118.873 Y102.129 E2.04870
G1 X118.810 Y102.628 E2.07053
G1 X118.457 Y104.480 E2.15235
G1 X118.332 Y104.967 E2.17417
G1 X117.750 Y106.758 E2.25590
G1 X117.565 Y107.225 E2.27770
G1 X116.767 Y108.921 E2.35905
G1 X116.526 Y109.360 E2.38079
G1 X115.518 Y110.950 E2.46249
G1 X115.223 Y111.356 E2.48427
G1 X114.014 Y112.819 E2.56664
G1 X113.666 Y113.190 E2.58872
G1 X112.288 Y114.481 E2.67067
G1 X111.905 Y114.797 E2.69222
G1 X110.389 Y115.899 E2.77356
G1 X109.965 Y116.169 E2.79537
G1 X108.314 Y117.077 E2.87715
G1 X107.857 Y117.292 E2.89907
G1 X106.107 Y117.984 E2.98074
G1 X105.630 Y118.139 E3.00251
G1 X103.794 Y118.610 E3.08477
G1 X103.299 Y118.704 E3.10664
G1 X101.430 Y118.939 E3.18839
G1 X100.929 Y118.970 E3.21018
G1 X99.047 Y118.969 E3.29186
G1 X98.547 Y118.937 E3.31360
G1 X96.688 Y118.702 E3.39492
G1 X96.193 Y118.608 E3.41679
G1 X94.359 Y118.136 E3.49898
G1 X93.883 Y117.981 E3.52071
G1 X92.141 Y117.291 E3.60203
G1 X91.686 Y117.077 E3.62385
G1 X90.035 Y116.169 E3.70562
G1 X89.612 Y115.900 E3.72738
G1 X88.088 Y114.793 E3.80913
G1 X87.701 Y114.473 E3.83092
G1 X86.332 Y113.188 E3.91241
G1 X85.988 Y112.821 E3.93424
G1 X84.783 Y111.364 E4.01630
G1 X84.488 Y110.958 E4.03808
G1 X83.479 Y109.368 E4.11981
G1 X83.237 Y108.928 E4.14160
G1 X82.437 Y107.228 E4.22314
G1 X82.252 Y106.762 E4.24490
G1 X81.668 Y104.966 E4.32687
G1 X81.543 Y104.479 E4.34869
G1 X81.190 Y102.629 E4.43043
G1 X81.127 Y102.132 E4.45217
G1 X81.008 Y100.252 E4.53393
G1 X81.008 Y99.746 E4.55589
G1 X81.127 Y97.867 E4.63760
G1 X81.190 Y97.371 E4.65930
G1 X81.543 Y95.520 E4.74108
G1 X81.668 Y95.032 E4.76294
G1 X82.250 Y93.242 E4.84463
G1 X82.434 Y92.777 E4.86634
G1 X83.232 Y91.080 E4.94772
G1 X83.473 Y90.641 E4.96946
G1 X84.486 Y89.042 E5.05161
G1 X84.784 Y88.632 E5.07361
G1 X85.988 Y87.178 E5.15554
G1 X86.334 Y86.810 E5.17746
G0 F7200.00000 X86.608 Y87.102
G1 F1200.000 X87.986 Y85.811 E5.25941
G1 X88.330 Y85.526 E5.27880
G1 X89.846 Y84.424 E5.36014
G1 X90.228 Y84.182 E5.37976
G1 X91.879 Y83.274 E5.46154
G1 X92.290 Y83.080 E5.48126
G1 X94.040 Y82.388 E5.56294
G1 X94.469 Y82.249 E5.58251
G1 X96.305 Y81.778 E5.66477
G1 X96.751 Y81.693 E5.68448
G1 X98.620 Y81.458 E5.76623
G1 X99.071 Y81.430 E5.78584
G1 X100.953 Y81.431 E5.86752
G1 X101.402 Y81.459 E5.88704
G1 X103.261 Y81.694 E5.96837
G1 X103.707 Y81.780 E5.98808
G1 X105.541 Y82.252 E6.07027
G1 X105.970 Y82.391 E6.08984
G1 X107.712 Y83.081 E6.17116
G1 X108.121 Y83.274 E6.19079
G1 X109.772 Y84.182 E6.27256
G1 X110.153 Y84.423 E6.29213
G1 X111.677 Y85.530 E6.37388
G1 X112.025 Y85.818 E6.39348
G1 X113.394 Y87.103 E6.47497
G1 X113.704 Y87.434 E6.49465
G1 X114.909 Y88.891 E6.57671
G1 X115.175 Y89.256 E6.59631
G1 X116.184 Y90.846 E6.67804
G1 X116.401 Y91.242 E6.69764
G1 X117.201 Y92.942 E6.77918
G1 X117.368 Y93.362 E6.79879
G1 X117.952 Y95.158 E6.88076
G1 X118.064 Y95.597 E6.90042
G1 X118.417 Y97.449 E6.98225
G1 X118.474 Y97.897 E7.00185
G1 X118.592 Y99.771 E7.08334
G1 X118.592 Y100.222 E7.10291
G1 X118.474 Y102.104 E7.18475
G1 X118.417 Y102.553 E7.20439
G1 X118.064 Y104.405 E7.28622
G1 X117.952 Y104.844 E7.30588
G1 X117.370 Y106.635 E7.38761
G1 X117.203 Y107.055 E7.40723
G1 X116.405 Y108.751 E7.48858
G1 X116.188 Y109.146 E7.50814
G1 X115.180 Y110.736 E7.58984
G1 X114.915 Y111.101 E7.60942
G1 X113.706 Y112.564 E7.69179
G1 X113.392 Y112.898 E7.71168
G1 X112.014 Y114.189 E7.79363
G1 X111.670 Y114.474 E7.81302
G1 X110.154 Y115.576 E7.89436
G1 X109.772 Y115.818 E7.91399
G1 X108.121 Y116.726 E7.99576
G1 X107.710 Y116.920 E8.01549
G1 X105.960 Y117.612 E8.09716
G1 X105.531 Y117.751 E8.11673
G1 X103.695 Y118.222 E8.19899
G1 X103.249 Y118.307 E8.21870
G1 X101.380 Y118.542 E8.30045
G1 X100.929 Y118.570 E8.32006
G1 X99.047 Y118.569 E8.40174
G1 X98.598 Y118.541 E8.42127
G1 X96.739 Y118.306 E8.50259
G1 X96.293 Y118.220 E8.52230
G1 X94.459 Y117.748 E8.60449
G1 X94.030 Y117.609 E8.62406
G1 X92.288 Y116.919 E8.70538
G1 X91.879 Y116.726 E8.72501
G1 X90.228 Y115.818 E8.80679
G1 X89.847 Y115.577 E8.82635
G1 X88.323 Y114.470 E8.90810
G1 X87.975 Y114.182 E8.92771
G1 X86.606 Y112.897 E9.00919
G1 X86.296 Y112.566 E9.02888
G1 X85.091 Y111.109 E9.11093
G1 X84.825 Y110.744 E9.13054
G1 X83.816 Y109.154 E9.21226
G1 X83.599 Y108.758 E9.23186
G1 X82.799 Y107.058 E9.31340
G1 X82.632 Y106.638 E9.33302
G1 X82.048 Y104.842 E9.41498
G1 X81.936 Y104.404 E9.43460
G1 X81.583 Y102.554 E9.51634
G1 X81.526 Y102.106 E9.53594
G1 X81.407 Y100.226 E9.61770
G1 X81.407 Y99.771 E9.63745
G1 X81.526 Y97.892 E9.71916
G1 X81.583 Y97.446 E9.73867
G1 X81.936 Y95.595 E9.82045
G1 X82.048 Y95.156 E9.84012
G1 X82.630 Y93.366 E9.92181
G1 X82.796 Y92.947 E9.94136
G1 X83.594 Y91.250 E10.02275
G1 X83.811 Y90.855 E10.04231
G1 X84.824 Y89.256 E10.12446
G1 X85.092 Y88.887 E10.14426
G1 X86.296 Y87.433 E10.22619
G1 X86.608 Y87.102 E10.24593
G0 F7200.00000 X86.881 Y87.394
G1 F1200.000 X88.259 Y86.103 E10.32788
G1 X88.565 Y85.850 E10.34511
G1 X90.081 Y84.748 E10.42645
G1 X90.421 Y84.532 E10.44393
G1 X92.072 Y83.624 E10.52571
G1 X92.437 Y83.452 E10.54322
G1 X94.187 Y82.760 E10.62489
G1 X94.569 Y82.636 E10.64232
G1 X96.405 Y82.165 E10.72459
G1 X96.801 Y82.090 E10.74208
G1 X98.670 Y81.855 E10.82383
G1 X99.071 Y81.830 E10.84127
G1 X100.953 Y81.831 E10.92295
G1 X101.352 Y81.856 E10.94030
G1 X103.211 Y82.091 E11.02162
G1 X103.608 Y82.167 E11.03916
G1 X105.442 Y82.639 E11.12135
G1 X105.822 Y82.763 E11.13870
G1 X107.564 Y83.453 E11.22002
G1 X107.928 Y83.624 E11.23747
G1 X109.579 Y84.532 E11.31925
G1 X109.918 Y84.747 E11.33667
G1 X111.442 Y85.854 E11.41842
G1 X111.751 Y86.110 E11.43584
G1 X113.120 Y87.395 E11.51732
G1 X113.396 Y87.689 E11.53482
G1 X114.601 Y89.146 E11.61688
G1 X114.837 Y89.470 E11.63428
G1 X115.846 Y91.060 E11.71601
G1 X116.039 Y91.412 E11.73343
G1 X116.839 Y93.112 E11.81497
G1 X116.987 Y93.485 E11.83239
G1 X117.571 Y95.281 E11.91435
G1 X117.671 Y95.672 E11.93187
G1 X118.024 Y97.524 E12.01369
G1 X118.075 Y97.922 E12.03111
G1 X118.193 Y99.796 E12.11260
G1 X118.193 Y100.197 E12.13000
G1 X118.075 Y102.079 E12.21184
G1 X118.024 Y102.478 E12.22930
G1 X117.671 Y104.330 E12.31112
G1 X117.571 Y104.720 E12.32860
G1 X116.989 Y106.511 E12.41033
G1 X116.841 Y106.884 E12.42774
G1 X116.043 Y108.580 E12.50909
G1 X115.851 Y108.931 E12.52645
G1 X114.843 Y110.521 E12.60816
G1 X114.607 Y110.846 E12.62559
G1 X113.398 Y112.309 E12.70796
G1 X113.119 Y112.606 E12.72565
G1 X111.741 Y113.897 E12.80760
G1 X111.435 Y114.150 E12.82483
G1 X109.919 Y115.252 E12.90617
G1 X109.579 Y115.468 E12.92365
G1 X107.928 Y116.376 E13.00543
G1 X107.563 Y116.548 E13.02294
G1 X105.813 Y117.240 E13.10461
G1 X105.431 Y117.364 E13.12204
G1 X103.595 Y117.835 E13.20431
G1 X103.199 Y117.910 E13.22180
G1 X101.330 Y118.145 E13.30355
G1 X100.929 Y118.170 E13.32099
G1 X99.047 Y118.169 E13.40267
G1 X98.648 Y118.144 E13.42002
G1 X96.789 Y117.909 E13.50134
G1 X96.392 Y117.833 E13.51888
G1 X94.558 Y117.361 E13.60107
G1 X94.178 Y117.237 E13.61842
G1 X92.436 Y116.547 E13.69974
G1 X92.072 Y116.376 E13.71719
G1 X90.421 Y115.468 E13.79897
G1 X90.082 Y115.253 E13.81639
G1 X88.558 Y114.146 E13.89814
G1 X88.249 Y113.890 E13.91555
G1 X86.880 Y112.605 E13.99704
G1 X86.604 Y112.311 E14.01454
G1 X85.399 Y110.854 E14.09660
G1 X85.163 Y110.530 E14.11400
G1 X84.154 Y108.940 E14.19573
G1 X83.961 Y108.588 E14.21315
G1 X83.161 Y106.888 E14.29469
G1 X83.013 Y106.515 E14.31211
G1 X82.429 Y104.719 E14.39407
G1 X82.329 Y104.329 E14.41154
G1 X81.976 Y102.479 E14.49328
G1 X81.925 Y102.081 E14.51070
G1 X81.806 Y100.201 E14.59245
G1 X81.806 Y99.797 E14.60999
G1 X81.925 Y97.918 E14.69170
G1 X81.976 Y97.521 E14.70907
G1 X82.329 Y95.670 E14.79085
G1 X82.429 Y95.280 E14.80833
G1 X83.011 Y93.490 E14.89002
G1 X83.158 Y93.117 E14.90742
G1 X83.956 Y91.420 E14.98880
G1 X84.149 Y91.069 E15.00619
G1 X85.162 Y89.470 E15.08834
G1 X85.400 Y89.142 E15.10593
G1 X86.604 Y87.688 E15.18786
G1 X86.881 Y87.394 E15.20539
G1 F4200.00000 E8.80539
G1 Z0.500
G0 F7200.000 X89.512 Y90.135 Z0.500
;TYPE:WALL-INNER
G1 Z0.300
G1 F4200.000 E15.20539
G1 F1200.00000 X90.826 Y88.905 E15.28350
G1 X92.289 Y87.841 E15.36201
G1 X93.869 Y86.972 E15.44027
G1 X95.544 Y86.309 E15.51845
G1 X97.323 Y85.854 E15.59815
G1 X99.099 Y85.630 E15.67584
G1 X100.919 Y85.631 E15.75483
G1 X102.687 Y85.855 E15.83217
G1 X104.461 Y86.310 E15.91165
G1 X106.134 Y86.973 E15.98976
G1 X107.711 Y87.841 E16.06788
G1 X109.177 Y88.907 E16.14655
G1 X110.493 Y90.143 E16.22490
G1 X111.646 Y91.535 E16.30335
G1 X112.618 Y93.066 E16.38206
G1 X113.385 Y94.697 E16.46028
G1 X113.947 Y96.425 E16.53914
G1 X114.283 Y98.191 E16.61716
G1 X114.397 Y99.996 E16.69565
G1 X114.283 Y101.811 E16.77458
G1 X113.947 Y103.579 E16.85268
G1 X113.387 Y105.300 E16.93123
G1 X112.622 Y106.927 E17.00926
G1 X111.651 Y108.458 E17.08794
G1 X110.495 Y109.857 E17.16670
G1 X109.169 Y111.098 E17.24552
G1 X107.711 Y112.159 E17.32378
G1 X106.131 Y113.028 E17.40204
G1 X104.456 Y113.691 E17.48023
G1 X102.677 Y114.146 E17.55992
G1 X100.901 Y114.370 E17.63761
G1 X99.081 Y114.369 E17.71660
G1 X97.313 Y114.145 E17.79394
G1 X95.539 Y113.690 E17.87343
G1 X93.866 Y113.027 E17.95153
G1 X92.289 Y112.159 E18.02965
G1 X90.821 Y111.092 E18.10842
G1 X89.507 Y109.857 E18.18668
G1 X88.354 Y108.465 E18.26512
G1 X87.382 Y106.934 E18.34383
G1 X86.615 Y105.303 E18.42205
G1 X86.053 Y103.577 E18.50083
G1 X85.717 Y101.810 E18.57889
G1 X85.602 Y99.996 E18.65778
G1 X85.717 Y98.187 E18.73645
G1 X86.053 Y96.421 E18.81447
G1 X86.613 Y94.701 E18.89297
G1 X87.380 Y93.069 E18.97124
G1 X88.348 Y91.540 E19.04978
G1 X89.512 Y90.135 E19.12896
G0 F7200.00000 X89.585 Y90.203
G0 X97.248 Y97.417
G0 X97.321 Y97.485
G1 F1200.000 X97.026 Y97.841 E19.14903
G1 X96.784 Y98.223 E19.16865
G1 X96.583 Y98.647 E19.18902
G1 X96.441 Y99.083 E19.20892
G1 X96.354 Y99.537 E19.22898
G1 X96.326 Y99.996 E19.24894
G1 X96.352 Y100.458 E19.26902
G1 X96.439 Y100.913 E19.28912
G1 X96.581 Y101.348 E19.30898
G1 X96.780 Y101.771 E19.32927
G1 X97.022 Y102.154 E19.34893
G1 X97.319 Y102.514 E19.36919
G1 X97.659 Y102.835 E19.38948
G1 X98.028 Y103.101 E19.40922
G1 X98.438 Y103.327 E19.42954
G1 X98.867 Y103.498 E19.44959
G1 X99.306 Y103.610 E19.46925
G1 X99.773 Y103.668 E19.48967
G1 X100.227 Y103.668 E19.50938
G1 X100.694 Y103.610 E19.52980
G1 X101.133 Y103.498 E19.54946
G1 X101.562 Y103.327 E19.56951
G1 X101.972 Y103.101 E19.58982
G1 X102.341 Y102.835 E19.60957
G1 X102.684 Y102.511 E19.63004
G1 X102.974 Y102.162 E19.64974
G1 X102.975 Y97.844 E19.83714
G1 X102.680 Y97.486 E19.85727
G1 X102.341 Y97.165 E19.87753
G1 X101.972 Y96.899 E19.89728
G1 X101.562 Y96.673 E19.91759
G1 X101.133 Y96.502 E19.93764
G1 X100.694 Y96.390 E19.95730
G1 X100.227 Y96.332 E19.97772
G1 X99.773 Y96.332 E19.99743
G1 X99.306 Y96.390 E20.01785
G1 X98.867 Y96.502 E20.03751
G1 X98.438 Y96.673 E20.05756
G1 X98.028 Y96.899 E20.07788
G1 X97.659 Y97.165 E20.09762
G1 X97.321 Y97.485 E20.11782
G0 F7200.00000 X97.613 Y97.759
;TYPE:WALL-OUTER
G1 F1200.000 X97.353 Y98.073 E20.13551
G1 X97.133 Y98.420 E20.15334
G1 X96.956 Y98.793 E20.17126
G1 X96.829 Y99.184 E20.18910
G1 X96.752 Y99.588 E20.20695
G1 X96.726 Y99.997 E20.22474
G1 X96.750 Y100.408 E20.24261
G1 X96.827 Y100.812 E20.26046
G1 X96.954 Y101.203 E20.27830
G1 X97.129 Y101.575 E20.29614
G1 X97.349 Y101.923 E20.31401
G1 X97.611 Y102.239 E20.33182
G1 X97.912 Y102.523 E20.34978
G1 X98.246 Y102.765 E20.36769
G1 X98.606 Y102.963 E20.38552
G1 X98.988 Y103.115 E20.40336
G1 X99.387 Y103.217 E20.42123
G1 X99.795 Y103.268 E20.43908
G1 X100.205 Y103.268 E20.45687
G1 X100.613 Y103.217 E20.47472
G1 X101.012 Y103.115 E20.49259
G1 X101.394 Y102.963 E20.51043
G1 X101.754 Y102.765 E20.52827
G1 X102.088 Y102.523 E20.54617
G1 X102.387 Y102.241 E20.56400
G1 X102.574 Y102.016 E20.57670
G1 X102.575 Y97.987 E20.75156
G1 X102.388 Y97.760 E20.76432
G1 X102.088 Y97.477 E20.78222
G1 X101.754 Y97.235 E20.80012
G1 X101.394 Y97.037 E20.81796
G1 X101.012 Y96.885 E20.83580
G1 X100.613 Y96.783 E20.85367
G1 X100.205 Y96.732 E20.87152
G1 X99.795 Y96.732 E20.88931
G1 X99.387 Y96.783 E20.90716
G1 X98.988 Y96.885 E20.92503
G1 X98.606 Y97.037 E20.94287
G1 X98.246 Y97.235 E20.96070
G1 X97.912 Y97.477 E20.97861
G1 X97.613 Y97.759 E20.99644
G0 F7200.00000 X97.270 Y97.397
G0 X89.584 Y90.203
G0 X89.215 Y89.866
G1 F1200.000 X90.574 Y88.594 E21.07723
G1 X92.076 Y87.502 E21.15782
G1 X93.695 Y86.611 E21.23803
G1 X95.425 Y85.927 E21.31876
G1 X97.243 Y85.461 E21.40022
G1 X99.078 Y85.230 E21.48048
G1 X100.942 Y85.231 E21.56138
G1 X102.766 Y85.462 E21.64118
G1 X104.583 Y85.929 E21.72260
G1 X106.305 Y86.611 E21.80298
G1 X107.924 Y87.502 E21.88318
G1 X109.434 Y88.599 E21.96419
G1 X110.787 Y89.869 E22.04472
G1 X111.971 Y91.300 E22.12533
G1 X112.969 Y92.872 E22.20614
G1 X113.758 Y94.550 E22.28662
G1 X114.335 Y96.324 E22.36758
G1 X114.681 Y98.141 E22.44785
G1 X114.798 Y99.997 E22.52856
G1 X114.681 Y101.862 E22.60966
G1 X114.335 Y103.678 E22.68990
G1 X113.760 Y105.447 E22.77063
G1 X112.973 Y107.121 E22.85091
G1 X111.976 Y108.693 E22.93170
G1 X110.788 Y110.130 E23.01261
G1 X109.426 Y111.406 E23.09361
G1 X107.924 Y112.498 E23.17421
G1 X106.305 Y113.389 E23.25441
G1 X104.575 Y114.073 E23.33515
G1 X102.757 Y114.539 E23.41660
G1 X100.922 Y114.770 E23.49687
G1 X99.058 Y114.769 E23.57777
G1 X97.234 Y114.538 E23.65756
G1 X95.417 Y114.071 E23.73898
G1 X93.695 Y113.389 E23.81937
G1 X92.076 Y112.498 E23.89957
G1 X90.564 Y111.400 E23.98067
G1 X89.213 Y110.131 E24.06111
G1 X88.029 Y108.700 E24.14172
G1 X87.031 Y107.128 E24.22253
G1 X86.242 Y105.450 E24.30300
G1 X85.665 Y103.676 E24.38397
G1 X85.319 Y101.861 E24.46416
G1 X85.201 Y99.997 E24.54522
G1 X85.319 Y98.136 E24.62615
G1 X85.665 Y96.322 E24.70629
G1 X86.240 Y94.554 E24.78698
G1 X87.027 Y92.879 E24.86730
G1 X88.026 Y91.302 E24.94832
G1 X89.215 Y89.866 E25.02923
G0 F7200.00000 X89.655 Y90.221
;TYPE:SKIN
G1 F1200.000 X97.025 Y97.591 E25.48158
G0 X97.095 Y97.661
G0 F7200.000 X97.291 Y97.291
