;FLAVOR:RepRap
;TIME:3727
M190 S50.000000
M104 S210.000000
M109 S210.000000
G21 ;metric values
G90 ;absolute positioning
M82 ;set extruder to absolute mode
M107 ;start with the fan off
G92 X0 Y0 Z0 ;Zero X Y and Z axis
G1 Z15.0 F9000 ;move the platform down 15mm
G92 E0 ;zero the extruded length
G1 F200 E3 ;extrude 3mm of feed stock
G92 E0 ;zero the extruded length again
G1 F9000
;Put printing message on LCD screen
M117 Printing...
;Generated with Cura_SteamEngine 2.1.3
;LAYER_COUNT:100
;LAYER:0
M107
G1 F4200.000000 E-6.40000
G1 Z20.200
G0 F7200.000 X85.175 Y44.811 Z0.500
;TYPE:SKIRT
G1 Z0.300
G1 F4200.000 E0.00000
G1 F1200.00000 X85.417 Y44.371 E0.02179
G1 X86.431 Y42.772 E0.10397
G1 X86.728 Y42.363 E0.12591
G1 X87.932 Y40.909 E0.20784
G1 X88.278 Y40.541 E0.22976
G1 X89.656 Y39.250 E0.31171
G1 X90.039 Y38.934 E0.33326
G1 X91.555 Y37.832 E0.41460
G1 X91.979 Y37.563 E0.43639
G1 X93.629 Y36.655 E0.51813
G1 X94.087 Y36.439 E0.54011
G1 X95.838 Y35.747 E0.62182
G1 X96.314 Y35.593 E0.64353
G1 X98.149 Y35.122 E0.72575
G1 X98.644 Y35.027 E0.74763
G1 X100.512 Y34.792 E0.82934
G1 X101.013 Y34.761 E0.85112
G1 X102.897 Y34.762 E0.93289
G1 X103.397 Y34.794 E0.95463
G1 X105.256 Y35.029 E1.03596
G1 X105.751 Y35.123 E1.05782
G1 X107.584 Y35.595 E1.13997
G1 X108.059 Y35.750 E1.16166
G1 X109.802 Y36.440 E1.24301
G1 X110.258 Y36.655 E1.26489
G1 X111.908 Y37.563 E1.34663
G1 X112.331 Y37.831 E1.36836
G1 X113.855 Y38.938 E1.45011
G1 X114.240 Y39.257 E1.47181
G1 X115.610 Y40.542 E1.55333
G1 X115.957 Y40.911 E1.57532
G1 X117.161 Y42.368 E1.65735
G1 X117.454 Y42.771 E1.67897
G1 X118.464 Y44.361 E1.76072
G1 X118.707 Y44.803 E1.78261
G1 X119.507 Y46.503 E1.86415
G1 X119.692 Y46.969 E1.88591
G1 X120.276 Y48.765 E1.96788
G1 X120.401 Y49.253 E1.98974
G1 X120.754 Y51.105 E2.07157
G1 X120.817 Y51.605 E2.09344
G1 X120.934 Y53.480 E2.17497
G1 X120.934 Y53.977 E2.19654
G1 X120.817 Y55.860 E2.27842
G1 X120.754 Y56.361 E2.30034
G1 X120.401 Y58.212 E2.38212
G1 X120.276 Y58.699 E2.40394
G1 X119.694 Y60.490 E2.48567
G1 X119.509 Y60.957 E2.50747
G1 X118.711 Y62.653 E2.58882
G1 X118.469 Y63.093 E2.61061
G1 X117.460 Y64.683 E2.69234
G1 X117.167 Y65.087 E2.71400
G1 X115.959 Y66.550 E2.79634
G1 X115.609 Y66.923 E2.81854
G1 X114.230 Y68.214 E2.90052
G1 X113.848 Y68.529 E2.92201
G1 X112.332 Y69.631 E3.00335
G1 X111.908 Y69.900 E3.02514
G1 X110.258 Y70.808 E3.10688
G1 X109.800 Y71.024 E3.12886
G1 X108.049 Y71.716 E3.21057
G1 X107.573 Y71.870 E3.23228
G1 X105.738 Y72.341 E3.31450
G1 X105.243 Y72.436 E3.33638
G1 X103.374 Y72.671 E3.41813
G1 X102.873 Y72.702 E3.43992
G1 X100.989 Y72.701 E3.52168
G1 X100.489 Y72.669 E3.54343
G1 X98.631 Y72.434 E3.62471
G1 X98.136 Y72.340 E3.64658
G1 X96.303 Y71.868 E3.72872
G1 X95.828 Y71.713 E3.75041
G1 X94.085 Y71.023 E3.83177
G1 X93.629 Y70.808 E3.85365
G1 X91.979 Y69.900 E3.93538
G1 X91.556 Y69.632 E3.95712
G1 X90.032 Y68.525 E4.03887
G1 X89.645 Y68.205 E4.06066
G1 X88.276 Y66.920 E4.14215
G1 X87.932 Y66.553 E4.16398
G1 X86.727 Y65.096 E4.24604
G1 X86.433 Y64.692 E4.26772
G1 X85.423 Y63.102 E4.34947
G1 X85.180 Y62.660 E4.37136
G1 X84.380 Y60.960 E4.45291
G1 X84.195 Y60.494 E4.47467
G1 X83.611 Y58.698 E4.55663
G1 X83.486 Y58.211 E4.57845
G1 X83.133 Y56.362 E4.66015
G1 X83.070 Y55.862 E4.68202
G1 X82.952 Y53.981 E4.76381
G1 X82.952 Y53.480 E4.78556
G1 X83.070 Y51.600 E4.86731
G1 X83.133 Y51.102 E4.88910
G1 X83.486 Y49.251 E4.97088
G1 X83.611 Y48.763 E4.99274
G1 X84.193 Y46.973 E5.07443
G1 X84.377 Y46.508 E5.09613
G1 X85.175 Y44.811 E5.17752
G0 F7200.00000 X85.537 Y44.981
G1 F1200.000 X85.755 Y44.585 E5.19714
G1 X86.769 Y42.986 E5.27931
G1 X87.036 Y42.618 E5.29905
G1 X88.240 Y41.164 E5.38098
G1 X88.552 Y40.833 E5.40072
G1 X89.930 Y39.542 E5.48267
G1 X90.274 Y39.257 E5.50206
G1 X91.790 Y38.155 E5.58340
G1 X92.171 Y37.913 E5.60299
G1 X93.821 Y37.005 E5.68472
G1 X94.234 Y36.811 E5.70453
G1 X95.985 Y36.119 E5.78624
G1 X96.413 Y35.980 E5.80577
G1 X98.248 Y35.509 E5.88799
G1 X98.694 Y35.424 E5.90770
G1 X100.562 Y35.189 E5.98941
G1 X101.013 Y35.161 E6.00902
G1 X102.897 Y35.162 E6.09078
G1 X103.346 Y35.190 E6.11031
G1 X105.205 Y35.425 E6.19163
G1 X105.652 Y35.511 E6.21139
G1 X107.485 Y35.983 E6.29353
G1 X107.912 Y36.122 E6.31302
G1 X109.655 Y36.812 E6.39438
G1 X110.066 Y37.005 E6.41409
G1 X111.716 Y37.913 E6.49583
G1 X112.096 Y38.154 E6.51535
G1 X113.620 Y39.261 E6.59710
G1 X113.967 Y39.548 E6.61665
G1 X115.337 Y40.833 E6.69817
G1 X115.649 Y41.166 E6.71797
G1 X116.853 Y42.623 E6.80000
G1 X117.117 Y42.986 E6.81948
G1 X118.127 Y44.576 E6.90123
G1 X118.345 Y44.973 E6.92089
G1 X119.145 Y46.673 E7.00243
G1 X119.312 Y47.093 E7.02205
G1 X119.896 Y48.889 E7.10401
G1 X120.008 Y49.328 E7.12367
G1 X120.361 Y51.180 E7.20550
G1 X120.418 Y51.630 E7.22519
G1 X120.535 Y53.505 E7.30672
G1 X120.535 Y53.952 E7.32612
G1 X120.418 Y55.835 E7.40800
G1 X120.361 Y56.286 E7.42773
G1 X120.008 Y58.137 E7.50951
G1 X119.896 Y58.576 E7.52917
G1 X119.314 Y60.367 E7.61090
G1 X119.147 Y60.787 E7.63052
G1 X118.349 Y62.483 E7.71187
G1 X118.132 Y62.879 E7.73146
G1 X117.123 Y64.469 E7.81319
G1 X116.859 Y64.832 E7.83267
G1 X115.651 Y66.295 E7.91501
G1 X115.335 Y66.631 E7.93503
G1 X113.956 Y67.922 E8.01702
G1 X113.613 Y68.206 E8.03634
G1 X112.097 Y69.308 E8.11768
G1 X111.716 Y69.550 E8.13727
G1 X110.066 Y70.458 E8.21901
G1 X109.653 Y70.652 E8.23881
G1 X107.902 Y71.344 E8.32053
G1 X107.474 Y71.483 E8.34006
G1 X105.639 Y71.954 E8.42228
G1 X105.193 Y72.039 E8.44198
G1 X103.324 Y72.274 E8.52374
G1 X102.873 Y72.302 E8.54335
G1 X100.989 Y72.301 E8.62511
G1 X100.539 Y72.273 E8.64468
G1 X98.681 Y72.038 E8.72596
G1 X98.235 Y71.952 E8.74567
G1 X96.402 Y71.480 E8.82782
G1 X95.975 Y71.341 E8.84731
G1 X94.232 Y70.651 E8.92867
G1 X93.821 Y70.458 E8.94837
G1 X92.171 Y69.550 E9.03011
G1 X91.791 Y69.309 E9.04964
G1 X90.267 Y68.202 E9.13139
G1 X89.919 Y67.914 E9.15099
G1 X88.550 Y66.629 E9.23248
G1 X88.240 Y66.298 E9.25216
G1 X87.035 Y64.841 E9.33422
G1 X86.770 Y64.477 E9.35376
G1 X85.760 Y62.887 E9.43552
G1 X85.542 Y62.490 E9.45517
G1 X84.742 Y60.790 E9.53671
G1 X84.575 Y60.370 E9.55633
G1 X83.991 Y58.574 E9.63829
G1 X83.879 Y58.136 E9.65791
G1 X83.526 Y56.287 E9.73961
G1 X83.469 Y55.837 E9.75930
G1 X83.351 Y53.956 E9.84109
G1 X83.351 Y53.505 E9.86067
G1 X83.469 Y51.625 E9.94242
G1 X83.526 Y51.177 E9.96202
G1 X83.879 Y49.326 E10.04380
G1 X83.991 Y48.887 E10.06346
G1 X84.573 Y47.097 E10.14515
G1 X84.739 Y46.678 E10.16471
G1 X85.537 Y44.981 E10.24610
G0 F7200.00000 X85.899 Y45.151
G1 F1200.000 X86.093 Y44.799 E10.26354
G1 X87.107 Y43.200 E10.34572
G1 X87.344 Y42.873 E10.36324
G1 X88.548 Y41.419 E10.44517
G1 X88.825 Y41.125 E10.46271
G1 X90.203 Y39.834 E10.54466
G1 X90.509 Y39.581 E10.56189
G1 X92.025 Y38.479 E10.64323
G1 X92.364 Y38.263 E10.66068
G1 X94.014 Y37.355 E10.74241
G1 X94.381 Y37.183 E10.76000
G1 X96.132 Y36.491 E10.84172
G1 X96.512 Y36.367 E10.85906
G1 X98.347 Y35.896 E10.94128
G1 X98.744 Y35.821 E10.95882
G1 X100.612 Y35.586 E11.04053
G1 X101.013 Y35.561 E11.05797
G1 X102.897 Y35.562 E11.13973
G1 X103.296 Y35.587 E11.15708
G1 X105.155 Y35.822 E11.23841
G1 X105.552 Y35.898 E11.25595
G1 X107.385 Y36.370 E11.33810
G1 X107.765 Y36.494 E11.35544
G1 X109.508 Y37.184 E11.43680
G1 X109.873 Y37.355 E11.45430
G1 X111.523 Y38.263 E11.53603
G1 X111.861 Y38.478 E11.55342
G1 X113.385 Y39.585 E11.63517
G1 X113.693 Y39.840 E11.65252
G1 X115.063 Y41.125 E11.73404
G1 X115.341 Y41.421 E11.75167
G1 X116.545 Y42.878 E11.83370
G1 X116.779 Y43.200 E11.85097
G1 X117.789 Y44.790 E11.93272
G1 X117.983 Y45.143 E11.95020
G1 X118.783 Y46.843 E12.03175
G1 X118.931 Y47.216 E12.04916
G1 X119.515 Y49.012 E12.13113
G1 X119.615 Y49.403 E12.14864
G1 X119.968 Y51.255 E12.23047
G1 X120.019 Y51.655 E12.24797
G1 X120.136 Y53.530 E12.32950
G1 X120.136 Y53.927 E12.34673
G1 X120.019 Y55.810 E12.42861
G1 X119.968 Y56.211 E12.44615
G1 X119.615 Y58.062 E12.52794
G1 X119.515 Y58.452 E12.54541
G1 X118.933 Y60.243 E12.62714
G1 X118.785 Y60.616 E12.64456
G1 X117.987 Y62.312 E12.72590
G1 X117.794 Y62.665 E12.74336
G1 X116.785 Y64.255 E12.82509
G1 X116.551 Y64.577 E12.84237
G1 X115.343 Y66.040 E12.92471
G1 X115.062 Y66.339 E12.94252
G1 X113.683 Y67.630 E13.02450
G1 X113.378 Y67.882 E13.04167
G1 X111.862 Y68.984 E13.12301
G1 X111.523 Y69.200 E13.14046
G1 X109.873 Y70.108 E13.22219
G1 X109.506 Y70.280 E13.23978
G1 X107.755 Y70.972 E13.32150
G1 X107.375 Y71.096 E13.33885
G1 X105.540 Y71.567 E13.42107
G1 X105.143 Y71.642 E13.43860
G1 X103.274 Y71.877 E13.52035
G1 X102.873 Y71.902 E13.53779
G1 X100.989 Y71.901 E13.61956
G1 X100.589 Y71.876 E13.63695
G1 X98.731 Y71.641 E13.71823
G1 X98.335 Y71.565 E13.73573
G1 X96.502 Y71.093 E13.81788
G1 X96.122 Y70.969 E13.83523
G1 X94.379 Y70.279 E13.91659
G1 X94.014 Y70.108 E13.93408
G1 X92.364 Y69.200 E14.01582
G1 X92.026 Y68.985 E14.03320
G1 X90.502 Y67.878 E14.11495
G1 X90.193 Y67.622 E14.13237
G1 X88.824 Y66.337 E14.21385
G1 X88.548 Y66.043 E14.23136
G1 X87.343 Y64.586 E14.31341
G1 X87.108 Y64.263 E14.33075
G1 X86.098 Y62.673 E14.41250
G1 X85.904 Y62.320 E14.42998
G1 X85.104 Y60.620 E14.51152
G1 X84.956 Y60.247 E14.52894
G1 X84.372 Y58.451 E14.61090
G1 X84.272 Y58.061 E14.62838
G1 X83.919 Y56.212 E14.71007
G1 X83.868 Y55.812 E14.72757
G1 X83.750 Y53.931 E14.80937
G1 X83.750 Y53.531 E14.82673
G1 X83.868 Y51.651 E14.90848
G1 X83.919 Y51.252 E14.92594
G1 X84.272 Y49.401 E15.00772
G1 X84.372 Y49.011 E15.02520
G1 X84.954 Y47.221 E15.10689
G1 X85.101 Y46.848 E15.12429
G1 X85.899 Y45.151 E15.20567
G1 F4200.00000 E8.80567
G1 Z0.500
G0 F7200.000 X89.321 Y46.804 Z0.500
;TYPE:WALL-INNER
G1 Z0.300
G1 F4200.000 E15.20567
G1 F1200.00000 X90.295 Y45.268 E15.28461
G1 X91.456 Y43.866 E15.36361
G1 X92.770 Y42.636 E15.44172
G1 X94.233 Y41.572 E15.52023
G1 X95.812 Y40.703 E15.59846
G1 X97.488 Y40.040 E15.67668
G1 X99.266 Y39.585 E15.75633
G1 X101.041 Y39.361 E15.83398
G1 X102.863 Y39.362 E15.91305
G1 X104.631 Y39.586 E15.99040
G1 X106.407 Y40.042 E16.06998
G1 X108.075 Y40.703 E16.14784
G1 X109.654 Y41.572 E16.22607
G1 X111.120 Y42.638 E16.30473
G1 X112.437 Y43.874 E16.38312
G1 X113.589 Y45.266 E16.46154
G1 X114.562 Y46.797 E16.54027
G1 X115.329 Y48.428 E16.61849
G1 X115.891 Y50.156 E16.69735
G1 X116.227 Y51.922 E16.77537
G1 X116.340 Y53.728 E16.85391
G1 X116.227 Y55.543 E16.93283
G1 X115.891 Y57.311 E17.01093
G1 X115.331 Y59.032 E17.08948
G1 X114.566 Y60.659 E17.16751
G1 X113.591 Y62.194 E17.24643
G1 X112.439 Y63.589 E17.32495
G1 X111.117 Y64.827 E17.40355
G1 X109.654 Y65.891 E17.48206
G1 X108.075 Y66.760 E17.56029
G1 X106.399 Y67.423 E17.63851
G1 X104.621 Y67.878 E17.71816
G1 X102.845 Y68.102 E17.79585
G1 X101.023 Y68.101 E17.87493
G1 X99.256 Y67.877 E17.95223
G1 X97.480 Y67.421 E18.03181
G1 X95.812 Y66.760 E18.10968
G1 X94.233 Y65.891 E18.18790
G1 X92.765 Y64.824 E18.26666
G1 X91.451 Y63.589 E18.34492
G1 X90.298 Y62.197 E18.42337
G1 X89.325 Y60.666 E18.50210
G1 X88.556 Y59.030 E18.58055
G1 X87.997 Y57.314 E18.65888
G1 X87.660 Y55.543 E18.73712
G1 X87.546 Y53.728 E18.81605
G1 X87.660 Y51.918 E18.89476
G1 X87.996 Y50.152 E18.97278
G1 X88.556 Y48.432 E19.05128
G1 X89.321 Y46.804 E19.12935
G0 F7200.00000 X89.408 Y46.852
G0 X98.635 Y51.913
G0 X98.722 Y51.961
G1 F1200.000 X98.528 Y52.376 E19.14923
G1 X98.385 Y52.813 E19.16919
G1 X98.297 Y53.268 E19.18930
G1 X98.270 Y53.728 E19.20930
G1 X98.295 Y54.190 E19.22938
G1 X98.383 Y54.646 E19.24953
G1 X98.525 Y55.083 E19.26948
G1 X98.720 Y55.500 E19.28945
G1 X98.968 Y55.892 E19.30959
G1 X99.258 Y56.240 E19.32925
G1 X99.604 Y56.567 E19.34991
G1 X99.970 Y56.835 E19.36960
G1 X100.378 Y57.058 E19.38977
G1 X100.810 Y57.230 E19.40995
G1 X101.249 Y57.342 E19.42962
G1 X101.716 Y57.400 E19.45004
G1 X102.170 Y57.400 E19.46975
G1 X102.637 Y57.342 E19.49017
G1 X103.076 Y57.230 E19.50983
G1 X103.505 Y57.059 E19.52987
G1 X103.912 Y56.836 E19.55002
G1 X104.291 Y56.560 E19.57036
G1 X104.620 Y56.252 E19.58992
G1 X104.917 Y55.892 E19.61018
G1 X104.918 Y51.578 E19.79741
G1 X104.622 Y51.213 E19.81780
G1 X104.290 Y50.903 E19.83752
G1 X103.912 Y50.627 E19.85783
G1 X103.505 Y50.404 E19.87797
G1 X103.076 Y50.233 E19.89801
G1 X102.637 Y50.121 E19.91768
G1 X102.170 Y50.063 E19.93810
G1 X101.716 Y50.063 E19.95780
G1 X101.249 Y50.121 E19.97823
G1 X100.810 Y50.233 E19.99789
G1 X100.378 Y50.405 E20.01807
G1 X99.970 Y50.628 E20.03825
G1 X99.600 Y50.899 E20.05815
G1 X99.269 Y51.211 E20.07790
G1 X98.973 Y51.568 E20.09802
G1 X98.722 Y51.961 E20.11826
G0 F7200.00000 X99.075 Y52.151
;TYPE:WALL-OUTER
G1 F1200.000 X98.900 Y52.524 E20.13614
G1 X98.773 Y52.915 E20.15398
G1 X98.695 Y53.319 E20.17184
G1 X98.670 Y53.729 E20.18967
G1 X98.693 Y54.140 E20.20753
G1 X98.771 Y54.544 E20.22539
G1 X98.898 Y54.935 E20.24323
G1 X99.072 Y55.307 E20.26106
G1 X99.292 Y55.655 E20.27893
G1 X99.555 Y55.971 E20.29677
G1 X99.856 Y56.255 E20.31473
G1 X100.187 Y56.497 E20.33252
G1 X100.549 Y56.695 E20.35043
G1 X100.931 Y56.847 E20.36828
G1 X101.330 Y56.949 E20.38615
G1 X101.738 Y57.000 E20.40399
G1 X102.148 Y57.000 E20.42179
G1 X102.556 Y56.949 E20.43963
G1 X102.955 Y56.847 E20.45751
G1 X103.337 Y56.695 E20.47535
G1 X103.698 Y56.497 E20.49322
G1 X104.031 Y56.255 E20.51108
G1 X104.331 Y55.973 E20.52895
G1 X104.517 Y55.748 E20.54162
G1 X104.518 Y51.719 E20.71648
G1 X104.333 Y51.491 E20.72923
G1 X104.031 Y51.208 E20.74719
G1 X103.698 Y50.966 E20.76505
G1 X103.337 Y50.768 E20.78292
G1 X102.955 Y50.616 E20.80077
G1 X102.556 Y50.514 E20.81864
G1 X102.148 Y50.463 E20.83648
G1 X101.738 Y50.463 E20.85428
G1 X101.330 Y50.514 E20.87212
G1 X100.931 Y50.616 E20.89000
G1 X100.549 Y50.768 E20.90784
G1 X100.187 Y50.966 E20.92575
G1 X99.856 Y51.208 E20.94354
G1 X99.557 Y51.490 E20.96138
G1 X99.296 Y51.804 E20.97910
G1 X99.075 Y52.151 E20.99696
G0 F7200.00000 X98.655 Y51.882
G0 X89.408 Y46.852
G0 X88.970 Y46.610
G1 F1200.000 X89.970 Y45.033 E21.07800
G1 X91.159 Y43.597 E21.15891
G1 X92.518 Y42.325 E21.23970
G1 X94.020 Y41.233 E21.32029
G1 X95.638 Y40.342 E21.40046
G1 X97.369 Y39.658 E21.48123
G1 X99.186 Y39.192 E21.56265
G1 X101.020 Y38.961 E21.64287
G1 X102.886 Y38.962 E21.72385
G1 X104.710 Y39.193 E21.80365
G1 X106.526 Y39.660 E21.88503
G1 X108.249 Y40.342 E21.96545
G1 X109.867 Y41.233 E22.04562
G1 X111.377 Y42.330 E22.12662
G1 X112.731 Y43.600 E22.20719
G1 X113.914 Y45.031 E22.28777
G1 X114.913 Y46.603 E22.36860
G1 X115.702 Y48.281 E22.44908
G1 X116.279 Y50.055 E22.53004
G1 X116.625 Y51.872 E22.61031
G1 X116.741 Y53.729 E22.69107
G1 X116.625 Y55.594 E22.77216
G1 X116.279 Y57.410 E22.85240
G1 X115.704 Y59.179 E22.93312
G1 X114.917 Y60.853 E23.01340
G1 X113.919 Y62.425 E23.09422
G1 X112.732 Y63.862 E23.17511
G1 X111.369 Y65.138 E23.25614
G1 X109.867 Y66.230 E23.33673
G1 X108.249 Y67.121 E23.41690
G1 X106.518 Y67.805 E23.49768
G1 X104.701 Y68.271 E23.57909
G1 X102.866 Y68.502 E23.65936
G1 X101.000 Y68.501 E23.74034
G1 X99.177 Y68.270 E23.82009
G1 X97.361 Y67.803 E23.90147
G1 X95.638 Y67.121 E23.98189
G1 X94.020 Y66.230 E24.06206
G1 X92.508 Y65.132 E24.14316
G1 X91.157 Y63.863 E24.22360
G1 X89.973 Y62.432 E24.30421
G1 X88.974 Y60.860 E24.38504
G1 X88.185 Y59.182 E24.46552
G1 X87.608 Y57.410 E24.54640
G1 X87.262 Y55.593 E24.62667
G1 X87.145 Y53.729 E24.70773
G1 X87.262 Y51.866 E24.78874
G1 X87.608 Y50.053 E24.86885
G1 X88.183 Y48.285 E24.94954
G1 X88.970 Y46.610 E25.02986
G0 F7200.00000 X89.411 Y46.985
;TYPE:SKIN
G1 F1200.000 X108.673 Y66.246 E26.21207
G0 X108.743 Y66.316
G0 F7200.000 X109.037 Y66.045
G1 F1200.000 X100.057 Y57.065 E26.76324
G0 X99.987 Y56.995
G0 F7200.000 X101.002 Y57.444
G1 F1200.000 X109.402 Y65.845 E27.27883
G0 X109.472 Y65.915
G0 F7200.000 X109.746 Y65.623
