;FLAVOR:RepRap
;TIME:12811
M190 S50.000000
M104 S210.000000
M109 S210.000000
G21 ;metric values
G90 ;absolute positioning
M82 ;set extruder to absolute mode
M107 ;start with the fan off
G92 X0 Y0 Z0 ;Zero X Y and Z axis
G1 Z15.0 F9000 ;move the platform down 15mm
G92 E0 ;zero the extruded length
G1 F200 E3 ;extrude 3mm of feed stock
G92 E0 ;zero the extruded length again
G1 F9000
;Put printing message on LCD screen
M117 Printing...
;Generated with Cura_SteamEngine 2.1.3
;LAYER_COUNT:171
;LAYER:0
M107
G1 F4200.000000 E-6.40000
G1 Z20.200
G0 F7200.000 X62.397 Y48.731 Z0.500
;TYPE:SKIRT
G1 Z0.300
G1 F4200.000 E0.00000
G1 F1200.00000 X62.798 Y48.252 E0.02711
G1 X63.414 Y47.635 E0.06495
G1 X63.900 Y47.228 E0.09246
G1 X64.614 Y46.729 E0.13027
G1 X65.152 Y46.418 E0.15724
G1 X65.942 Y46.049 E0.19508
G1 X66.537 Y45.833 E0.22255
G1 X67.379 Y45.608 E0.26038
G1 X67.994 Y45.500 E0.28748
G1 X68.862 Y45.424 E0.32529
G1 X69.176 Y45.410 E0.33893
G1 X132.437 Y45.410 E3.08447
G1 X132.751 Y45.424 E3.09811
G1 X133.620 Y45.500 E3.13597
G1 X134.235 Y45.608 E3.16307
G1 X135.077 Y45.833 E3.20090
G1 X135.673 Y46.050 E3.22842
G1 X136.462 Y46.419 E3.26623
G1 X136.999 Y46.729 E3.29314
G1 X137.713 Y47.228 E3.33094
G1 X138.197 Y47.633 E3.35833
G1 X138.814 Y48.250 E3.39620
G1 X139.217 Y48.731 E3.42343
G1 X139.717 Y49.445 E3.46126
G1 X140.031 Y49.990 E3.48856
G1 X140.399 Y50.780 E3.52639
G1 X140.614 Y51.370 E3.55364
G1 X140.839 Y52.211 E3.59142
G1 X140.947 Y52.827 E3.61857
G1 X141.023 Y53.696 E3.65642
G1 X141.037 Y54.010 E3.67007
G1 X141.037 Y129.023 E6.92564
G1 X141.024 Y129.334 E6.93915
G1 X140.949 Y130.198 E6.97679
G1 X140.841 Y130.813 E7.00389
G1 X140.617 Y131.655 E7.04170
G1 X140.401 Y132.249 E7.06913
G1 X140.033 Y133.039 E7.10696
G1 X139.721 Y133.581 E7.13410
G1 X139.222 Y134.295 E7.17190
G1 X138.817 Y134.779 E7.19929
G1 X138.200 Y135.396 E7.23716
G1 X137.721 Y135.797 E7.26428
G1 X137.008 Y136.297 E7.30207
G1 X136.466 Y136.611 E7.32926
G1 X135.677 Y136.980 E7.36706
G1 X135.089 Y137.195 E7.39423
G1 X134.247 Y137.422 E7.43208
G1 X133.601 Y137.534 E7.46053
G1 X132.653 Y137.611 E7.50181
G1 X132.362 Y137.623 E7.51445
G1 X69.176 Y137.623 E10.25673
G1 X68.865 Y137.610 E10.27024
G1 X68.001 Y137.535 E10.30788
G1 X67.383 Y137.426 E10.33512
G1 X66.541 Y137.201 E10.37294
G1 X65.950 Y136.986 E10.40024
G1 X65.160 Y136.618 E10.43806
G1 X64.618 Y136.306 E10.46520
G1 X63.904 Y135.807 E10.50301
G1 X63.422 Y135.404 E10.53027
G1 X62.805 Y134.788 E10.56811
G1 X62.402 Y134.307 E10.59535
G1 X61.902 Y133.594 E10.63314
G1 X61.587 Y133.051 E10.66039
G1 X61.218 Y132.261 E10.69823
G1 X61.004 Y131.674 E10.72535
G1 X60.777 Y130.832 E10.76319
G1 X60.663 Y130.158 E10.79286
G1 X60.576 Y128.843 E10.85006
G1 X60.576 Y54.010 E14.09782
G1 X60.589 Y53.699 E14.11133
G1 X60.662 Y52.857 E14.14801
G1 X60.768 Y52.250 E14.17475
G1 X60.997 Y51.382 E14.21371
G1 X61.215 Y50.780 E14.24150
G1 X61.583 Y49.990 E14.27932
G1 X61.897 Y49.445 E14.30662
G1 X62.397 Y48.731 E14.34445
G0 F7200.00000 X62.725 Y48.960
G1 F1200.000 X63.081 Y48.535 E14.36851
G1 X63.697 Y47.918 E14.40635
G1 X64.129 Y47.556 E14.43081
G1 X64.843 Y47.057 E14.46862
G1 X65.322 Y46.781 E14.49261
G1 X66.112 Y46.412 E14.53045
G1 X66.640 Y46.219 E14.55485
G1 X67.482 Y45.994 E14.59268
G1 X68.029 Y45.898 E14.61678
G1 X68.897 Y45.822 E14.65459
G1 X69.176 Y45.810 E14.66671
G1 X132.437 Y45.810 E17.41225
G1 X132.716 Y45.822 E17.42437
G1 X133.585 Y45.898 E17.46223
G1 X134.132 Y45.994 E17.48633
G1 X134.974 Y46.219 E17.52416
G1 X135.504 Y46.412 E17.54864
G1 X136.293 Y46.781 E17.58644
G1 X136.770 Y47.057 E17.61036
G1 X137.484 Y47.556 E17.64816
G1 X137.914 Y47.916 E17.67250
G1 X138.531 Y48.533 E17.71037
G1 X138.889 Y48.960 E17.73456
G1 X139.389 Y49.674 E17.77239
G1 X139.669 Y50.159 E17.79669
G1 X140.037 Y50.949 E17.83451
G1 X140.227 Y51.473 E17.85870
G1 X140.452 Y52.314 E17.89649
G1 X140.549 Y52.862 E17.92064
G1 X140.625 Y53.731 E17.95850
G1 X140.637 Y54.010 E17.97062
G1 X140.637 Y129.023 E21.22620
G1 X140.625 Y129.300 E21.23823
G1 X140.550 Y130.164 E21.27587
G1 X140.454 Y130.710 E21.29993
G1 X140.230 Y131.552 E21.33774
G1 X140.039 Y132.080 E21.36211
G1 X139.671 Y132.870 E21.39993
G1 X139.393 Y133.352 E21.42408
G1 X138.894 Y134.066 E21.46189
G1 X138.534 Y134.496 E21.48623
G1 X137.917 Y135.113 E21.52410
G1 X137.491 Y135.470 E21.54822
G1 X136.778 Y135.970 E21.58601
G1 X136.297 Y136.249 E21.61015
G1 X135.508 Y136.618 E21.64795
G1 X134.985 Y136.809 E21.67211
G1 X134.143 Y137.036 E21.70996
G1 X133.569 Y137.135 E21.73524
G1 X132.621 Y137.212 E21.77652
G1 X132.362 Y137.223 E21.78777
G1 X69.176 Y137.223 E24.53005
G1 X68.899 Y137.211 E24.54209
G1 X68.035 Y137.136 E24.57972
G1 X67.486 Y137.040 E24.60391
G1 X66.644 Y136.815 E24.64174
G1 X66.119 Y136.624 E24.66598
G1 X65.329 Y136.256 E24.70381
G1 X64.847 Y135.978 E24.72796
G1 X64.133 Y135.479 E24.76576
G1 X63.705 Y135.121 E24.78998
G1 X63.088 Y134.505 E24.82782
G1 X62.729 Y134.077 E24.85206
G1 X62.229 Y133.364 E24.88986
G1 X61.950 Y132.881 E24.91406
G1 X61.581 Y132.091 E24.95191
G1 X61.390 Y131.570 E24.97599
G1 X61.163 Y130.728 E25.01384
G1 X61.062 Y130.129 E25.04020
G1 X60.976 Y128.843 E25.09614
G1 X60.976 Y54.010 E28.34390
G1 X60.988 Y53.734 E28.35589
G1 X61.061 Y52.892 E28.39257
G1 X61.155 Y52.352 E28.41636
G1 X61.384 Y51.484 E28.45532
G1 X61.577 Y50.949 E28.48000
G1 X61.945 Y50.159 E28.51783
G1 X62.225 Y49.674 E28.54213
G1 X62.725 Y48.960 E28.57996
G1 F4200.00000 E22.17996
G1 Z0.500
G0 F7200.000 X78.405 Y54.554 Z0.500
;TYPE:SUPPORT
G1 Z0.300
G1 F4200.000 E28.57996
G1 F1200.00000 X79.516 Y52.629 E28.67642
G1 X81.740 Y52.629 E28.77295
G1 X82.851 Y54.554 E28.86941
G1 X81.740 Y56.479 E28.96587
G1 X79.516 Y56.479 E29.06239
G1 X78.405 Y54.554 E29.15885
G1 F4200.00000 E22.75885
G1 Z0.500
G0 F7200.000 X79.302 Y53.320 Z0.500
G1 Z0.300
G1 F4200.000 E29.15885
G1 F1200.00000 X81.955 Y53.320 E29.27399
G1 F4200.00000 E22.87399
G1 Z0.500
G0 F7200.000 X79.980 Y52.789 Z0.500
G1 Z0.300
G1 F4200.000 E29.27399
G1 F1200.00000 X79.980 Y56.319 E29.42720
G1 F4200.00000 E23.02720
G1 Z0.500
G0 F7200.000 X91.811 Y63.040 Z0.500
G1 Z0.300
G1 F4200.000 E29.42720
G1 F1200.00000 X94.035 Y63.040 E29.52372
G1 X95.146 Y64.965 E29.62018
G1 X94.035 Y66.890 E29.71664
G1 X91.811 Y66.890 E29.81316
G1 X90.700 Y64.965 E29.90962
G1 X91.811 Y63.040 E30.00608
G0 F7200.00000 X91.451 Y63.984
G1 F1200.000 X94.396 Y63.984 E30.13390
G1 F4200.00000 E23.73390
G1 Z0.500
G0 F7200.000 X95.131 Y61.140 Z0.500
;TYPE:WALL-INNER
G1 Z0.300
G1 F4200.000 E30.13390
G1 F1200.00000 X90.715 Y61.140 E30.32555
G1 X88.506 Y64.965 E30.51725
G1 X90.715 Y68.790 E30.70895
G1 X95.131 Y68.790 E30.90061
G1 X97.340 Y64.965 E31.09231
G1 X95.131 Y61.140 E31.28401
G0 F7200.00000 X85.045 Y54.554
G1 F1200.000 X82.836 Y50.729 E31.47571
G1 X78.420 Y50.729 E31.66737
G1 X76.211 Y54.554 E31.85907
G1 X78.420 Y58.379 E32.05077
G1 X82.836 Y58.379 E32.24242
G1 X85.045 Y54.554 E32.43412
G0 F7200.00000 X82.624 Y51.095
G0 X69.220 Y50.010
G1 F1200.000 X132.393 Y50.010 E35.17584
G1 X133.137 Y50.075 E35.20825
G1 X133.803 Y50.252 E35.23816
G1 X134.435 Y50.549 E35.26847
G1 X135.008 Y50.950 E35.29882
G1 X135.493 Y51.435 E35.32859
G1 X135.900 Y52.017 E35.35941
G1 X136.194 Y52.644 E35.38947
G1 X136.372 Y53.311 E35.41943
G1 X136.437 Y54.050 E35.45162
G1 X136.437 Y128.983 E38.70373
G1 X136.372 Y129.717 E38.73571
G1 X136.195 Y130.387 E38.76578
G1 X135.906 Y131.009 E38.79555
G1 X135.495 Y131.595 E38.82661
G1 X135.018 Y132.072 E38.85589
G1 X134.431 Y132.485 E38.88704
G1 X133.808 Y132.777 E38.91690
G1 X133.137 Y132.957 E38.94705
G1 X132.328 Y133.023 E38.98228
G1 X69.219 Y133.023 E41.72122
G1 X68.482 Y132.959 E41.75333
G1 X67.816 Y132.782 E41.78324
G1 X67.178 Y132.485 E41.81378
G1 X66.612 Y132.088 E41.84378
G1 X66.122 Y131.598 E41.87386
G1 X65.716 Y131.019 E41.90455
G1 X65.422 Y130.392 E41.93460
G1 X65.243 Y129.724 E41.96462
G1 X65.176 Y128.825 E42.00374
G1 X65.176 Y54.050 E45.24899
G1 X65.239 Y53.340 E45.27992
G1 X65.423 Y52.640 E45.31134
G1 X65.714 Y52.016 E45.34122
G1 X66.117 Y51.441 E45.37169
G1 X66.608 Y50.949 E45.40186
G1 X67.180 Y50.550 E45.43213
G1 X67.813 Y50.252 E45.46249
G1 X68.477 Y50.075 E45.49232
G1 X69.220 Y50.010 E45.52468
G0 F7200.00000 X69.201 Y49.610
G1 F1200.000 X132.412 Y49.610 E48.26805
G1 X133.203 Y49.679 E48.30251
G1 X133.942 Y49.876 E48.33570
G1 X134.635 Y50.201 E48.36892
G1 X135.267 Y50.643 E48.40240
G1 X135.802 Y51.178 E48.43523
G1 X136.247 Y51.814 E48.46892
G1 X136.571 Y52.507 E48.50212
G1 X136.768 Y53.244 E48.53523
G1 X136.837 Y54.030 E48.56947
G1 X136.837 Y129.003 E51.82331
G1 X136.768 Y129.788 E51.85751
G1 X136.573 Y130.523 E51.89052
G1 X136.254 Y131.209 E51.92335
G1 X135.804 Y131.852 E51.95741
G1 X135.273 Y132.383 E51.99000
G1 X134.637 Y132.830 E52.02374
G1 X133.946 Y133.154 E52.05686
G1 X133.205 Y133.353 E52.09016
G1 X132.343 Y133.423 E52.12770
G1 X69.200 Y133.423 E54.86811
G1 X68.415 Y133.355 E54.90231
G1 X67.677 Y133.158 E54.93546
G1 X66.981 Y132.834 E54.96878
G1 X66.353 Y132.395 E55.00204
G1 X65.813 Y131.855 E55.03518
G1 X65.369 Y131.222 E55.06874
G1 X65.045 Y130.530 E55.10190
G1 X64.847 Y129.792 E55.13506
G1 X64.776 Y128.834 E55.17675
G1 X64.776 Y54.030 E58.42326
G1 X64.843 Y53.271 E58.45632
G1 X65.045 Y52.505 E58.49071
G1 X65.366 Y51.814 E58.52377
G1 X65.810 Y51.181 E58.55733
G1 X66.349 Y50.641 E58.59044
G1 X66.978 Y50.202 E58.62373
G1 X67.672 Y49.876 E58.65701
G1 X68.411 Y49.679 E58.69020
G1 X69.201 Y49.610 E58.72462
G0 F7200.00000 X69.204 Y49.710
G0 X76.573 Y54.554
G0 X76.673 Y54.554
G1 F1200.000 X78.651 Y57.979 E58.89627
G1 X82.605 Y57.979 E59.06788
G1 X84.583 Y54.554 E59.23953
G1 X82.605 Y51.129 E59.41118
G1 X78.651 Y51.129 E59.58279
G1 X76.673 Y54.554 E59.75444
G0 F7200.00000 X76.573 Y54.554
G0 X78.632 Y58.013
G0 X90.897 Y61.454
G0 X90.946 Y61.540
G1 F1200.000 X88.968 Y64.965 E59.92610
G1 X90.946 Y68.390 E60.09775
G1 X94.900 Y68.390 E60.26935
G1 X96.878 Y64.965 E60.44101
G1 X94.900 Y61.540 E60.61266
G1 X90.946 Y61.540 E60.78427
G0 F7200.00000 X91.177 Y61.940
;TYPE:WALL-OUTER
G1 F1200.000 X89.430 Y64.965 E60.93587
G1 X91.177 Y67.990 E61.08748
G1 X94.669 Y67.990 E61.23903
G1 X96.416 Y64.965 E61.39064
G1 X94.669 Y61.940 E61.54224
G1 X91.177 Y61.940 E61.69380
G0 F7200.00000 X91.177 Y61.440
G0 X82.374 Y58.079
G0 X82.374 Y57.579
G1 F1200.000 X84.121 Y54.554 E61.84540
G1 X82.374 Y51.529 E61.99701
G1 X78.882 Y51.529 E62.14856
G1 X77.135 Y54.554 E62.30017
G1 X78.882 Y57.579 E62.45178
G1 X82.374 Y57.579 E62.60333
G0 F7200.00000 X82.374 Y58.079
G0 X78.632 Y58.013
G0 X69.205 Y49.709
G0 X69.182 Y49.210
G1 F1200.000 X132.431 Y49.210 E65.34835
G1 X133.270 Y49.283 E65.38490
G1 X134.079 Y49.499 E65.42124
G1 X134.835 Y49.853 E65.45747
G1 X135.526 Y50.336 E65.49406
G1 X136.111 Y50.921 E65.52996
G1 X136.596 Y51.614 E65.56667
G1 X136.947 Y52.367 E65.60273
G1 X137.164 Y53.177 E65.63912
G1 X137.237 Y54.010 E65.67541
G1 X137.237 Y129.023 E68.93099
G1 X137.164 Y129.853 E68.96715
G1 X136.949 Y130.661 E69.00344
G1 X136.600 Y131.412 E69.03938
G1 X136.114 Y132.108 E69.07622
G1 X135.530 Y132.692 E69.11207
G1 X134.839 Y133.177 E69.14871
G1 X134.083 Y133.531 E69.18494
G1 X133.274 Y133.749 E69.22130
G1 X132.358 Y133.823 E69.26118
G1 X69.181 Y133.823 E72.00307
G1 X68.348 Y133.751 E72.03936
G1 X67.537 Y133.534 E72.07580
G1 X66.784 Y133.183 E72.11185
G1 X66.094 Y132.701 E72.14838
G1 X65.504 Y132.112 E72.18456
G1 X65.022 Y131.425 E72.22099
G1 X64.668 Y130.668 E72.25726
G1 X64.451 Y129.860 E72.29357
G1 X64.376 Y128.843 E72.33782
G1 X64.376 Y54.010 E75.58559
G1 X64.447 Y53.202 E75.62079
G1 X64.667 Y52.368 E75.65822
G1 X65.018 Y51.614 E75.69432
G1 X65.501 Y50.924 E75.73087
G1 X66.090 Y50.334 E75.76706
G1 X66.778 Y49.853 E75.80349
G1 X67.535 Y49.499 E75.83976
G1 X68.344 Y49.283 E75.87610
G1 X69.182 Y49.210 E75.91260
G0 F7200.00000 X69.403 Y50.169
;TYPE:SKIN
G1 F1200.000 X136.276 Y117.043 E80.01711
G0 X136.346 Y117.113
G0 F7200.000 X136.276 Y117.608
G1 F1200.000 X68.868 Y50.201 E84.15438
G0 X68.798 Y50.131
G0 F7200.000 X68.370 Y50.268
G1 F1200.000 X136.276 Y118.174 E88.32226
G0 X136.346 Y118.244
G0 F7200.000 X136.276 Y118.740
G1 F1200.000 X67.923 Y50.387 E92.51756
G0 X67.853 Y50.317
G0 F7200.000 X67.531 Y50.560
G1 F1200.000 X136.276 Y119.305 E96.73693
G0 X136.346 Y119.375
G0 F7200.000 X136.276 Y119.871
G1 F1200.000 X67.161 Y50.756 E100.97901
G0 X67.091 Y50.686
G0 F7200.000 X66.828 Y50.989
G1 F1200.000 X136.276 Y120.437 E105.24153
G0 X136.346 Y120.507
G0 F7200.000 X136.276 Y121.002
G1 F1200.000 X66.528 Y51.254 E109.52246
G0 X66.458 Y51.184
G0 F7200.000 X66.245 Y51.537
G1 F1200.000 X136.276 Y121.568 E113.82075
G0 X136.346 Y121.638
G0 F7200.000 X136.276 Y122.134
G1 F1200.000 X66.011 Y51.869 E118.13342
G0 X65.941 Y51.799
G0 F7200.000 X65.794 Y52.218
G1 F1200.000 X136.276 Y122.699 E122.45937
G0 X136.346 Y122.769
G0 F7200.000 X136.276 Y123.265
G1 F1200.000 X65.614 Y52.603 E126.79639
G0 X65.544 Y52.533
G0 F7200.000 X65.482 Y53.037
G1 F1200.000 X136.276 Y123.831 E131.14152
G0 X136.346 Y123.901
G0 F7200.000 X136.276 Y124.397
G1 F1200.000 X65.384 Y53.504 E135.49270
G0 X65.314 Y53.434
G0 F7200.000 X65.337 Y54.023
G1 F1200.000 X136.276 Y124.962 E139.84673
G0 X136.346 Y125.032
G0 F7200.000 X136.276 Y125.528
G1 F1200.000 X65.335 Y54.587 E144.20088
G0 X65.265 Y54.517
G0 F7200.000 X65.335 Y55.152
G1 F1200.000 X136.276 Y126.094 E148.55506
G0 X136.346 Y126.164
G0 F7200.000 X136.276 Y126.659
G1 F1200.000 X65.335 Y55.718 E152.90922
G0 X65.265 Y55.648
G0 F7200.000 X65.335 Y56.284
G1 F1200.000 X136.276 Y127.225 E157.26337
G0 X136.346 Y127.295
G0 F7200.000 X136.276 Y127.791
G1 F1200.000 X65.335 Y56.849 E161.61755
G0 X65.265 Y56.779
G0 F7200.000 X65.335 Y57.415
G1 F1200.000 X136.276 Y128.356 E165.97170
G0 X136.346 Y128.426
G0 F7200.000 X136.276 Y128.922
G1 F1200.000 X65.335 Y57.981 E170.32586
G0 X65.265 Y57.911
G0 F7200.000 X65.335 Y58.547
G1 F1200.000 X136.235 Y129.447 E174.67749
G0 X136.305 Y129.517
G0 F7200.000 X136.150 Y129.928
G1 F1200.000 X65.335 Y59.112 E179.02394
G0 X65.265 Y59.042
G0 F7200.000 X65.335 Y59.678
G1 F1200.000 X136.026 Y130.369 E183.36275
G0 X136.096 Y130.439
G0 F7200.000 X135.847 Y130.756
G1 F1200.000 X65.335 Y60.244 E187.69057
G0 X65.265 Y60.174
G0 F7200.000 X65.335 Y60.809
G1 F1200.000 X135.637 Y131.112 E192.00554
G0 X135.707 Y131.182
G0 F7200.000 X135.405 Y131.445
G1 F1200.000 X65.335 Y61.375 E196.30623
G0 X65.265 Y61.305
G0 F7200.000 X65.335 Y61.941
G1 F1200.000 X135.129 Y131.735 E200.58998
G0 X135.199 Y131.805
G0 F7200.000 X134.833 Y132.005
G1 F1200.000 X65.335 Y62.506 E204.85560
G0 X65.265 Y62.436
G0 F7200.000 X65.335 Y63.072
G1 F1200.000 X134.501 Y132.238 E209.10081
G0 X134.571 Y132.308
G0 F7200.000 X134.140 Y132.443
G1 F1200.000 X65.335 Y63.638 E213.32386
G0 X65.265 Y63.568
G0 F7200.000 X65.335 Y64.203
G1 F1200.000 X133.756 Y132.624 E217.52334
G0 X133.826 Y132.694
G0 F7200.000 X133.310 Y132.745
G1 F1200.000 X65.335 Y64.769 E221.69548
G0 X65.265 Y64.699
G0 F7200.000 X65.335 Y65.335
G1 F1200.000 X132.822 Y132.822 E225.83763
G0 X132.892 Y132.892
G0 F7200.000 X132.296 Y132.861
G1 F1200.000 X65.335 Y65.900 E229.94750
G0 X65.265 Y65.830
G0 F7200.000 X65.335 Y66.466
G1 F1200.000 X131.730 Y132.861 E234.02264
G0 X131.800 Y132.931
G0 F7200.000 X131.164 Y132.861
G1 F1200.000 X65.335 Y67.032 E238.06303
G0 X65.265 Y66.962
G0 F7200.000 X65.335 Y67.597
G1 F1200.000 X130.599 Y132.861 E242.06874
G0 X130.669 Y132.931
G0 F7200.000 X130.033 Y132.861
G1 F1200.000 X65.335 Y68.163 E246.03972
G0 X65.265 Y68.093
G0 F7200.000 X65.335 Y68.729
G1 F1200.000 X129.467 Y132.861 E249.97595
G0 X129.537 Y132.931
G0 F7200.000 X128.902 Y132.861
G1 F1200.000 X65.335 Y69.295 E253.87748
