;FLAVOR:RepRap
;TIME:3848
M190 S50.000000
M104 S210.000000
M109 S210.000000
M109 S210.000000
G21 ;metric values
G90 ;absolute positioning
M82 ;set extruder to absolute mode
M107 ;start with the fan off
G92 X0 Y0 Z0 ;Zero X Y and Z axis
G1 Z15.0 F9000 ;move the platform down 15mm
G92 E0 ;zero the extruded length
G1 F200 E3 ;extrude 3mm of feed stock
G92 E0 ;zero the extruded length again
G1 F9000
;Put printing message on LCD screen
M117 Printing...
;Generated with Cura_SteamEngine 2.1.3
;LAYER_COUNT:57
;LAYER:0
M107
G0 F7200.000000 X68.132 Y58.023 Z0.300
G0 X67.510 Y59.661
;TYPE:SKIRT
G1 F1200.000 X67.525 Y59.500 E0.00702
G1 X67.653 Y58.979 E0.03030
G1 X67.856 Y58.483 E0.05356
G1 X68.132 Y58.023 E0.07684
G1 X68.643 Y57.442 E0.11042
G1 X69.254 Y56.884 E0.14634
G1 X69.518 Y56.655 E0.16150
G1 X69.948 Y56.334 E0.18479
G1 X70.421 Y56.081 E0.20807
G1 X70.926 Y55.902 E0.23133
G1 X71.453 Y55.799 E0.25463
G1 X71.818 Y55.783 E0.27049
G1 X71.872 Y55.631 E0.27749
G1 X72.126 Y55.158 E0.30079
G1 X72.446 Y54.728 E0.32405
G1 X72.827 Y54.351 E0.34731
G1 X73.469 Y53.913 E0.38104
G1 X74.189 Y53.530 E0.41644
G1 X74.511 Y53.369 E0.43206
G1 X75.007 Y53.166 E0.45532
G1 X75.528 Y53.038 E0.47860
G1 X76.062 Y52.989 E0.50188
G1 X76.598 Y53.021 E0.52518
G1 X76.957 Y53.096 E0.54110
G1 X77.048 Y52.962 E0.54813
G1 X77.411 Y52.567 E0.57141
G1 X77.828 Y52.230 E0.59468
G1 X78.291 Y51.959 E0.61796
G1 X79.024 Y51.694 E0.65179
G1 X79.821 Y51.502 E0.68737
G1 X80.163 Y51.428 E0.70256
G1 X80.694 Y51.354 E0.72582
G1 X81.230 Y51.360 E0.74909
G1 X81.760 Y51.445 E0.77238
G1 X82.270 Y51.608 E0.79562
G1 X82.602 Y51.772 E0.81169
G1 X82.722 Y51.665 E0.81867
G1 X83.172 Y51.373 E0.84195
G1 X83.660 Y51.150 E0.86524
G1 X84.175 Y51.003 E0.88848
G1 X84.949 Y50.928 E0.92223
G1 X85.779 Y50.940 E0.95826
G1 X86.129 Y50.954 E0.97346
G1 X86.662 Y51.015 E0.99674
G1 X87.179 Y51.155 E1.01999
G1 X87.671 Y51.370 E1.04329
G1 X88.124 Y51.656 E1.06654
G1 X88.400 Y51.894 E1.08236
G1 X88.548 Y51.818 E1.08958
G1 X89.057 Y51.647 E1.11288
G1 X89.585 Y51.554 E1.13615
G1 X90.121 Y51.540 E1.15942
G1 X90.882 Y51.660 E1.19286
G1 X91.680 Y51.876 E1.22874
G1 X92.015 Y51.976 E1.24391
G1 X92.516 Y52.168 E1.26719
G1 X92.983 Y52.431 E1.29046
G1 X93.406 Y52.761 E1.31374
G1 X93.775 Y53.150 E1.33701
G1 X93.986 Y53.452 E1.35300
G1 X94.147 Y53.416 E1.36016
G1 X94.682 Y53.377 E1.38344
G1 X95.217 Y53.418 E1.40673
G1 X95.740 Y53.538 E1.43001
G1 X96.448 Y53.844 E1.46349
G1 X97.168 Y54.253 E1.49943
G1 X97.467 Y54.433 E1.51457
G1 X97.904 Y54.743 E1.53783
G1 X98.291 Y55.114 E1.56109
G1 X98.618 Y55.539 E1.58437
G1 X98.879 Y56.008 E1.60766
G1 X99.007 Y56.352 E1.62359
G1 X99.173 Y56.357 E1.63080
G1 X99.701 Y56.453 E1.65409
G1 X100.209 Y56.625 E1.67737
G1 X100.685 Y56.872 E1.70064
G1 X101.297 Y57.345 E1.73421
G1 X101.878 Y57.906 E1.76926
G1 X102.131 Y58.162 E1.78488
G1 X102.478 Y58.571 E1.80816
G1 X102.761 Y59.026 E1.83142
G1 X102.973 Y59.519 E1.85471
G1 X103.110 Y60.038 E1.87800
G1 X103.150 Y60.410 E1.89424
G1 X103.305 Y60.454 E1.90123
G1 X103.793 Y60.677 E1.92452
G1 X104.242 Y60.970 E1.94779
G1 X104.643 Y61.327 E1.97109
G1 X105.117 Y61.937 E2.00462
G1 X105.552 Y62.643 E2.04061
G1 X105.728 Y62.946 E2.05581
G1 X105.962 Y63.428 E2.07907
G1 X106.122 Y63.940 E2.10235
G1 X106.204 Y64.470 E2.12562
G1 X106.206 Y65.007 E2.14893
G1 X106.153 Y65.370 E2.16485
G1 X106.296 Y65.454 E2.17205
G1 X106.712 Y65.791 E2.19528
G1 X107.074 Y66.187 E2.21857
G1 X107.373 Y66.633 E2.24187
G1 X107.682 Y67.345 E2.27556
G1 X107.920 Y68.119 E2.31070
G1 X108.016 Y68.455 E2.32587
G1 X108.125 Y68.980 E2.34914
G1 X108.154 Y69.516 E2.37244
G1 X108.104 Y70.050 E2.39571
G1 X107.974 Y70.570 E2.41898
G1 X107.829 Y70.920 E2.43542
G1 X107.945 Y71.035 E2.44251
G1 X108.265 Y71.465 E2.46577
G1 X108.517 Y71.939 E2.48907
G1 X108.696 Y72.444 E2.51232
G1 X108.819 Y73.213 E2.54612
G1 X108.858 Y74.027 E2.58149
G1 X108.867 Y74.377 E2.59668
G1 X108.841 Y74.913 E2.61997
G1 X108.735 Y75.439 E2.64326
G1 X108.553 Y75.943 E2.66652
G1 X108.297 Y76.415 E2.68982
G1 X108.072 Y76.714 E2.70606
G1 X108.157 Y76.858 E2.71332
G1 X108.359 Y77.355 E2.73660
G1 X108.485 Y77.876 E2.75987
G1 X108.533 Y78.410 E2.78313
G1 X108.460 Y79.179 E2.81666
G1 X108.294 Y79.986 E2.85242
G1 X108.215 Y80.327 E2.86761
G1 X108.056 Y80.839 E2.89088
G1 X107.822 Y81.322 E2.91417
G1 X107.519 Y81.765 E2.93746
G1 X107.153 Y82.157 E2.96074
G1 X106.866 Y82.385 E2.97665
G1 X106.913 Y82.544 E2.98384
G1 X106.985 Y83.076 E3.00714
G1 X106.978 Y83.612 E3.03040
G1 X106.891 Y84.141 E3.05367
G1 X106.632 Y84.865 E3.08704
G1 X106.271 Y85.605 E3.12278
G1 X106.105 Y85.924 E3.13838
G1 X105.823 Y86.380 E3.16165
G1 X105.476 Y86.789 E3.18493
G1 X105.072 Y87.142 E3.20822
G1 X104.621 Y87.431 E3.23146
G1 X104.288 Y87.579 E3.24728
G1 X104.294 Y87.745 E3.25449
G1 X104.232 Y88.278 E3.27778
G1 X104.092 Y88.795 E3.30102
G1 X103.876 Y89.286 E3.32430
G1 X103.441 Y89.927 E3.35792
G1 X102.910 Y90.551 E3.39348
G1 X102.678 Y90.811 E3.40861
G1 X102.292 Y91.183 E3.43187
G1 X101.855 Y91.494 E3.45515
G1 X101.377 Y91.737 E3.47842
G1 X100.868 Y91.906 E3.50170
G1 X100.499 Y91.970 E3.51795
G1 X100.464 Y92.129 E3.52502
G1 X100.272 Y92.629 E3.54826
G1 X100.008 Y93.096 E3.57155
G1 X99.677 Y93.518 E3.59482
G1 X99.100 Y94.028 E3.62824
G1 X98.426 Y94.505 E3.66408
G1 X98.135 Y94.700 E3.67928
G1 X97.669 Y94.964 E3.70253
G1 X97.168 Y95.156 E3.72581
G1 X96.644 Y95.272 E3.74911
G1 X96.109 Y95.309 E3.77238
G1 X95.738 Y95.279 E3.78853
G1 X95.663 Y95.427 E3.79573
G1 X95.352 Y95.864 E3.81901
G1 X94.979 Y96.250 E3.84231
G1 X94.554 Y96.576 E3.86556
G1 X93.865 Y96.927 E3.89912
G1 X93.104 Y97.216 E3.93444
G1 X92.774 Y97.333 E3.94964
G1 X92.257 Y97.474 E3.97290
G1 X91.724 Y97.537 E3.99619
G1 X91.188 Y97.520 E4.01946
G1 X90.660 Y97.423 E4.04276
G1 X90.303 Y97.301 E4.05914
G1 X90.195 Y97.424 E4.06624
G1 X89.785 Y97.770 E4.08952
G1 X89.328 Y98.051 E4.11281
G1 X88.835 Y98.262 E4.13608
G1 X88.074 Y98.432 E4.16992
G1 X87.268 Y98.521 E4.20512
G1 X86.919 Y98.552 E4.22032
G1 X86.382 Y98.559 E4.24363
G1 X85.851 Y98.487 E4.26689
G1 X85.336 Y98.337 E4.29017
G1 X84.849 Y98.112 E4.31345
G1 X84.537 Y97.906 E4.32968
G1 X84.403 Y97.998 E4.33673
G1 X83.920 Y98.232 E4.36002
G1 X83.408 Y98.391 E4.38329
G1 X82.878 Y98.472 E4.40656
G1 X82.105 Y98.449 E4.44012
G1 X81.278 Y98.333 E4.47637
G1 X80.933 Y98.275 E4.49155
G1 X80.412 Y98.147 E4.51483
G1 X79.916 Y97.943 E4.53811
G1 X79.456 Y97.668 E4.56137
G1 X79.042 Y97.327 E4.58465
G1 X78.800 Y97.058 E4.60035
G1 X78.640 Y97.116 E4.60774
G1 X78.114 Y97.221 E4.63102
G1 X77.578 Y97.247 E4.65430
G1 X77.045 Y97.193 E4.67756
G1 X76.309 Y96.979 E4.71082
G1 X75.556 Y96.669 E4.74616
G1 X75.227 Y96.524 E4.76177
G1 X74.754 Y96.272 E4.78503
G1 X74.323 Y95.952 E4.80832
G1 X73.945 Y95.572 E4.83159
G1 X73.627 Y95.140 E4.85487
G1 X73.455 Y94.811 E4.87098
G1 X73.289 Y94.827 E4.87822
G1 X72.754 Y94.799 E4.90147
G1 X72.228 Y94.691 E4.92477
G1 X71.725 Y94.507 E4.94802
G1 X71.061 Y94.115 E4.98148
G1 X70.403 Y93.623 E5.01714
G1 X70.128 Y93.407 E5.03232
G1 X69.732 Y93.045 E5.05560
G1 X69.395 Y92.629 E5.07884
G1 X69.122 Y92.167 E5.10213
G1 X68.922 Y91.669 E5.12542
G1 X68.836 Y91.306 E5.14161
G1 X68.675 Y91.281 E5.14868
G1 X68.163 Y91.121 E5.17196
G1 X67.681 Y90.886 E5.19523
G1 X67.239 Y90.583 E5.21849
G1 X66.690 Y90.035 E5.25216
G1 X66.171 Y89.390 E5.28809
G1 X65.959 Y89.112 E5.30326
G1 X65.667 Y88.663 E5.32650
G1 X65.444 Y88.175 E5.34979
G1 X65.297 Y87.659 E5.37308
G1 X65.227 Y87.127 E5.39636
G1 X65.234 Y86.762 E5.41221
G1 X65.084 Y86.697 E5.41930
G1 X64.628 Y86.415 E5.44257
G1 X64.219 Y86.067 E5.46588
G1 X63.867 Y85.663 E5.48913
G1 X63.473 Y85.000 E5.52260
G1 X63.132 Y84.249 E5.55840
G1 X62.992 Y83.917 E5.57404
G1 X62.821 Y83.408 E5.59734
G1 X62.727 Y82.880 E5.62062
G1 X62.713 Y82.344 E5.64389
G1 X62.779 Y81.812 E5.66715
G1 X62.876 Y81.465 E5.68279
G1 X62.743 Y81.362 E5.69009
G1 X62.373 Y80.974 E5.71336
G1 X62.064 Y80.536 E5.73662
G1 X61.823 Y80.056 E5.75993
G1 X61.608 Y79.318 E5.79330
G1 X61.464 Y78.503 E5.82921
G1 X61.412 Y78.157 E5.84440
G1 X61.372 Y77.622 E5.86768
G1 X61.412 Y77.087 E5.89097
G1 X61.531 Y76.565 E5.91420
G1 X61.726 Y76.065 E5.93750
G1 X61.909 Y75.747 E5.95342
G1 X61.806 Y75.615 E5.96069
G1 X61.543 Y75.148 E5.98395
G1 X61.353 Y74.646 E6.00724
G1 X61.239 Y74.122 E6.03052
G1 X61.214 Y73.351 E6.06399
G1 X61.277 Y72.534 E6.09956
G1 X61.312 Y72.186 E6.11474
G1 X61.405 Y71.658 E6.13801
G1 X61.576 Y71.149 E6.16131
G1 X61.820 Y70.672 E6.18456
G1 X62.133 Y70.236 E6.20786
G1 X62.393 Y69.968 E6.22406
G1 X62.328 Y69.818 E6.23116
G1 X62.190 Y69.300 E6.25442
G1 X62.130 Y68.767 E6.27770
G1 X62.149 Y68.231 E6.30098
G1 X62.315 Y67.482 E6.33427
G1 X62.586 Y66.684 E6.37085
G1 X62.708 Y66.356 E6.38604
G1 X62.932 Y65.869 E6.40930
G1 X63.226 Y65.420 E6.43259
G1 X63.583 Y65.020 E6.45586
G1 X63.995 Y64.677 E6.47913
G1 X64.301 Y64.492 E6.49465
G1 X64.275 Y64.331 E6.50173
G1 X64.269 Y63.795 E6.52499
G1 X64.344 Y63.264 E6.54826
G1 X64.496 Y62.750 E6.57153
G1 X64.848 Y62.058 E6.60522
G1 X65.291 Y61.380 E6.64037
G1 X65.489 Y61.091 E6.65557
G1 X65.824 Y60.673 E6.67882
G1 X66.218 Y60.309 E6.70210
G1 X66.661 Y60.007 E6.72537
G1 X67.145 Y59.774 E6.74869
G1 X67.510 Y59.661 E6.76527
G0 F7200.00000 X67.877 Y59.980
G1 F1200.000 X67.935 Y59.481 E6.78707
G1 X68.071 Y58.994 E6.80902
G1 X68.282 Y58.535 E6.83094
G1 X68.563 Y58.114 E6.85291
G1 X68.913 Y57.737 E6.87523
G1 X69.516 Y57.186 E6.91068
G1 X69.780 Y56.957 E6.92585
G1 X70.187 Y56.657 E6.94780
G1 X70.636 Y56.424 E6.96975
G1 X71.116 Y56.266 E6.99168
G1 X71.615 Y56.185 E7.01362
G1 X72.095 Y56.183 E7.03445
G1 X72.274 Y55.714 E7.05624
G1 X72.527 Y55.276 E7.07819
G1 X72.845 Y54.883 E7.10013
G1 X73.222 Y54.546 E7.12208
G1 X73.657 Y54.266 E7.14453
G1 X74.368 Y53.888 E7.17948
G1 X74.690 Y53.727 E7.19510
G1 X75.159 Y53.537 E7.21706
G1 X75.651 Y53.424 E7.23897
G1 X76.156 Y53.389 E7.26094
G1 X76.659 Y53.435 E7.28286
G1 X77.125 Y53.553 E7.30373
G1 X77.417 Y53.142 E7.32561
G1 X77.770 Y52.781 E7.34752
G1 X78.176 Y52.480 E7.36946
G1 X78.625 Y52.246 E7.39143
G1 X79.119 Y52.083 E7.41401
G1 X79.905 Y51.893 E7.44910
G1 X80.247 Y51.819 E7.46429
G1 X80.748 Y51.752 E7.48623
G1 X81.254 Y51.764 E7.50819
G1 X81.751 Y51.856 E7.53013
G1 X82.227 Y52.025 E7.55205
G1 X82.653 Y52.256 E7.57308
G1 X83.035 Y51.932 E7.59482
G1 X83.467 Y51.669 E7.61677
G1 X83.935 Y51.479 E7.63869
G1 X84.427 Y51.364 E7.66062
G1 X84.944 Y51.328 E7.68311
G1 X85.763 Y51.340 E7.71866
G1 X86.113 Y51.354 E7.73386
G1 X86.615 Y51.414 E7.75581
G1 X87.101 Y51.552 E7.77773
G1 X87.560 Y51.765 E7.79969
G1 X87.979 Y52.048 E7.82164
G1 X88.328 Y52.375 E7.84239
G1 X88.329 Y52.374 E7.84246
G1 X88.784 Y52.154 E7.86439
G1 X89.268 Y52.008 E7.88633
G1 X89.769 Y51.941 E7.90827
G1 X90.275 Y51.953 E7.93023
G1 X90.778 Y52.046 E7.95243
G1 X91.565 Y52.260 E7.98783
G1 X91.900 Y52.360 E8.00300
G1 X92.372 Y52.542 E8.02496
G1 X92.809 Y52.797 E8.04692
G1 X93.200 Y53.117 E8.06884
G1 X93.536 Y53.494 E8.09076
G1 X93.796 Y53.900 E8.11169
G1 X93.797 Y53.900 E8.11173
G1 X94.292 Y53.800 E8.13365
G1 X94.797 Y53.779 E8.15558
G1 X95.299 Y53.838 E8.17752
G1 X95.786 Y53.976 E8.19949
G1 X96.251 Y54.192 E8.22174
G1 X96.961 Y54.595 E8.25717
G1 X97.260 Y54.775 E8.27232
G1 X97.672 Y55.070 E8.29431
G1 X98.031 Y55.425 E8.31622
G1 X98.331 Y55.832 E8.33817
G1 X98.562 Y56.282 E8.36012
G1 X98.712 Y56.739 E8.38099
G1 X98.713 Y56.739 E8.38104
G1 X99.218 Y56.766 E8.40299
G1 X99.712 Y56.871 E8.42490
G1 X100.184 Y57.053 E8.44686
G1 X100.621 Y57.307 E8.46880
G1 X101.019 Y57.633 E8.49112
G1 X101.593 Y58.188 E8.52578
G1 X101.846 Y58.444 E8.54140
G1 X102.172 Y58.830 E8.56332
G1 X102.433 Y59.263 E8.58527
G1 X102.622 Y59.732 E8.60721
G1 X102.736 Y60.225 E8.62917
G1 X102.769 Y60.711 E8.65031
G1 X103.247 Y60.860 E8.67204
G1 X103.700 Y61.085 E8.69400
G1 X104.112 Y61.379 E8.71596
G1 X104.472 Y61.733 E8.73787
G1 X104.777 Y62.147 E8.76019
G1 X105.206 Y62.844 E8.79571
G1 X105.382 Y63.147 E8.81092
G1 X105.601 Y63.603 E8.83287
G1 X105.745 Y64.087 E8.85479
G1 X105.811 Y64.588 E8.87672
G1 X105.797 Y65.094 E8.89869
G1 X105.709 Y65.566 E8.91953
G1 X106.138 Y65.833 E8.94146
G1 X106.521 Y66.163 E8.96340
G1 X106.846 Y66.550 E8.98533
G1 X107.107 Y66.983 E9.00728
G1 X107.300 Y67.464 E9.02977
G1 X107.536 Y68.229 E9.06451
G1 X107.632 Y68.565 E9.07968
G1 X107.732 Y69.060 E9.10160
G1 X107.753 Y69.566 E9.12358
G1 X107.694 Y70.068 E9.14551
G1 X107.556 Y70.554 E9.16744
G1 X107.350 Y71.001 E9.18880
G1 X107.698 Y71.363 E9.21059
G1 X107.987 Y71.778 E9.23254
G1 X108.206 Y72.234 E9.25450
G1 X108.351 Y72.718 E9.27642
G1 X108.419 Y73.233 E9.29897
G1 X108.458 Y74.038 E9.33395
G1 X108.467 Y74.388 E9.34914
G1 X108.440 Y74.893 E9.37109
G1 X108.334 Y75.387 E9.39302
G1 X108.151 Y75.858 E9.41495
G1 X107.897 Y76.295 E9.43688
G1 X107.587 Y76.672 E9.45807
G1 X107.589 Y76.674 E9.45819
G1 X107.837 Y77.114 E9.48011
G1 X108.012 Y77.588 E9.50204
G1 X108.111 Y78.084 E9.52399
G1 X108.130 Y78.589 E9.54592
G1 X108.068 Y79.099 E9.56822
G1 X107.904 Y79.896 E9.60354
G1 X107.825 Y80.237 E9.61873
G1 X107.673 Y80.719 E9.64066
G1 X107.446 Y81.171 E9.66261
G1 X107.151 Y81.582 E9.68457
G1 X106.795 Y81.941 E9.70651
G1 X106.408 Y82.224 E9.72732
G1 X106.408 Y82.225 E9.72736
G1 X106.539 Y82.713 E9.74929
G1 X106.591 Y83.216 E9.77124
G1 X106.564 Y83.721 E9.79319
G1 X106.457 Y84.215 E9.81512
G1 X106.272 Y84.690 E9.83725
G1 X105.917 Y85.420 E9.87248
G1 X105.751 Y85.739 E9.88808
G1 X105.483 Y86.168 E9.91004
G1 X105.150 Y86.549 E9.93200
G1 X104.762 Y86.873 E9.95394
G1 X104.328 Y87.132 E9.97587
G1 X103.884 Y87.309 E9.99662
G1 X103.884 Y87.310 E9.99666
G1 X103.890 Y87.815 E10.01858
G1 X103.815 Y88.315 E10.04052
G1 X103.663 Y88.797 E10.06246
G1 X103.437 Y89.250 E10.08443
G1 X103.136 Y89.668 E10.10678
G1 X102.612 Y90.285 E10.14191
G1 X102.380 Y90.545 E10.15704
G1 X102.014 Y90.894 E10.17899
G1 X101.598 Y91.182 E10.20094
G1 X101.143 Y91.400 E10.22284
G1 X100.658 Y91.544 E10.24480
G1 X100.175 Y91.608 E10.26594
G1 X100.055 Y92.096 E10.28775
G1 X99.859 Y92.562 E10.30969
G1 X99.592 Y92.992 E10.33166
G1 X99.261 Y93.374 E10.35360
G1 X98.868 Y93.702 E10.37581
G1 X98.203 Y94.172 E10.41116
G1 X97.912 Y94.367 E10.42636
G1 X97.471 Y94.615 E10.44832
G1 X96.997 Y94.790 E10.47025
G1 X96.501 Y94.888 E10.49219
G1 X95.996 Y94.906 E10.51412
G1 X95.514 Y94.847 E10.53519
G1 X95.514 Y94.848 E10.53524
G1 X95.275 Y95.294 E10.55720
G1 X94.969 Y95.696 E10.57913
G1 X94.603 Y96.045 E10.60107
G1 X94.187 Y96.332 E10.62301
G1 X93.723 Y96.553 E10.64531
G1 X92.970 Y96.839 E10.68027
G1 X92.640 Y96.956 E10.69547
G1 X92.152 Y97.087 E10.71740
G1 X91.649 Y97.139 E10.73934
G1 X91.144 Y97.111 E10.76129
G1 X90.650 Y97.005 E10.78322
G1 X90.193 Y96.827 E10.80451
G1 X89.852 Y97.199 E10.82641
G1 X89.455 Y97.512 E10.84835
G1 X89.014 Y97.760 E10.87031
G1 X88.540 Y97.935 E10.89224
G1 X88.029 Y98.034 E10.91483
G1 X87.232 Y98.122 E10.94963
G1 X86.883 Y98.153 E10.96483
G1 X86.378 Y98.158 E10.98675
G1 X85.878 Y98.083 E11.00869
G1 X85.396 Y97.931 E11.03063
G1 X84.944 Y97.704 E11.05258
G1 X84.548 Y97.420 E11.07373
G1 X84.126 Y97.694 E11.09557
G1 X83.664 Y97.900 E11.11752
G1 X83.176 Y98.030 E11.13944
G1 X82.673 Y98.082 E11.16138
G1 X82.160 Y98.053 E11.18368
G1 X81.344 Y97.939 E11.21944
G1 X80.999 Y97.881 E11.23463
G1 X80.509 Y97.758 E11.25655
G1 X80.044 Y97.559 E11.27850
G1 X79.616 Y97.290 E11.30044
G1 X79.236 Y96.956 E11.32240
G1 X78.932 Y96.590 E11.34305
G1 X78.928 Y96.592 E11.34324
G1 X78.449 Y96.753 E11.36517
G1 X77.950 Y96.836 E11.38713
G1 X77.444 Y96.840 E11.40909
G1 X76.945 Y96.764 E11.43100
G1 X76.460 Y96.609 E11.45309
G1 X75.717 Y96.303 E11.48797
G1 X75.388 Y96.158 E11.50357
G1 X74.943 Y95.918 E11.52551
