;FLAVOR:RepRap
;TIME:17725
M190 S50.000000
M104 S210.000000
M109 S210.000000
G21 ;metric values
G90 ;absolute positioning
M82 ;set extruder to absolute mode
M107 ;start with the fan off
G92 X0 Y0 Z0 ;Zero X Y and Z axis
G1 Z15.0 F9000 ;move the platform down 15mm
G92 E0 ;zero the extruded length
G1 F200 E3 ;extrude 3mm of feed stock
G92 E0 ;zero the extruded length again
G1 F9000
;Put printing message on LCD screen
M117 Printing...
;Generated with Cura_SteamEngine 2.1.3
;LAYER_COUNT:171
;LAYER:0
M107
G1 F4200.000000 E-6.40000
G1 Z20.200
G0 F7200.000 X60.724 Y55.051 Z0.500
;TYPE:SKIRT
G1 Z0.300
G1 F4200.000 E0.00000
G1 F1200.00000 X61.116 Y54.685 E0.02328
G1 X61.558 Y54.382 E0.04653
G1 X62.041 Y54.147 E0.06984
G1 X62.552 Y53.987 E0.09308
G1 X63.082 Y53.904 E0.11637
G1 X63.369 Y53.893 E0.12883
G1 X136.631 Y53.893 E3.30841
G1 X137.166 Y53.933 E3.33170
G1 X137.689 Y54.052 E3.35498
G1 X138.188 Y54.247 E3.37823
G1 X138.653 Y54.515 E3.40152
G1 X139.073 Y54.848 E3.42478
G1 X139.439 Y55.240 E3.44806
G1 X139.742 Y55.682 E3.47132
G1 X139.977 Y56.165 E3.49463
G1 X140.137 Y56.676 E3.51787
G1 X140.220 Y57.206 E3.54115
G1 X140.231 Y57.493 E3.55361
G1 X140.231 Y142.507 E7.24324
G1 X140.191 Y143.042 E7.26652
G1 X140.072 Y143.565 E7.28980
G1 X139.877 Y144.064 E7.31305
G1 X139.609 Y144.529 E7.33634
G1 X139.276 Y144.949 E7.35960
G1 X138.884 Y145.315 E7.38288
G1 X138.442 Y145.618 E7.40614
G1 X137.959 Y145.853 E7.42945
G1 X137.448 Y146.013 E7.45269
G1 X136.918 Y146.096 E7.47597
G1 X136.631 Y146.107 E7.48844
G1 X63.369 Y146.107 E10.66802
G1 X62.834 Y146.067 E10.69130
G1 X62.311 Y145.948 E10.71458
G1 X61.812 Y145.753 E10.73783
G1 X61.347 Y145.485 E10.76113
G1 X60.927 Y145.152 E10.78439
G1 X60.561 Y144.760 E10.80766
G1 X60.258 Y144.318 E10.83092
G1 X60.023 Y143.835 E10.85423
G1 X59.863 Y143.324 E10.87747
G1 X59.780 Y142.794 E10.90075
G1 X59.769 Y142.507 E10.91322
G1 X59.769 Y57.493 E14.60284
G1 X59.809 Y56.958 E14.62612
G1 X59.928 Y56.435 E14.64940
G1 X60.123 Y55.936 E14.67265
G1 X60.391 Y55.471 E14.69595
G1 X60.724 Y55.051 E14.71921
G0 F7200.00000 X61.118 Y55.218
G1 F1200.000 X61.505 Y54.892 E14.74117
G1 X61.938 Y54.631 E14.76311
G1 X62.406 Y54.441 E14.78503
G1 X62.899 Y54.328 E14.80698
G1 X63.369 Y54.293 E14.82744
G1 X136.631 Y54.293 E18.00702
G1 X137.135 Y54.333 E18.02896
G1 X137.626 Y54.452 E18.05089
G1 X138.093 Y54.646 E18.07284
G1 X138.523 Y54.912 E18.09478
G1 X138.906 Y55.242 E18.11672
G1 X139.232 Y55.629 E18.13868
G1 X139.493 Y56.062 E18.16063
G1 X139.683 Y56.530 E18.18255
G1 X139.796 Y57.023 E18.20450
G1 X139.831 Y57.493 E18.22495
G1 X139.831 Y142.507 E21.91457
G1 X139.791 Y143.011 E21.93652
G1 X139.672 Y143.502 E21.95844
G1 X139.478 Y143.969 E21.98039
G1 X139.212 Y144.399 E22.00233
G1 X138.882 Y144.782 E22.02428
G1 X138.495 Y145.108 E22.04624
G1 X138.062 Y145.369 E22.06818
G1 X137.594 Y145.559 E22.09010
G1 X137.101 Y145.672 E22.11205
G1 X136.631 Y145.707 E22.13251
G1 X63.369 Y145.707 E25.31209
G1 X62.865 Y145.667 E25.33403
G1 X62.374 Y145.548 E25.35596
G1 X61.907 Y145.354 E25.37790
G1 X61.477 Y145.088 E25.39985
G1 X61.094 Y144.758 E25.42179
G1 X60.768 Y144.371 E25.44375
G1 X60.507 Y143.938 E25.46569
G1 X60.317 Y143.470 E25.48761
G1 X60.204 Y142.977 E25.50957
G1 X60.169 Y142.507 E25.53002
G1 X60.169 Y57.493 E29.21964
G1 X60.209 Y56.989 E29.24158
G1 X60.328 Y56.498 E29.26351
G1 X60.522 Y56.031 E29.28546
G1 X60.788 Y55.601 E29.30740
G1 X61.118 Y55.218 E29.32934
G1 F4200.00000 E22.92934
G1 Z0.500
G0 F7200.000 X77.598 Y63.038 Z0.500
;TYPE:SUPPORT
G1 Z0.300
G1 F4200.000 E29.32934
G1 F1200.00000 X78.710 Y61.113 E29.42583
G1 X80.934 Y61.113 E29.52235
G1 X82.044 Y63.038 E29.61879
G1 X80.933 Y64.963 E29.71525
G1 X78.709 Y64.963 E29.81177
G1 X77.598 Y63.038 E29.90823
G0 F7200.00000 X78.329 Y63.984
G1 F1200.000 X81.312 Y63.984 E30.03769
G1 F4200.00000 E23.63769
G1 Z0.500
G0 F7200.000 X79.980 Y64.803 Z0.500
G1 Z0.300
G1 F4200.000 E30.03769
G1 F1200.00000 X79.980 Y61.273 E30.19090
G1 F4200.00000 E23.79090
G1 Z0.500
G0 F7200.000 X91.004 Y71.524 Z0.500
G1 Z0.300
G1 F4200.000 E30.19090
G1 F1200.00000 X93.228 Y71.524 E30.28742
G1 X94.339 Y73.449 E30.38388
G1 X93.228 Y75.374 E30.48034
G1 X91.004 Y75.374 E30.57686
G1 X89.893 Y73.449 E30.67332
G1 X91.004 Y71.524 E30.76978
G0 F7200.00000 X90.644 Y72.467
G1 F1200.000 X90.644 Y74.430 E30.85498
G0 F7200.00000 X90.769 Y74.648
G1 F1200.000 X93.462 Y74.648 E30.97186
G1 F4200.00000 E24.57186
G1 Z0.500
G0 F7200.000 X94.324 Y77.274 Z0.500
;TYPE:WALL-INNER
G1 Z0.300
G1 F4200.000 E30.97186
G1 F1200.00000 X96.533 Y73.449 E31.16356
G1 X94.324 Y69.624 E31.35526
G1 X89.908 Y69.624 E31.54691
G1 X87.699 Y73.449 E31.73861
G1 X89.908 Y77.274 E31.93031
G1 X94.324 Y77.274 E32.12197
G0 F7200.00000 X90.120 Y76.908
G0 X82.029 Y66.863
G1 F1200.000 X84.238 Y63.038 E32.31367
G1 X82.031 Y59.213 E32.50533
G1 X77.614 Y59.213 E32.69702
G1 X75.404 Y63.038 E32.88875
G1 X77.613 Y66.863 E33.08045
G1 X82.029 Y66.863 E33.27210
G0 F7200.00000 X77.825 Y66.497
G0 X64.369 Y58.493
G1 F1200.000 X135.631 Y58.493 E36.36488
G1 X135.631 Y141.507 E39.96771
G1 X64.369 Y141.507 E43.06049
G1 X64.369 Y58.493 E46.66331
G0 F7200.00000 X63.969 Y58.093
G1 F1200.000 X136.031 Y58.093 E49.79081
G1 X136.031 Y141.907 E53.42835
G1 X63.969 Y141.907 E56.55585
G1 X63.969 Y58.093 E60.19339
G0 F7200.00000 X64.069 Y58.163
G0 X75.766 Y63.038
G0 X75.866 Y63.038
G1 F1200.000 X77.844 Y66.463 E60.36505
G1 X81.798 Y66.463 E60.53665
G1 X83.776 Y63.038 E60.70831
G1 X81.800 Y59.613 E60.87992
G1 X77.845 Y59.613 E61.05156
G1 X75.866 Y63.038 E61.22324
G0 F7200.00000 X75.766 Y63.038
G0 X77.825 Y66.497
G0 X90.090 Y69.938
G0 X90.139 Y70.024
G1 F1200.000 X88.161 Y73.449 E61.39489
G1 X90.139 Y76.874 E61.56655
G1 X94.093 Y76.874 E61.73815
G1 X96.071 Y73.449 E61.90980
G1 X94.093 Y70.024 E62.08146
G1 X90.139 Y70.024 E62.25306
G0 F7200.00000 X90.370 Y70.424
;TYPE:WALL-OUTER
G1 F1200.000 X88.623 Y73.449 E62.40467
G1 X90.370 Y76.474 E62.55627
G1 X93.862 Y76.474 E62.70783
G1 X95.609 Y73.449 E62.85943
G1 X93.862 Y70.424 E63.01104
G1 X90.370 Y70.424 E63.16259
G0 F7200.00000 X90.370 Y69.924
G0 X81.567 Y66.563
G0 X81.567 Y66.063
G1 F1200.000 X83.314 Y63.038 E63.31420
G1 X81.569 Y60.013 E63.46576
G1 X78.076 Y60.013 E63.61736
G1 X76.328 Y63.038 E63.76899
G1 X78.075 Y66.063 E63.92060
G1 X81.567 Y66.063 E64.07215
G0 F7200.00000 X81.567 Y66.563
G0 X77.825 Y66.497
G0 X64.039 Y58.163
G0 X63.569 Y57.693
G1 F1200.000 X136.431 Y57.693 E67.23437
G1 X136.431 Y142.307 E70.90663
G1 X63.569 Y142.307 E74.06886
G1 X63.569 Y57.693 E77.74112
G0 F7200.00000 X64.069 Y58.163
G0 X64.527 Y58.870
;TYPE:SKIN
G1 F1200.000 X135.471 Y129.814 E82.09545
G0 X135.541 Y129.884
G0 F7200.000 X135.471 Y130.379
G1 F1200.000 X64.527 Y59.436 E86.44976
G0 X64.457 Y59.366
G0 F7200.000 X64.527 Y60.002
G1 F1200.000 X135.471 Y130.945 E90.80406
G0 X135.541 Y131.015
G0 F7200.000 X135.471 Y131.511
G1 F1200.000 X64.527 Y60.567 E95.15840
G0 X64.457 Y60.497
G0 F7200.000 X64.527 Y61.133
G1 F1200.000 X135.471 Y132.076 E99.51271
G0 X135.541 Y132.146
G0 F7200.000 X135.471 Y132.642
G1 F1200.000 X64.527 Y61.699 E103.86701
G0 X64.457 Y61.629
G0 F7200.000 X64.527 Y62.264
G1 F1200.000 X135.471 Y133.208 E108.22135
G0 X135.541 Y133.278
G0 F7200.000 X135.471 Y133.773
G1 F1200.000 X64.527 Y62.830 E112.57566
G0 X64.457 Y62.760
G0 F7200.000 X64.527 Y63.396
G1 F1200.000 X135.471 Y134.339 E116.92996
G0 X135.541 Y134.409
G0 F7200.000 X135.471 Y134.905
G1 F1200.000 X64.527 Y63.962 E121.28427
G0 X64.457 Y63.892
G0 F7200.000 X64.527 Y64.527
G1 F1200.000 X135.471 Y135.471 E125.63860
G0 X135.541 Y135.541
G0 F7200.000 X135.471 Y136.036
G1 F1200.000 X64.527 Y65.093 E129.99291
G0 X64.457 Y65.023
G0 F7200.000 X64.527 Y65.659
G1 F1200.000 X135.471 Y136.602 E134.34721
G0 X135.541 Y136.672
G0 F7200.000 X135.471 Y137.168
G1 F1200.000 X64.527 Y66.224 E138.70155
G0 X64.457 Y66.154
G0 F7200.000 X64.527 Y66.790
G1 F1200.000 X135.471 Y137.733 E143.05586
G0 X135.541 Y137.803
G0 F7200.000 X135.471 Y138.299
G1 F1200.000 X64.527 Y67.356 E147.41016
G0 X64.457 Y67.286
G0 F7200.000 X64.527 Y67.921
G1 F1200.000 X135.471 Y138.865 E151.76450
G0 X135.541 Y138.935
G0 F7200.000 X135.471 Y139.430
G1 F1200.000 X64.527 Y68.487 E156.11881
G0 X64.457 Y68.417
G0 F7200.000 X64.527 Y69.053
G1 F1200.000 X135.471 Y139.996 E160.47311
G0 X135.541 Y140.066
G0 F7200.000 X135.471 Y140.562
G1 F1200.000 X64.527 Y69.618 E164.82745
G0 X64.457 Y69.548
G0 F7200.000 X64.527 Y70.184
G1 F1200.000 X135.471 Y141.127 E169.18175
G0 X135.541 Y141.197
G0 F7200.000 X135.123 Y141.345
G1 F1200.000 X64.527 Y70.750 E173.51470
G0 X64.457 Y70.680
G0 F7200.000 X64.527 Y71.315
G1 F1200.000 X134.557 Y141.345 E177.81294
G0 X134.627 Y141.415
G0 F7200.000 X133.991 Y141.345
G1 F1200.000 X64.527 Y71.881 E182.07644
G0 X64.457 Y71.811
G0 F7200.000 X64.527 Y72.447
G1 F1200.000 X133.426 Y141.345 E186.30523
G0 X133.496 Y141.415
G0 F7200.000 X132.860 Y141.345
G1 F1200.000 X64.527 Y73.013 E190.49928
G0 X64.457 Y72.943
G0 F7200.000 X64.527 Y73.578
G1 F1200.000 X132.294 Y141.345 E194.65862
G0 X132.364 Y141.415
G0 F7200.000 X131.729 Y141.345
G1 F1200.000 X64.527 Y74.144 E198.78325
G0 X64.457 Y74.074
G0 F7200.000 X64.527 Y74.710
G1 F1200.000 X131.163 Y141.345 E202.87314
G0 X131.233 Y141.415
G0 F7200.000 X130.597 Y141.345
G1 F1200.000 X64.527 Y75.275 E206.92833
G0 X64.457 Y75.205
G0 F7200.000 X64.527 Y75.841
G1 F1200.000 X130.031 Y141.345 E210.94877
G0 X130.101 Y141.415
G0 F7200.000 X129.466 Y141.345
G1 F1200.000 X64.527 Y76.407 E214.93451
G0 X64.457 Y76.337
G0 F7200.000 X64.527 Y76.972
G1 F1200.000 X128.900 Y141.345 E218.88554
G0 X128.970 Y141.415
G0 F7200.000 X128.334 Y141.345
G1 F1200.000 X64.527 Y77.538 E222.80183
G0 X64.457 Y77.468
G0 F7200.000 X64.527 Y78.104
G1 F1200.000 X127.769 Y141.345 E226.68341
G0 X127.839 Y141.415
G0 F7200.000 X127.203 Y141.345
G1 F1200.000 X64.527 Y78.669 E230.53028
G0 X64.457 Y78.599
G0 F7200.000 X64.527 Y79.235
G1 F1200.000 X126.637 Y141.345 E234.34241
G0 X126.707 Y141.415
G0 F7200.000 X126.072 Y141.345
G1 F1200.000 X64.527 Y79.801 E238.11983
G0 X64.457 Y79.731
G0 F7200.000 X64.527 Y80.366
G1 F1200.000 X125.506 Y141.345 E241.86254
G0 X125.576 Y141.415
G0 F7200.000 X124.940 Y141.345
G1 F1200.000 X64.527 Y80.932 E245.57052
G0 X64.457 Y80.862
G0 F7200.000 X64.527 Y81.498
G1 F1200.000 X124.375 Y141.345 E249.24378
G0 X124.445 Y141.415
G0 F7200.000 X123.809 Y141.345
G1 F1200.000 X64.527 Y82.063 E252.88234
G0 X64.457 Y81.993
G0 F7200.000 X64.527 Y82.629
G1 F1200.000 X123.243 Y141.345 E256.48616
G0 X123.313 Y141.415
G0 F7200.000 X122.678 Y141.345
G1 F1200.000 X64.527 Y83.195 E260.05527
G0 X64.457 Y83.125
G0 F7200.000 X64.527 Y83.761
G1 F1200.000 X122.112 Y141.345 E263.58964
G0 X122.182 Y141.415
G0 F7200.000 X121.546 Y141.345
G1 F1200.000 X64.527 Y84.326 E267.08930
G0 X64.457 Y84.256
G0 F7200.000 X64.527 Y84.892
G1 F1200.000 X120.981 Y141.345 E270.55425
G0 X121.051 Y141.415
G0 F7200.000 X120.415 Y141.345
G1 F1200.000 X64.527 Y85.458 E273.98446
G0 X64.457 Y85.388
G0 F7200.000 X64.527 Y86.023
G1 F1200.000 X119.849 Y141.345 E277.37996
G0 X119.919 Y141.415
G0 F7200.000 X119.283 Y141.345
G1 F1200.000 X64.527 Y86.589 E280.74073
G0 X64.457 Y86.519
G0 F7200.000 X64.527 Y87.155
G1 F1200.000 X118.718 Y141.345 E284.06678
G0 X118.788 Y141.415
G0 F7200.000 X118.152 Y141.345
G1 F1200.000 X64.527 Y87.720 E287.35813
G0 X64.457 Y87.650
G0 F7200.000 X64.527 Y88.286
G1 F1200.000 X117.586 Y141.345 E290.61474
G0 X117.656 Y141.415
G0 F7200.000 X117.021 Y141.345
G1 F1200.000 X64.527 Y88.852 E293.83664
G0 X64.457 Y88.782
G0 F7200.000 X64.527 Y89.417
G1 F1200.000 X116.455 Y141.345 E297.02382
G0 X116.525 Y141.415
G0 F7200.000 X115.889 Y141.345
G1 F1200.000 X64.527 Y89.983 E300.17628
G0 X64.457 Y89.913
G0 F7200.000 X64.527 Y90.549
G1 F1200.000 X115.324 Y141.345 E303.29402
G0 X115.394 Y141.415
G0 F7200.000 X114.758 Y141.345
G1 F1200.000 X64.527 Y91.114 E306.37705
G0 X64.457 Y91.044
G0 F7200.000 X64.527 Y91.680
G1 F1200.000 X114.192 Y141.345 E309.42534
G0 X114.262 Y141.415
G0 F7200.000 X113.627 Y141.345
G1 F1200.000 X64.527 Y92.246 E312.43893
G0 X64.457 Y92.176
G0 F7200.000 X64.527 Y92.812
G1 F1200.000 X113.061 Y141.345 E315.41777
G0 X113.131 Y141.415
G0 F7200.000 X112.495 Y141.345
G1 F1200.000 X64.527 Y93.377 E318.36191
G0 X64.457 Y93.307
G0 F7200.000 X64.527 Y93.943
G1 F1200.000 X111.930 Y141.345 E321.27134
G0 X112.000 Y141.415
G0 F7200.000 X111.364 Y141.345
G1 F1200.000 X64.527 Y94.509 E324.14602
G0 X64.457 Y94.439
G0 F7200.000 X64.527 Y95.074
G1 F1200.000 X110.798 Y141.345 E326.98600
G0 X110.868 Y141.415
G0 F7200.000 X110.232 Y141.345
G1 F1200.000 X64.527 Y95.640 E329.79124
G0 X64.457 Y95.570
G0 F7200.000 X64.527 Y96.206
G1 F1200.000 X109.667 Y141.345 E332.56178
G0 X109.737 Y141.415
G0 F7200.000 X109.101 Y141.345
G1 F1200.000 X64.527 Y96.771 E335.29760
G0 X64.457 Y96.701
G0 F7200.000 X64.527 Y97.337
G1 F1200.000 X108.535 Y141.345 E337.99868
G0 X108.605 Y141.415
G0 F7200.000 X107.970 Y141.345
G1 F1200.000 X64.527 Y97.903 E340.66506
G0 X64.457 Y97.833
G0 F7200.000 X64.527 Y98.468
G1 F1200.000 X107.404 Y141.345 E343.29672
G0 X107.474 Y141.415
G0 F7200.000 X106.838 Y141.345
G1 F1200.000 X64.527 Y99.034 E345.89365
G0 X64.457 Y98.964
G0 F7200.000 X64.527 Y99.600
G1 F1200.000 X106.273 Y141.345 E348.45587
G0 X106.343 Y141.415
G0 F7200.000 X105.707 Y141.345
G1 F1200.000 X64.528 Y100.166 E350.98331
G0 X64.458 Y100.096
G0 F7200.000 X64.528 Y100.732
G1 F1200.000 X105.141 Y141.345 E353.47602
G0 X105.211 Y141.415
G0 F7200.000 X104.576 Y141.345
G1 F1200.000 X64.528 Y101.297 E355.93405
G0 X64.458 Y101.227
G0 F7200.000 X64.528 Y101.863
G1 F1200.000 X104.010 Y141.345 E358.35734
G0 X104.080 Y141.415
G0 F7200.000 X103.444 Y141.345
G1 F1200.000 X64.528 Y102.429 E360.74589
G0 X64.458 Y102.359
G0 F7200.000 X64.528 Y102.995
G1 F1200.000 X102.879 Y141.345 E363.09973
G0 X102.949 Y141.415
G0 F7200.000 X102.313 Y141.345
G1 F1200.000 X64.528 Y103.560 E365.41887
G0 X64.458 Y103.490
G0 F7200.000 X64.528 Y104.126
G1 F1200.000 X101.747 Y141.345 E367.70326
G0 X101.817 Y141.415
G0 F7200.000 X101.182 Y141.345
G1 F1200.000 X64.528 Y104.692 E369.95295
G0 X64.458 Y104.622
G0 F7200.000 X64.528 Y105.257
G1 F1200.000 X100.616 Y141.345 E372.16792
G0 X100.686 Y141.415
G0 F7200.000 X100.050 Y141.345
G1 F1200.000 X64.528 Y105.823 E374.34816
G0 X64.458 Y105.753
G0 F7200.000 X64.528 Y106.389
G1 F1200.000 X99.484 Y141.345 E376.49366
G0 X99.554 Y141.415
G0 F7200.000 X98.919 Y141.345
G1 F1200.000 X64.528 Y106.954 E378.60448
G0 X64.458 Y106.884
G0 F7200.000 X64.528 Y107.520
G1 F1200.000 X98.353 Y141.345 E380.68056
G0 X98.423 Y141.415
G0 F7200.000 X97.787 Y141.345
G1 F1200.000 X64.528 Y108.086 E382.72190
G0 X64.458 Y108.016
G0 F7200.000 X64.528 Y108.651
G1 F1200.000 X97.222 Y141.345 E384.72856
G0 X97.292 Y141.415
G0 F7200.000 X96.656 Y141.345
G1 F1200.000 X64.528 Y109.217 E386.70048
G0 X64.458 Y109.147
G0 F7200.000 X64.528 Y109.783
G1 F1200.000 X96.090 Y141.345 E388.63767
G0 X96.160 Y141.415
G0 F7200.000 X95.525 Y141.345
G1 F1200.000 X64.528 Y110.348 E390.54017
G0 X64.458 Y110.278
G0 F7200.000 X64.528 Y110.914
G1 F1200.000 X94.959 Y141.345 E392.40794
G0 X95.029 Y141.415
G0 F7200.000 X94.393 Y141.345
G1 F1200.000 X64.528 Y111.480 E394.24097
G0 X64.458 Y111.410
G0 F7200.000 X64.528 Y112.046
G1 F1200.000 X93.828 Y141.345 E396.03929
G0 X93.898 Y141.415
G0 F7200.000 X93.262 Y141.345
G1 F1200.000 X64.528 Y112.611 E397.80289
G0 X64.458 Y112.541
G0 F7200.000 X64.528 Y113.177
G1 F1200.000 X92.696 Y141.345 E399.53176
G0 X92.766 Y141.415
G0 F7200.000 X92.131 Y141.345
G1 F1200.000 X64.528 Y113.743 E401.22593
G0 X64.458 Y113.673
G0 F7200.000 X64.528 Y114.308
