;FLAVOR:RepRap
;TIME:2406
M190 S50.000000
M104 S210.000000
M109 S210.000000
G21 ;metric values
G90 ;absolute positioning
M82 ;set extruder to absolute mode
M107 ;start with the fan off
G92 X0 Y0 Z0 ;Zero X Y and Z axis
G1 Z15.0 F9000 ;move the platform down 15mm
G92 E0 ;zero the extruded length
G1 F200 E3 ;extrude 3mm of feed stock
G92 E0 ;zero the extruded length again
G1 F9000
;Put printing message on LCD screen
M117 Printing...
;Generated with Cura_SteamEngine 2.1.3
;LAYER_COUNT:37
;LAYER:0
M107
G0 F7200.000000 X83.083 Y83.240 Z0.300
G0 X85.304 Y82.177
;TYPE:SKIRT
G1 F1200.000 X85.346 Y82.016 E0.00722
G1 X85.560 Y81.524 E0.03051
G1 X85.844 Y81.069 E0.05378
G1 X86.192 Y80.662 E0.07703
G1 X86.796 Y80.173 E0.11075
G1 X87.485 Y79.730 E0.14630
G1 X87.783 Y79.548 E0.16146
G1 X88.260 Y79.303 E0.18473
G1 X88.768 Y79.132 E0.20799
G1 X89.296 Y79.038 E0.23127
G1 X89.832 Y79.024 E0.25454
G1 X90.200 Y79.070 E0.27064
G1 X90.282 Y78.923 E0.27794
G1 X90.612 Y78.500 E0.30122
G1 X91.000 Y78.130 E0.32449
G1 X91.439 Y77.822 E0.34777
G1 X92.141 Y77.500 E0.38129
G1 X92.924 Y77.240 E0.41709
G1 X93.259 Y77.138 E0.43229
G1 X93.783 Y77.021 E0.45559
G1 X94.318 Y76.982 E0.47887
G1 X94.852 Y77.023 E0.50212
G1 X95.375 Y77.144 E0.52542
G1 X95.716 Y77.278 E0.54132
G1 X95.830 Y77.158 E0.54850
G1 X96.254 Y76.830 E0.57176
G1 X96.722 Y76.568 E0.59504
G1 X97.223 Y76.378 E0.61830
G1 X97.984 Y76.241 E0.65186
G1 X98.803 Y76.184 E0.68749
G1 X99.152 Y76.168 E0.70265
G1 X99.688 Y76.183 E0.72592
G1 X100.216 Y76.278 E0.74920
G1 X100.724 Y76.450 E0.77248
G1 X101.201 Y76.696 E0.79577
G1 X101.501 Y76.913 E0.81184
G1 X101.645 Y76.824 E0.81919
G1 X102.138 Y76.612 E0.84248
G1 X102.656 Y76.475 E0.86573
G1 X103.189 Y76.417 E0.88900
G1 X103.958 Y76.473 E0.92247
G1 X104.762 Y76.621 E0.95795
G1 X105.104 Y76.692 E0.97311
G1 X105.619 Y76.840 E0.99636
G1 X106.107 Y77.063 E1.01965
G1 X106.556 Y77.355 E1.04289
G1 X106.957 Y77.712 E1.06619
G1 X107.197 Y77.999 E1.08243
G1 X107.352 Y77.950 E1.08949
G1 X107.882 Y77.866 E1.11277
G1 X108.418 Y77.862 E1.13604
G1 X108.949 Y77.937 E1.15931
G1 X109.684 Y78.184 E1.19296
G1 X110.423 Y78.525 E1.22829
G1 X110.746 Y78.684 E1.24391
G1 X111.208 Y78.956 E1.26718
G1 X111.625 Y79.294 E1.29048
G1 X111.987 Y79.690 E1.31376
G1 X112.286 Y80.135 E1.33703
G1 X112.444 Y80.469 E1.35306
G1 X112.607 Y80.460 E1.36015
G1 X113.141 Y80.510 E1.38343
G1 X113.662 Y80.640 E1.40673
G1 X114.157 Y80.845 E1.42998
G1 X114.807 Y81.266 E1.46359
G1 X115.445 Y81.786 E1.49932
G1 X115.710 Y82.013 E1.51446
G1 X116.090 Y82.391 E1.53772
G1 X116.410 Y82.822 E1.56102
G1 X116.662 Y83.295 E1.58428
G1 X116.841 Y83.800 E1.60753
G1 X116.912 Y84.165 E1.62367
G1 X117.074 Y84.197 E1.63084
G1 X117.579 Y84.379 E1.65413
G1 X118.050 Y84.634 E1.67738
G1 X118.479 Y84.956 E1.70066
G1 X119.003 Y85.525 E1.73423
G1 X119.491 Y86.187 E1.76992
G1 X119.692 Y86.474 E1.78513
G1 X119.966 Y86.935 E1.80840
G1 X120.168 Y87.431 E1.83165
G1 X120.295 Y87.953 E1.85496
G1 X120.343 Y88.487 E1.87823
G1 X120.320 Y88.857 E1.89432
G1 X120.472 Y88.930 E1.90164
G1 X120.915 Y89.232 E1.92491
G1 X121.308 Y89.597 E1.94819
G1 X121.643 Y90.016 E1.97147
G1 X122.008 Y90.696 E2.00496
G1 X122.311 Y91.448 E2.04015
G1 X122.435 Y91.775 E2.05533
G1 X122.587 Y92.289 E2.07859
G1 X122.662 Y92.820 E2.10186
G1 X122.656 Y93.356 E2.12513
G1 X122.571 Y93.886 E2.14842
G1 X122.455 Y94.249 E2.16496
G1 X122.579 Y94.353 E2.17199
G1 X122.934 Y94.755 E2.19526
G1 X123.225 Y95.205 E2.21852
G1 X123.446 Y95.694 E2.24181
G1 X123.631 Y96.444 E2.27534
G1 X123.741 Y97.260 E2.31107
G1 X123.779 Y97.608 E2.32626
G1 X123.797 Y98.144 E2.34954
G1 X123.736 Y98.677 E2.37282
G1 X123.596 Y99.195 E2.39611
G1 X123.380 Y99.686 E2.41939
G1 X123.182 Y100.000 E2.43550
G1 X123.277 Y100.132 E2.44256
G1 X123.520 Y100.610 E2.46583
G1 X123.690 Y101.118 E2.48908
G1 X123.783 Y101.647 E2.51239
G1 X123.776 Y102.420 E2.54594
G1 X123.677 Y103.251 E2.58226
G1 X123.626 Y103.597 E2.59744
G1 X123.508 Y104.120 E2.62071
G1 X123.314 Y104.620 E2.64399
G1 X123.048 Y105.086 E2.66727
G1 X122.716 Y105.507 E2.69054
G1 X122.455 Y105.752 E2.70608
G1 X122.513 Y105.902 E2.71306
G1 X122.631 Y106.425 E2.73633
G1 X122.669 Y106.960 E2.75961
G1 X122.627 Y107.495 E2.78290
G1 X122.428 Y108.244 E2.81653
G1 X122.131 Y109.011 E2.85223
G1 X121.992 Y109.343 E2.86785
G1 X121.748 Y109.821 E2.89114
G1 X121.437 Y110.258 E2.91442
G1 X121.064 Y110.643 E2.93768
G1 X120.637 Y110.968 E2.96097
G1 X120.321 Y111.143 E2.97665
G1 X120.340 Y111.307 E2.98381
G1 X120.323 Y111.843 E3.00709
G1 X120.226 Y112.370 E3.03034
G1 X120.052 Y112.878 E3.05365
G1 X119.673 Y113.553 E3.08725
G1 X119.194 Y114.222 E3.12296
G1 X118.983 Y114.502 E3.13817
G1 X118.629 Y114.905 E3.16145
G1 X118.220 Y115.251 E3.18470
G1 X117.763 Y115.532 E3.20799
G1 X117.270 Y115.742 E3.23124
G1 X116.912 Y115.835 E3.24729
G1 X116.890 Y115.997 E3.25439
G1 X116.741 Y116.512 E3.27766
G1 X116.516 Y116.999 E3.30094
G1 X116.222 Y117.448 E3.32423
G1 X115.682 Y118.011 E3.35809
G1 X115.062 Y118.530 E3.39318
G1 X114.789 Y118.749 E3.40837
G1 X114.347 Y119.053 E3.43165
G1 X113.864 Y119.287 E3.45495
G1 X113.352 Y119.447 E3.47823
G1 X112.822 Y119.530 E3.50151
G1 X112.443 Y119.531 E3.51796
G1 X112.381 Y119.685 E3.52516
G1 X112.108 Y120.147 E3.54845
G1 X111.769 Y120.562 E3.57171
G1 X111.372 Y120.923 E3.59500
G1 X110.718 Y121.330 E3.62843
G1 X109.985 Y121.681 E3.66370
G1 X109.656 Y121.829 E3.67936
G1 X109.152 Y122.012 E3.70263
G1 X108.626 Y122.118 E3.72591
G1 X108.090 Y122.145 E3.74921
G1 X107.557 Y122.092 E3.77245
G1 X107.197 Y122.001 E3.78857
G1 X107.098 Y122.134 E3.79576
G1 X106.719 Y122.513 E3.81903
G1 X106.287 Y122.831 E3.84231
G1 X105.813 Y123.082 E3.86559
G1 X105.072 Y123.314 E3.89928
G1 X104.275 Y123.471 E3.93454
G1 X103.931 Y123.531 E3.94969
G1 X103.397 Y123.584 E3.97298
G1 X102.861 Y123.557 E3.99628
G1 X102.336 Y123.450 E4.01953
G1 X101.832 Y123.267 E4.04280
G1 X101.501 Y123.087 E4.05915
G1 X101.370 Y123.193 E4.06647
G1 X100.908 Y123.465 E4.08973
G1 X100.411 Y123.666 E4.11300
G1 X99.889 Y123.790 E4.13629
G1 X99.124 Y123.831 E4.16953
G1 X98.291 Y123.785 E4.20574
G1 X97.942 Y123.756 E4.22094
G1 X97.412 Y123.672 E4.24423
G1 X96.901 Y123.510 E4.26750
G1 X96.419 Y123.274 E4.29079
G1 X95.978 Y122.969 E4.31406
G1 X95.715 Y122.723 E4.32969
G1 X95.564 Y122.792 E4.33689
G1 X95.049 Y122.941 E4.36016
G1 X94.518 Y123.012 E4.38341
G1 X93.981 Y123.003 E4.40672
G1 X93.229 Y122.852 E4.44001
G1 X92.436 Y122.602 E4.47609
G1 X92.106 Y122.488 E4.49125
G1 X91.613 Y122.275 E4.51455
G1 X91.158 Y121.992 E4.53781
G1 X90.749 Y121.644 E4.56112
G1 X90.397 Y121.240 E4.58437
G1 X90.200 Y120.930 E4.60031
G1 X90.036 Y120.960 E4.60755
G1 X89.500 Y120.976 E4.63082
G1 X88.968 Y120.913 E4.65407
G1 X88.451 Y120.771 E4.67734
G1 X87.760 Y120.438 E4.71063
G1 X87.054 Y119.998 E4.74673
G1 X86.762 Y119.805 E4.76193
G1 X86.338 Y119.477 E4.78519
G1 X85.967 Y119.089 E4.80849
G1 X85.658 Y118.651 E4.83175
G1 X85.418 Y118.172 E4.85500
G1 X85.304 Y117.823 E4.87094
G1 X85.137 Y117.811 E4.87821
G1 X84.614 Y117.694 E4.90146
G1 X84.114 Y117.500 E4.92474
G1 X83.648 Y117.234 E4.94803
G1 X83.061 Y116.738 E4.98138
G1 X82.487 Y116.135 E5.01751
G1 X82.253 Y115.876 E5.03266
G1 X81.924 Y115.453 E5.05592
G1 X81.662 Y114.985 E5.07920
G1 X81.472 Y114.484 E5.10245
G1 X81.358 Y113.959 E5.12577
G1 X81.335 Y113.597 E5.14151
G1 X81.180 Y113.545 E5.14861
G1 X80.702 Y113.302 E5.17188
G1 X80.266 Y112.990 E5.19515
G1 X79.881 Y112.617 E5.21841
G1 X79.433 Y111.989 E5.25189
G1 X79.025 Y111.260 E5.28815
G1 X78.863 Y110.951 E5.30329
G1 X78.650 Y110.458 E5.32660
G1 X78.512 Y109.940 E5.34986
G1 X78.453 Y109.407 E5.37314
G1 X78.474 Y108.871 E5.39642
G1 X78.541 Y108.516 E5.41209
G1 X78.405 Y108.428 E5.41913
G1 X78.002 Y108.073 E5.44243
G1 X77.657 Y107.663 E5.46569
G1 X77.377 Y107.206 E5.48895
G1 X77.097 Y106.479 E5.52276
G1 X76.888 Y105.685 E5.55839
G1 X76.807 Y105.345 E5.57356
G1 X76.722 Y104.816 E5.59682
G1 X76.716 Y104.280 E5.62008
G1 X76.791 Y103.748 E5.64340
G1 X76.943 Y103.234 E5.66666
G1 X77.100 Y102.899 E5.68272
G1 X76.987 Y102.777 E5.68993
G1 X76.686 Y102.333 E5.71321
G1 X76.454 Y101.850 E5.73647
G1 X76.297 Y101.337 E5.75975
G1 X76.207 Y100.574 E5.79310
G1 X76.201 Y99.739 E5.82934
G1 X76.208 Y99.389 E5.84453
G1 X76.258 Y98.855 E5.86781
G1 X76.388 Y98.335 E5.89107
G1 X76.593 Y97.839 E5.91436
G1 X76.870 Y97.380 E5.93763
G1 X77.100 Y97.101 E5.95332
G1 X77.022 Y96.956 E5.96047
G1 X76.840 Y96.452 E5.98372
G1 X76.736 Y95.926 E6.00699
G1 X76.710 Y95.390 E6.03028
G1 X76.813 Y94.631 E6.06353
G1 X77.015 Y93.813 E6.10009
G1 X77.109 Y93.476 E6.11528
G1 X77.292 Y92.971 E6.13859
G1 X77.547 Y92.500 E6.16184
G1 X77.869 Y92.071 E6.18512
G1 X78.251 Y91.695 E6.20838
G1 X78.542 Y91.484 E6.22398
G1 X78.502 Y91.323 E6.23118
G1 X78.452 Y90.789 E6.25446
G1 X78.482 Y90.253 E6.27775
G1 X78.591 Y89.728 E6.30103
G1 X78.882 Y89.013 E6.33453
G1 X79.273 Y88.291 E6.37016
G1 X79.447 Y87.987 E6.38536
G1 X79.747 Y87.542 E6.40866
G1 X80.110 Y87.148 E6.43191
G1 X80.528 Y86.811 E6.45521
G1 X80.990 Y86.540 E6.47846
G1 X81.335 Y86.403 E6.49457
G1 X81.336 Y86.240 E6.50164
G1 X81.420 Y85.710 E6.52493
G1 X81.582 Y85.199 E6.54820
G1 X81.818 Y84.717 E6.57149
G1 X82.278 Y84.096 E6.60503
G1 X82.832 Y83.498 E6.64041
G1 X83.083 Y83.240 E6.65603
G1 X83.484 Y82.884 E6.67930
G1 X83.934 Y82.592 E6.70258
G1 X84.422 Y82.371 E6.72583
G1 X84.938 Y82.224 E6.74912
G1 X85.304 Y82.177 E6.76513
G0 F7200.00000 X85.613 Y82.552
G1 F1200.000 X85.754 Y82.066 E6.78709
G1 X85.970 Y81.609 E6.80903
G1 X86.255 Y81.191 E6.83099
G1 X86.602 Y80.824 E6.85291
G1 X87.013 Y80.509 E6.87538
G1 X87.693 Y80.071 E6.91049
G1 X87.991 Y79.889 E6.92564
G1 X88.442 Y79.660 E6.94759
G1 X88.923 Y79.506 E6.96951
G1 X89.423 Y79.429 E6.99147
G1 X89.929 Y79.431 E7.01343
G1 X90.406 Y79.511 E7.03442
G1 X90.407 Y79.508 E7.03456
G1 X90.665 Y79.073 E7.05651
G1 X90.987 Y78.684 E7.07842
G1 X91.367 Y78.350 E7.10038
G1 X91.795 Y78.081 E7.12232
G1 X92.268 Y77.880 E7.14463
G1 X93.041 Y77.623 E7.17998
G1 X93.376 Y77.521 E7.19518
G1 X93.870 Y77.412 E7.21713
G1 X94.374 Y77.383 E7.23904
G1 X94.877 Y77.433 E7.26098
G1 X95.366 Y77.562 E7.28293
G1 X95.805 Y77.755 E7.30374
G1 X96.163 Y77.398 E7.32568
G1 X96.572 Y77.101 E7.34762
G1 X97.023 Y76.872 E7.36957
G1 X97.504 Y76.718 E7.39149
G1 X98.012 Y76.640 E7.41380
G1 X98.821 Y76.583 E7.44900
G1 X99.170 Y76.567 E7.46416
G1 X99.676 Y76.584 E7.48613
G1 X100.172 Y76.680 E7.50806
G1 X100.647 Y76.854 E7.53001
G1 X101.089 Y77.099 E7.55195
G1 X101.470 Y77.399 E7.57299
G1 X101.472 Y77.397 E7.57311
G1 X101.908 Y77.140 E7.59508
G1 X102.378 Y76.954 E7.61702
G1 X102.872 Y76.845 E7.63897
G1 X103.377 Y76.816 E7.66093
G1 X103.886 Y76.867 E7.68313
G1 X104.680 Y77.013 E7.71816
G1 X105.022 Y77.084 E7.73332
G1 X105.508 Y77.225 E7.75529
G1 X105.965 Y77.442 E7.77724
G1 X106.382 Y77.727 E7.79916
G1 X106.749 Y78.075 E7.82111
G1 X107.046 Y78.461 E7.84225
G1 X107.529 Y78.321 E7.86408
G1 X108.031 Y78.257 E7.88604
G1 X108.536 Y78.274 E7.90797
G1 X109.032 Y78.370 E7.92989
G1 X109.517 Y78.547 E7.95230
G1 X110.246 Y78.884 E7.98716
G1 X110.569 Y79.043 E8.00278
G1 X111.004 Y79.301 E8.02473
G1 X111.392 Y79.625 E8.04667
G1 X111.725 Y80.006 E8.06863
G1 X111.993 Y80.434 E8.09055
G1 X112.182 Y80.879 E8.11153
G1 X112.686 Y80.863 E8.13341
G1 X113.188 Y80.926 E8.15537
G1 X113.673 Y81.068 E8.17731
G1 X114.130 Y81.284 E8.19924
G1 X114.555 Y81.576 E8.22162
G1 X115.185 Y82.090 E8.25691
G1 X115.450 Y82.317 E8.27205
G1 X115.807 Y82.675 E8.29400
G1 X116.102 Y83.085 E8.31592
G1 X116.330 Y83.536 E8.33785
G1 X116.484 Y84.018 E8.35981
G1 X116.557 Y84.497 E8.38084
G1 X117.050 Y84.607 E8.40276
G1 X117.520 Y84.793 E8.42470
G1 X117.955 Y85.052 E8.44667
G1 X118.343 Y85.375 E8.46858
G1 X118.681 Y85.763 E8.49091
G1 X119.163 Y86.416 E8.52614
G1 X119.364 Y86.703 E8.54135
G1 X119.621 Y87.139 E8.56331
G1 X119.805 Y87.610 E8.58526
G1 X119.913 Y88.104 E8.60720
G1 X119.942 Y88.608 E8.62911
G1 X119.893 Y89.090 E8.65014
G1 X119.896 Y89.091 E8.65028
G1 X120.347 Y89.321 E8.67225
G1 X120.755 Y89.619 E8.69418
G1 X121.112 Y89.977 E8.71612
G1 X121.407 Y90.388 E8.73807
G1 X121.637 Y90.846 E8.76032
G1 X121.937 Y91.589 E8.79509
G1 X122.061 Y91.916 E8.81027
G1 X122.202 Y92.402 E8.83223
G1 X122.266 Y92.903 E8.85415
G1 X122.249 Y93.409 E8.87613
G1 X122.153 Y93.905 E8.89805
G1 X121.984 Y94.368 E8.91944
G1 X122.361 Y94.700 E8.94125
G1 X122.683 Y95.090 E8.96319
G1 X122.940 Y95.525 E8.98512
G1 X123.125 Y95.996 E9.00708
G1 X123.235 Y96.498 E9.02939
G1 X123.343 Y97.304 E9.06468
G1 X123.381 Y97.652 E9.07987
G1 X123.396 Y98.157 E9.10180
G1 X123.331 Y98.658 E9.12373
G1 X123.188 Y99.143 E9.14567
G1 X122.971 Y99.600 E9.16763
G1 X122.696 Y99.999 E9.18866
G1 X122.979 Y100.414 E9.21046
G1 X123.194 Y100.872 E9.23242
G1 X123.335 Y101.358 E9.25438
G1 X123.397 Y101.859 E9.27629
G1 X123.378 Y102.374 E9.29866
G1 X123.281 Y103.193 E9.33445
G1 X123.230 Y103.539 E9.34963
G1 X123.117 Y104.031 E9.37154
G1 X122.928 Y104.500 E9.39348
G1 X122.667 Y104.933 E9.41542
G1 X122.341 Y105.320 E9.43739
G1 X121.984 Y105.629 E9.45788
G1 X122.155 Y106.102 E9.47971
G1 X122.250 Y106.598 E9.50162
G1 X122.265 Y107.103 E9.52355
G1 X122.201 Y107.605 E9.54551
G1 X122.055 Y108.100 E9.56791
G1 X121.762 Y108.857 E9.60314
G1 X121.623 Y109.189 E9.61876
G1 X121.391 Y109.638 E9.64070
G1 X121.092 Y110.046 E9.66265
G1 X120.732 Y110.401 E9.68459
G1 X120.321 Y110.695 E9.70652
G1 X119.895 Y110.908 E9.72719
G1 X119.943 Y111.411 E9.74912
G1 X119.911 Y111.915 E9.77104
G1 X119.799 Y112.409 E9.79302
G1 X119.612 Y112.878 E9.81494
G1 X119.348 Y113.320 E9.83728
G1 X118.875 Y113.981 E9.87256
G1 X118.664 Y114.261 E9.88777
G1 X118.328 Y114.639 E9.90972
G1 X117.938 Y114.960 E9.93164
G1 X117.501 Y115.216 E9.95363
G1 X117.030 Y115.399 E9.97556
G1 X116.558 Y115.501 E9.99651
G1 X116.480 Y115.999 E10.01839
G1 X116.323 Y116.480 E10.04035
G1 X116.093 Y116.930 E10.06228
G1 X115.795 Y117.339 E10.08425
G1 X115.425 Y117.704 E10.10680
G1 X114.811 Y118.218 E10.14155
G1 X114.538 Y118.437 E10.15674
G1 X114.120 Y118.721 E10.17868
G1 X113.663 Y118.936 E10.20060
G1 X113.177 Y119.076 E10.22255
G1 X112.675 Y119.138 E10.24450
G1 X112.184 Y119.121 E10.26582
G1 X111.983 Y119.585 E10.28777
G1 X111.712 Y120.011 E10.30968
G1 X111.377 Y120.390 E10.33163
G1 X110.986 Y120.711 E10.35359
G1 X110.544 Y120.969 E10.37580
G1 X109.821 Y121.316 E10.41060
G1 X109.492 Y121.464 E10.42626
G1 X109.016 Y121.635 E10.44821
G1 X108.519 Y121.728 E10.47016
G1 X108.014 Y121.742 E10.49208
G1 X107.512 Y121.676 E10.51406
G1 X107.048 Y121.538 E10.53507
G1 X106.738 Y121.938 E10.55703
G1 X106.369 Y122.283 E10.57895
G1 X105.950 Y122.567 E10.60092
G1 X105.492 Y122.781 E10.62286
G1 X104.995 Y122.922 E10.64528
G1 X104.206 Y123.077 E10.68018
G1 X103.862 Y123.137 E10.69533
G1 X103.358 Y123.185 E10.71731
G1 X102.854 Y123.152 E10.73923
G1 X102.361 Y123.040 E10.76117
G1 X101.892 Y122.852 E10.78310
G1 X101.472 Y122.602 E10.80431
G1 X101.470 Y122.604 E10.80443
G1 X101.070 Y122.913 E10.82637
G1 X100.626 Y123.156 E10.84834
G1 X100.150 Y123.326 E10.87027
G1 X99.653 Y123.418 E10.89221
G1 X99.146 Y123.431 E10.91422
G1 X98.324 Y123.386 E10.94995
G1 X97.975 Y123.357 E10.96515
G1 X97.476 Y123.275 E10.98710
G1 X96.996 Y123.116 E11.00904
G1 X96.547 Y122.884 E11.03098
G1 X96.141 Y122.583 E11.05291
G1 X95.809 Y122.244 E11.07350
G1 X95.807 Y122.245 E11.07360
G1 X95.343 Y122.446 E11.09555
G1 X94.853 Y122.571 E11.11749
G1 X94.350 Y122.618 E11.13942
G1 X93.845 Y122.584 E11.16139
G1 X93.349 Y122.471 E11.18346
G1 X92.566 Y122.224 E11.21910
G1 X92.236 Y122.110 E11.23425
G1 X91.773 Y121.907 E11.25619
G1 X91.347 Y121.635 E11.27813
G1 X90.970 Y121.298 E11.30007
G1 X90.650 Y120.907 E11.32200
