;FLAVOR:RepRap
;TIME:15859
M190 S50.000000
M104 S210.000000
M109 S210.000000
G21 ;metric values
G90 ;absolute positioning
M82 ;set extruder to absolute mode
M107 ;start with the fan off
G92 X0 Y0 Z0 ;Zero X Y and Z axis
G1 Z15.0 F9000 ;move the platform down 15mm
G92 E0 ;zero the extruded length
G1 F200 E3 ;extrude 3mm of feed stock
G92 E0 ;zero the extruded length again
G1 F9000
;Put printing message on LCD screen
M117 Printing...
;Generated with Cura_SteamEngine 2.1.3
;LAYER_COUNT:204
;LAYER:0
M107
G1 F4200.000000 E-6.40000
G1 Z20.200
G0 F7200.000 X60.724 Y60.551 Z0.500
;TYPE:SKIRT
G1 Z0.300
G1 F4200.000 E0.00000
G1 F1200.00000 X61.116 Y60.185 E0.02328
G1 X61.558 Y59.882 E0.04653
G1 X62.041 Y59.647 E0.06984
G1 X62.552 Y59.487 E0.09308
G1 X63.082 Y59.404 E0.11637
G1 X63.369 Y59.393 E0.12883
G1 X136.631 Y59.393 E3.30841
G1 X137.166 Y59.433 E3.33170
G1 X137.689 Y59.552 E3.35498
G1 X138.188 Y59.747 E3.37823
G1 X138.653 Y60.015 E3.40152
G1 X139.073 Y60.348 E3.42478
G1 X139.439 Y60.740 E3.44806
G1 X139.742 Y61.182 E3.47132
G1 X139.977 Y61.665 E3.49463
G1 X140.137 Y62.176 E3.51787
G1 X140.220 Y62.706 E3.54115
G1 X140.231 Y62.993 E3.55361
G1 X140.231 Y137.007 E6.76583
G1 X140.191 Y137.542 E6.78912
G1 X140.072 Y138.065 E6.81240
G1 X139.877 Y138.564 E6.83565
G1 X139.609 Y139.029 E6.85894
G1 X139.276 Y139.449 E6.88220
G1 X138.884 Y139.815 E6.90548
G1 X138.442 Y140.118 E6.92874
G1 X137.959 Y140.353 E6.95205
G1 X137.448 Y140.513 E6.97529
G1 X136.918 Y140.596 E6.99857
G1 X136.631 Y140.607 E7.01103
G1 X63.369 Y140.607 E10.19062
G1 X62.834 Y140.567 E10.21390
G1 X62.311 Y140.448 E10.23718
G1 X61.812 Y140.253 E10.26043
G1 X61.347 Y139.985 E10.28372
G1 X60.927 Y139.652 E10.30699
G1 X60.561 Y139.260 E10.33026
G1 X60.258 Y138.818 E10.35352
G1 X60.023 Y138.335 E10.37683
G1 X59.863 Y137.824 E10.40007
G1 X59.780 Y137.294 E10.42335
G1 X59.769 Y137.007 E10.43582
G1 X59.769 Y62.993 E13.64804
G1 X59.809 Y62.458 E13.67132
G1 X59.928 Y61.935 E13.69460
G1 X60.123 Y61.436 E13.71785
G1 X60.391 Y60.971 E13.74114
G1 X60.724 Y60.551 E13.76441
G0 F7200.00000 X61.118 Y60.718
G1 F1200.000 X61.505 Y60.392 E13.78637
G1 X61.938 Y60.131 E13.80831
G1 X62.406 Y59.941 E13.83023
G1 X62.899 Y59.828 E13.85218
G1 X63.369 Y59.793 E13.87264
G1 X136.631 Y59.793 E17.05222
G1 X137.135 Y59.833 E17.07416
G1 X137.626 Y59.952 E17.09609
G1 X138.093 Y60.146 E17.11803
G1 X138.523 Y60.412 E17.13998
G1 X138.906 Y60.742 E17.16192
G1 X139.232 Y61.129 E17.18388
G1 X139.493 Y61.562 E17.20582
G1 X139.683 Y62.030 E17.22774
G1 X139.796 Y62.523 E17.24970
G1 X139.831 Y62.993 E17.27015
G1 X139.831 Y137.007 E20.48237
G1 X139.791 Y137.511 E20.50431
G1 X139.672 Y138.002 E20.52624
G1 X139.478 Y138.469 E20.54819
G1 X139.212 Y138.899 E20.57013
G1 X138.882 Y139.282 E20.59207
G1 X138.495 Y139.608 E20.61403
G1 X138.062 Y139.869 E20.63597
G1 X137.594 Y140.059 E20.65789
G1 X137.101 Y140.172 E20.67985
G1 X136.631 Y140.207 E20.70030
G1 X63.369 Y140.207 E23.87988
G1 X62.865 Y140.167 E23.90183
G1 X62.374 Y140.048 E23.92375
G1 X61.907 Y139.854 E23.94570
G1 X61.477 Y139.588 E23.96764
G1 X61.094 Y139.258 E23.98958
G1 X60.768 Y138.871 E24.01155
G1 X60.507 Y138.438 E24.03349
G1 X60.317 Y137.970 E24.05541
G1 X60.204 Y137.477 E24.07736
G1 X60.169 Y137.007 E24.09781
G1 X60.169 Y62.993 E27.31003
G1 X60.209 Y62.489 E27.33198
G1 X60.328 Y61.998 E27.35390
G1 X60.522 Y61.531 E27.37585
G1 X60.788 Y61.101 E27.39779
G1 X61.118 Y60.718 E27.41974
G1 F4200.00000 E21.01974
G1 Z0.500
G0 F7200.000 X77.598 Y68.038 Z0.500
;TYPE:SUPPORT
G1 Z0.300
G1 F4200.000 E27.41974
G1 F1200.00000 X78.710 Y66.113 E27.51622
G1 X80.934 Y66.113 E27.61274
G1 X82.044 Y68.038 E27.70918
G1 X80.933 Y69.963 E27.80564
G1 X78.709 Y69.963 E27.90216
G1 X77.598 Y68.038 E27.99862
G1 F4200.00000 E21.59862
G1 Z0.500
G0 F7200.000 X78.520 Y69.316 Z0.500
G1 Z0.300
G1 F4200.000 E27.99862
G1 F1200.00000 X81.121 Y69.316 E28.11151
G0 F7200.00000 X79.980 Y69.803
G1 F1200.000 X79.980 Y66.273 E28.26471
G1 F4200.00000 E21.86471
G1 Z0.500
G0 F7200.000 X91.004 Y76.524 Z0.500
G1 Z0.300
G1 F4200.000 E28.26471
G1 F1200.00000 X93.228 Y76.524 E28.36123
G1 X94.339 Y78.449 E28.45769
G1 X93.228 Y80.374 E28.55415
G1 X91.004 Y80.374 E28.65068
G1 X89.893 Y78.449 E28.74714
G1 X91.004 Y76.524 E28.84360
G0 F7200.00000 X90.644 Y77.467
G1 F1200.000 X90.644 Y79.430 E28.92879
G0 F7200.00000 X90.961 Y79.980
G1 F1200.000 X93.270 Y79.980 E29.02900
G1 F4200.00000 E22.62900
G1 Z0.500
G0 F7200.000 X94.093 Y81.874 Z0.500
;TYPE:WALL-INNER
G1 Z0.300
G1 F4200.000 E29.02900
G1 F1200.00000 X96.071 Y78.449 E29.20066
G1 X94.093 Y75.024 E29.37231
G1 X90.139 Y75.024 E29.54392
G1 X88.161 Y78.449 E29.71557
G1 X90.139 Y81.874 E29.88722
G1 X94.093 Y81.874 E30.05883
G0 F7200.00000 X94.142 Y81.960
G0 X90.120 Y81.908
G0 X81.847 Y71.549
G0 X81.798 Y71.463
G1 F1200.000 X83.776 Y68.038 E30.23048
G1 X81.800 Y64.613 E30.40209
G1 X77.845 Y64.613 E30.57374
G1 X75.866 Y68.038 E30.74541
G1 X77.844 Y71.463 E30.91707
G1 X81.798 Y71.463 E31.08867
G0 F7200.00000 X81.847 Y71.549
G0 X77.825 Y71.497
G0 X64.039 Y63.663
G0 X63.969 Y63.593
G1 F1200.000 X136.031 Y63.593 E34.21617
G1 X136.031 Y136.407 E37.37631
G1 X63.969 Y136.407 E40.50382
G1 X63.969 Y63.593 E43.66395
G0 F7200.00000 X63.569 Y63.193
;TYPE:WALL-OUTER
G1 F1200.000 X136.431 Y63.193 E46.82618
G1 X136.431 Y136.807 E50.02104
G1 X63.569 Y136.807 E53.18326
G1 X63.569 Y63.193 E56.37812
G0 F7200.00000 X64.069 Y63.663
G0 X75.896 Y67.788
G0 X76.328 Y68.038
G1 F1200.000 X78.075 Y71.063 E56.52972
G1 X81.567 Y71.063 E56.68128
G1 X83.314 Y68.038 E56.83288
G1 X81.569 Y65.013 E56.98445
G1 X78.076 Y65.013 E57.13604
G1 X76.328 Y68.038 E57.28767
G0 F7200.00000 X75.896 Y67.787
G0 X77.826 Y64.579
G0 X81.820 Y64.579
G0 X90.370 Y74.924
G0 X90.370 Y75.424
G1 F1200.000 X88.623 Y78.449 E57.43928
G1 X90.370 Y81.474 E57.59089
G1 X93.862 Y81.474 E57.74244
G1 X95.609 Y78.449 E57.89405
G1 X93.862 Y75.424 E58.04565
G1 X90.370 Y75.424 E58.19721
G0 F7200.00000 X89.872 Y75.164
;TYPE:SKIN
G1 F1200.000 X83.514 Y68.807 E58.58741
G0 X83.444 Y68.737
G0 F7200.000 X83.307 Y69.165
G1 F1200.000 X89.666 Y75.523 E58.97768
G0 X89.736 Y75.593
G0 F7200.000 X89.458 Y75.882
G1 F1200.000 X83.100 Y69.524 E59.36791
G0 X83.030 Y69.454
G0 F7200.000 X82.893 Y69.882
G1 F1200.000 X89.251 Y76.240 E59.75815
G0 X89.321 Y76.310
G0 F7200.000 X89.044 Y76.599
G1 F1200.000 X82.686 Y70.241 E60.14838
G0 X82.616 Y70.171
G0 F7200.000 X82.479 Y70.600
G1 F1200.000 X88.837 Y76.957 E60.53859
G0 X88.907 Y77.027
G0 F7200.000 X88.630 Y77.316
G1 F1200.000 X82.272 Y70.958 E60.92882
G0 X82.202 Y70.888
G0 F7200.000 X82.065 Y71.317
G1 F1200.000 X88.422 Y77.674 E61.31900
G0 X88.492 Y77.744
G0 F7200.000 X88.216 Y78.034
G1 F1200.000 X81.805 Y71.623 E61.71249
G0 X81.735 Y71.553
G0 F7200.000 X81.240 Y71.623
G1 F1200.000 X88.009 Y78.392 E62.12795
G0 X88.079 Y78.462
G0 F7200.000 X88.628 Y79.577
G1 F1200.000 X80.674 Y71.623 E62.61614
G0 X80.604 Y71.553
G0 F7200.000 X80.108 Y71.623
G1 F1200.000 X89.400 Y80.915 E63.18646
G0 X89.470 Y80.985
G0 F7200.000 X90.518 Y82.033
G1 F1200.000 X135.871 Y127.385 E65.97006
G0 X135.941 Y127.455
G0 F7200.000 X135.871 Y126.820
G1 F1200.000 X91.084 Y82.033 E68.71896
G0 X91.014 Y81.963
G0 F7200.000 X91.650 Y82.033
G1 F1200.000 X135.871 Y126.254 E71.43311
G0 X135.941 Y126.324
G0 F7200.000 X135.871 Y125.688
G1 F1200.000 X92.215 Y82.033 E74.11256
G0 X92.145 Y81.963
G0 F7200.000 X92.781 Y82.033
G1 F1200.000 X135.871 Y125.123 E76.75730
G0 X135.941 Y125.193
G0 F7200.000 X135.871 Y124.557
G1 F1200.000 X93.347 Y82.033 E79.36730
G0 X93.277 Y81.963
G0 F7200.000 X93.912 Y82.033
G1 F1200.000 X135.871 Y123.991 E81.94259
G0 X135.941 Y124.061
G0 F7200.000 X135.871 Y123.426
G1 F1200.000 X94.291 Y81.846 E84.49465
G0 X94.221 Y81.776
G0 F7200.000 X94.499 Y81.488
G1 F1200.000 X135.871 Y122.860 E87.03394
G0 X135.941 Y122.930
G0 F7200.000 X135.871 Y122.294
G1 F1200.000 X94.705 Y81.129 E89.56056
G0 X94.635 Y81.059
G0 F7200.000 X94.912 Y80.770
G1 F1200.000 X135.871 Y121.729 E92.07451
G0 X135.941 Y121.799
G0 F7200.000 X135.871 Y121.163
G1 F1200.000 X95.120 Y80.412 E94.57569
G0 X95.050 Y80.342
G0 F7200.000 X95.327 Y80.053
G1 F1200.000 X135.871 Y120.597 E97.06416
G0 X135.941 Y120.667
G0 F7200.000 X135.871 Y120.032
G1 F1200.000 X95.534 Y79.695 E99.53993
G0 X95.464 Y79.625
G0 F7200.000 X95.741 Y79.336
G1 F1200.000 X135.871 Y119.466 E102.00299
G0 X135.941 Y119.536
G0 F7200.000 X135.871 Y118.900
G1 F1200.000 X95.948 Y78.978 E104.45332
G0 X95.878 Y78.908
G0 F7200.000 X96.155 Y78.618
G1 F1200.000 X135.871 Y118.335 E106.89100
G0 X135.941 Y118.405
G0 F7200.000 X135.871 Y117.769
G1 F1200.000 X95.848 Y77.746 E109.34749
G0 X95.778 Y77.676
G0 F7200.000 X95.076 Y76.408
G1 F1200.000 X135.871 Y117.203 E111.85137
G0 X135.941 Y117.273
G0 F7200.000 X135.871 Y116.637
G1 F1200.000 X94.304 Y75.070 E114.40263
G0 X94.234 Y75.000
G0 F7200.000 X94.096 Y74.863
G1 F1200.000 X82.986 Y63.753 E115.08453
G0 X82.916 Y63.683
G0 F7200.000 X82.421 Y63.753
G1 F1200.000 X93.531 Y74.863 E115.76643
G0 X93.601 Y74.933
G0 F7200.000 X92.965 Y74.863
G1 F1200.000 X81.855 Y63.753 E116.44833
G0 X81.785 Y63.683
G0 F7200.000 X81.289 Y63.753
G1 F1200.000 X92.399 Y74.863 E117.13023
G0 X92.469 Y74.933
G0 F7200.000 X91.834 Y74.863
G1 F1200.000 X82.529 Y65.558 E117.70135
G0 X82.459 Y65.488
G0 F7200.000 X83.300 Y66.895
G1 F1200.000 X91.268 Y74.863 E118.19040
G0 X91.338 Y74.933
G0 F7200.000 X90.702 Y74.863
G1 F1200.000 X83.928 Y68.089 E118.60617
G0 X83.858 Y68.019
G0 F7200.000 X83.721 Y68.447
G1 F1200.000 X90.137 Y74.863 E118.99996
G0 X90.207 Y74.933
G0 F7200.000 X90.207 Y74.924
G0 X79.543 Y71.623
G1 F1200.000 X135.871 Y127.951 E122.45721
G0 X135.941 Y128.021
G0 F7200.000 X135.871 Y128.517
G1 F1200.000 X78.977 Y71.623 E125.94920
G0 X78.907 Y71.553
G0 F7200.000 X78.411 Y71.623
G1 F1200.000 X135.871 Y129.083 E129.47593
G0 X135.941 Y129.153
G0 F7200.000 X135.871 Y129.648
G1 F1200.000 X77.846 Y71.623 E133.03733
G0 X77.776 Y71.553
G0 F7200.000 X77.622 Y71.400
G1 F1200.000 X69.975 Y63.753 E133.50668
G0 X69.905 Y63.683
G0 F7200.000 X69.410 Y63.753
G1 F1200.000 X135.871 Y130.214 E137.58587
G0 X135.941 Y130.284
G0 F7200.000 X135.871 Y130.780
G1 F1200.000 X68.844 Y63.753 E141.69979
G0 X68.774 Y63.683
G0 F7200.000 X68.278 Y63.753
G1 F1200.000 X135.871 Y131.345 E145.84842
G0 X135.941 Y131.415
G0 F7200.000 X135.871 Y131.911
G1 F1200.000 X67.713 Y63.753 E150.03176
G0 X67.643 Y63.683
G0 F7200.000 X67.147 Y63.753
G1 F1200.000 X135.871 Y132.477 E154.24984
G0 X135.941 Y132.547
G0 F7200.000 X135.871 Y133.042
G1 F1200.000 X66.581 Y63.753 E158.50263
G0 X66.511 Y63.683
G0 F7200.000 X66.016 Y63.753
G1 F1200.000 X135.871 Y133.608 E162.79013
G0 X135.941 Y133.678
G0 F7200.000 X135.871 Y134.174
G1 F1200.000 X65.450 Y63.753 E167.11236
G0 X65.380 Y63.683
G0 F7200.000 X64.884 Y63.753
G1 F1200.000 X135.871 Y134.739 E171.46931
G0 X135.941 Y134.809
G0 F7200.000 X135.871 Y135.305
G1 F1200.000 X64.319 Y63.753 E175.86096
G0 X64.249 Y63.683
G0 F7200.000 X64.128 Y64.128
G1 F1200.000 X135.871 Y135.871 E180.26434
G0 X135.941 Y135.941
G0 F7200.000 X135.680 Y136.246
G1 F1200.000 X64.128 Y64.693 E184.65602
G0 X64.058 Y64.623
G0 F7200.000 X64.128 Y65.259
G1 F1200.000 X135.114 Y136.246 E189.01297
G0 X135.184 Y136.316
G0 F7200.000 X134.548 Y136.246
G1 F1200.000 X64.128 Y65.825 E193.33517
G0 X64.058 Y65.755
G0 F7200.000 X64.128 Y66.390
G1 F1200.000 X133.983 Y136.246 E197.62270
G0 X134.053 Y136.316
G0 F7200.000 X133.417 Y136.246
G1 F1200.000 X64.128 Y66.956 E201.87549
G0 X64.058 Y66.886
G0 F7200.000 X64.128 Y67.522
G1 F1200.000 X132.851 Y136.246 E206.09354
G0 X132.921 Y136.316
G0 F7200.000 X132.286 Y136.246
G1 F1200.000 X64.128 Y68.088 E210.27688
G0 X64.058 Y68.018
G0 F7200.000 X64.128 Y68.653
G1 F1200.000 X131.720 Y136.246 E214.42551
G0 X131.790 Y136.316
G0 F7200.000 X131.154 Y136.246
G1 F1200.000 X64.128 Y69.219 E218.53940
G0 X64.058 Y69.149
G0 F7200.000 X64.128 Y69.785
G1 F1200.000 X130.589 Y136.246 E222.61858
G0 X130.659 Y136.316
G0 F7200.000 X130.023 Y136.246
G1 F1200.000 X64.128 Y70.350 E226.66306
G0 X64.058 Y70.280
G0 F7200.000 X64.128 Y70.916
G1 F1200.000 X129.457 Y136.246 E230.67279
G0 X129.527 Y136.316
G0 F7200.000 X128.892 Y136.246
G1 F1200.000 X64.128 Y71.482 E234.64782
G0 X64.058 Y71.412
G0 F7200.000 X64.128 Y72.047
G1 F1200.000 X128.326 Y136.246 E238.58813
G0 X128.396 Y136.316
G0 F7200.000 X127.760 Y136.246
G1 F1200.000 X64.128 Y72.613 E242.49371
G0 X64.058 Y72.543
G0 F7200.000 X64.128 Y73.179
G1 F1200.000 X127.195 Y136.246 E246.36458
G0 X127.265 Y136.316
G0 F7200.000 X126.629 Y136.246
G1 F1200.000 X64.128 Y73.744 E250.20074
G0 X64.058 Y73.674
G0 F7200.000 X64.128 Y74.310
G1 F1200.000 X126.063 Y136.246 E254.00216
G0 X126.133 Y136.316
G0 F7200.000 X125.498 Y136.246
G1 F1200.000 X64.128 Y74.876 E257.76888
G0 X64.058 Y74.806
G0 F7200.000 X64.128 Y75.441
G1 F1200.000 X124.932 Y136.246 E261.50088
G0 X125.002 Y136.316
G0 F7200.000 X124.366 Y136.246
G1 F1200.000 X64.128 Y76.007 E265.19814
G0 X64.058 Y75.937
G0 F7200.000 X64.128 Y76.573
G1 F1200.000 X123.800 Y136.246 E268.86067
G0 X123.870 Y136.316
G0 F7200.000 X123.235 Y136.246
G1 F1200.000 X64.128 Y77.138 E272.48851
G0 X64.058 Y77.068
G0 F7200.000 X64.128 Y77.704
G1 F1200.000 X122.669 Y136.246 E276.08162
G0 X122.739 Y136.316
G0 F7200.000 X122.103 Y136.246
G1 F1200.000 X64.128 Y78.270 E279.63999
G0 X64.058 Y78.200
G0 F7200.000 X64.128 Y78.836
G1 F1200.000 X121.538 Y136.246 E283.16365
G0 X121.608 Y136.316
G0 F7200.000 X120.972 Y136.246
G1 F1200.000 X64.128 Y79.401 E286.65260
G0 X64.058 Y79.331
G0 F7200.000 X64.128 Y79.967
G1 F1200.000 X120.406 Y136.246 E290.10681
G0 X120.476 Y136.316
G0 F7200.000 X119.841 Y136.246
G1 F1200.000 X64.128 Y80.533 E293.52631
G0 X64.058 Y80.463
G0 F7200.000 X64.128 Y81.098
G1 F1200.000 X119.275 Y136.246 E296.91110
G0 X119.345 Y136.316
G0 F7200.000 X118.709 Y136.246
G1 F1200.000 X64.128 Y81.664 E300.26116
G0 X64.058 Y81.594
G0 F7200.000 X64.128 Y82.230
G1 F1200.000 X118.144 Y136.246 E303.57650
G0 X118.214 Y136.316
G0 F7200.000 X117.578 Y136.246
G1 F1200.000 X64.128 Y82.795 E306.85714
G0 X64.058 Y82.725
G0 F7200.000 X64.128 Y83.361
G1 F1200.000 X117.012 Y136.246 E310.10304
G0 X117.082 Y136.316
G0 F7200.000 X116.447 Y136.246
G1 F1200.000 X64.128 Y83.927 E313.31422
G0 X64.058 Y83.857
G0 F7200.000 X64.128 Y84.492
G1 F1200.000 X115.881 Y136.246 E316.49070
G0 X115.951 Y136.316
G0 F7200.000 X115.315 Y136.246
G1 F1200.000 X64.128 Y85.058 E319.63244
G0 X64.058 Y84.988
G0 F7200.000 X64.128 Y85.624
G1 F1200.000 X114.749 Y136.246 E322.73944
G0 X114.819 Y136.316
G0 F7200.000 X114.184 Y136.246
G1 F1200.000 X64.128 Y86.189 E325.81177
G0 X64.058 Y86.119
G0 F7200.000 X64.128 Y86.755
G1 F1200.000 X113.618 Y136.246 E328.84935
G0 X113.688 Y136.316
G0 F7200.000 X113.052 Y136.246
G1 F1200.000 X64.128 Y87.321 E331.85219
G0 X64.058 Y87.251
G0 F7200.000 X64.128 Y87.887
G1 F1200.000 X112.487 Y136.246 E334.82033
G0 X112.557 Y136.316
G0 F7200.000 X111.921 Y136.246
G1 F1200.000 X64.128 Y88.452 E337.75375
G0 X64.058 Y88.382
G0 F7200.000 X64.128 Y89.018
G1 F1200.000 X111.355 Y136.246 E340.65244
G0 X111.425 Y136.316
G0 F7200.000 X110.790 Y136.246
G1 F1200.000 X64.128 Y89.584 E343.51642
G0 X64.058 Y89.514
G0 F7200.000 X64.128 Y90.149
G1 F1200.000 X110.224 Y136.246 E346.34569
G0 X110.294 Y136.316
G0 F7200.000 X109.658 Y136.246
G1 F1200.000 X64.128 Y90.715 E349.14022
G0 X64.058 Y90.645
G0 F7200.000 X64.128 Y91.281
G1 F1200.000 X109.093 Y136.246 E351.90004
G0 X109.163 Y136.316
G0 F7200.000 X108.527 Y136.246
G1 F1200.000 X64.128 Y91.846 E354.62515
G0 X64.058 Y91.776
G0 F7200.000 X64.128 Y92.412
G1 F1200.000 X107.961 Y136.246 E357.31552
G0 X108.031 Y136.316
