;FLAVOR:RepRap
;TIME:3596
M190 S50.000000
M104 S210.000000
M109 S210.000000
M109 S210.000000
G21 ;metric values
G90 ;absolute positioning
M82 ;set extruder to absolute mode
M107 ;start with the fan off
G92 X0 Y0 Z0 ;Zero X Y and Z axis
G1 Z15.0 F9000 ;move the platform down 15mm
G92 E0 ;zero the extruded length
G1 F200 E3 ;extrude 3mm of feed stock
G92 E0 ;zero the extruded length again
G1 F9000
;Put printing message on LCD screen
M117 Printing...
;Generated with Cura_SteamEngine 2.1.3
;LAYER_COUNT:33
;LAYER:0
M107
G0 F7200.000000 X103.776 Y69.210 Z0.300
G0 X103.128 Y71.620
;TYPE:SKIRT
G1 F1200.000 X103.109 Y71.456 E0.00717
G1 X103.126 Y70.920 E0.03044
G1 X103.223 Y70.393 E0.05370
G1 X103.397 Y69.885 E0.07700
G1 X103.776 Y69.210 E0.11060
G1 X104.250 Y68.548 E0.14593
G1 X104.460 Y68.268 E0.16112
G1 X104.813 Y67.864 E0.18441
G1 X105.222 Y67.517 E0.20769
G1 X105.678 Y67.235 E0.23096
G1 X106.170 Y67.023 E0.25421
G1 X106.538 Y66.927 E0.27071
G1 X106.560 Y66.761 E0.27798
G1 X106.710 Y66.246 E0.30126
G1 X106.935 Y65.759 E0.32454
G1 X107.230 Y65.311 E0.34782
G1 X107.765 Y64.754 E0.38134
G1 X108.391 Y64.229 E0.41680
G1 X108.665 Y64.010 E0.43202
G1 X109.108 Y63.707 E0.45532
G1 X109.591 Y63.474 E0.47859
G1 X110.103 Y63.314 E0.50187
G1 X110.633 Y63.233 E0.52514
G1 X111.006 Y63.232 E0.54133
G1 X111.068 Y63.078 E0.54853
G1 X111.341 Y62.616 E0.57182
G1 X111.680 Y62.201 E0.59508
G1 X112.077 Y61.840 E0.61837
G1 X112.731 Y61.433 E0.65180
G1 X113.460 Y61.084 E0.68688
G1 X113.788 Y60.936 E0.70249
G1 X114.292 Y60.752 E0.72578
G1 X114.818 Y60.645 E0.74907
G1 X115.353 Y60.618 E0.77232
G1 X115.887 Y60.670 E0.79561
G1 X116.252 Y60.763 E0.81196
G1 X116.351 Y60.629 E0.81919
G1 X116.730 Y60.250 E0.84245
G1 X117.162 Y59.932 E0.86573
G1 X117.636 Y59.681 E0.88901
G1 X118.376 Y59.449 E0.92266
G1 X119.175 Y59.291 E0.95801
G1 X119.520 Y59.231 E0.97321
G1 X120.054 Y59.179 E0.99650
G1 X120.589 Y59.207 E1.01975
G1 X121.115 Y59.313 E1.04303
G1 X121.619 Y59.497 E1.06632
G1 X121.947 Y59.676 E1.08254
G1 X122.075 Y59.572 E1.08969
G1 X122.537 Y59.300 E1.11296
G1 X123.034 Y59.098 E1.13625
G1 X123.556 Y58.973 E1.15954
G1 X124.324 Y58.932 E1.19292
G1 X125.159 Y58.978 E1.22921
G1 X125.508 Y59.007 E1.24441
G1 X126.038 Y59.091 E1.26770
G1 X126.549 Y59.253 E1.29097
G1 X127.031 Y59.489 E1.31426
G1 X127.472 Y59.794 E1.33753
G1 X127.735 Y60.040 E1.35316
G1 X127.886 Y59.971 E1.36036
G1 X128.401 Y59.822 E1.38363
G1 X128.932 Y59.751 E1.40688
G1 X129.469 Y59.760 E1.43019
G1 X130.223 Y59.911 E1.46357
G1 X131.010 Y60.160 E1.49939
G1 X131.341 Y60.274 E1.51458
G1 X131.834 Y60.486 E1.53787
G1 X132.290 Y60.769 E1.56117
G1 X132.698 Y61.116 E1.58441
G1 X133.051 Y61.520 E1.60770
G1 X133.250 Y61.833 E1.62379
G1 X133.416 Y61.803 E1.63111
G1 X133.952 Y61.787 E1.65439
G1 X134.485 Y61.851 E1.67769
G1 X135.002 Y61.993 E1.70095
G1 X135.690 Y62.325 E1.73411
G1 X136.401 Y62.768 E1.77047
G1 X136.692 Y62.961 E1.78562
G1 X137.115 Y63.290 E1.80888
G1 X137.485 Y63.678 E1.83215
G1 X137.794 Y64.117 E1.85545
G1 X138.033 Y64.596 E1.87868
G1 X138.145 Y64.940 E1.89438
G1 X138.313 Y64.952 E1.90169
G1 X138.836 Y65.069 E1.92495
G1 X139.336 Y65.263 E1.94822
G1 X139.802 Y65.529 E1.97151
G1 X140.391 Y66.027 E2.00499
G1 X140.957 Y66.622 E2.04063
G1 X141.192 Y66.881 E2.05581
G1 X141.522 Y67.304 E2.07909
G1 X141.785 Y67.771 E2.10235
G1 X141.976 Y68.272 E2.12562
G1 X142.091 Y68.796 E2.14890
G1 X142.115 Y69.166 E2.16500
G1 X142.270 Y69.218 E2.17209
G1 X142.748 Y69.461 E2.19536
G1 X143.184 Y69.773 E2.21863
G1 X143.570 Y70.146 E2.24193
G1 X144.019 Y70.778 E2.27557
G1 X144.422 Y71.500 E2.31146
G1 X144.585 Y71.810 E2.32666
G1 X144.799 Y72.302 E2.34994
G1 X144.937 Y72.820 E2.37321
G1 X144.997 Y73.353 E2.39649
G1 X144.976 Y73.889 E2.41977
G1 X144.909 Y74.248 E2.43562
G1 X145.049 Y74.339 E2.44287
G1 X145.451 Y74.695 E2.46617
G1 X145.796 Y75.105 E2.48943
G1 X146.076 Y75.563 E2.51272
G1 X146.353 Y76.284 E2.54624
G1 X146.562 Y77.078 E2.58188
G1 X146.643 Y77.418 E2.59705
G1 X146.728 Y77.947 E2.62030
G1 X146.734 Y78.483 E2.64356
G1 X146.659 Y79.015 E2.66688
G1 X146.507 Y79.529 E2.69014
G1 X146.350 Y79.864 E2.70620
G1 X146.463 Y79.986 E2.71342
G1 X146.764 Y80.430 E2.73670
G1 X146.996 Y80.913 E2.75995
G1 X147.153 Y81.426 E2.78324
G1 X147.243 Y82.194 E2.81680
G1 X147.248 Y83.015 E2.85243
G1 X147.242 Y83.365 E2.86762
G1 X147.193 Y83.899 E2.89089
G1 X147.065 Y84.420 E2.91418
G1 X146.862 Y84.916 E2.93744
G1 X146.586 Y85.376 E2.96072
G1 X146.350 Y85.663 E2.97685
G1 X146.428 Y85.808 E2.98399
G1 X146.610 Y86.312 E3.00725
G1 X146.714 Y86.838 E3.03052
G1 X146.740 Y87.374 E3.05381
G1 X146.636 Y88.138 E3.08727
G1 X146.436 Y88.942 E3.12323
G1 X146.343 Y89.279 E3.13840
G1 X146.163 Y89.784 E3.16167
G1 X145.909 Y90.256 E3.18493
G1 X145.588 Y90.686 E3.20822
G1 X145.206 Y91.063 E3.23151
G1 X144.908 Y91.280 E3.24751
G1 X144.948 Y91.441 E3.25471
G1 X144.998 Y91.975 E3.27799
G1 X144.968 Y92.511 E3.30129
G1 X144.859 Y93.036 E3.32456
G1 X144.568 Y93.751 E3.35806
G1 X144.177 Y94.473 E3.39370
G1 X144.003 Y94.777 E3.40890
G1 X143.703 Y95.222 E3.43219
G1 X143.340 Y95.616 E3.45544
G1 X142.922 Y95.953 E3.47874
G1 X142.460 Y96.224 E3.50199
G1 X142.115 Y96.361 E3.51810
G1 X142.114 Y96.524 E3.52517
G1 X142.030 Y97.054 E3.54846
G1 X141.868 Y97.565 E3.57173
G1 X141.632 Y98.047 E3.59502
G1 X141.172 Y98.668 E3.62856
G1 X140.618 Y99.266 E3.66394
G1 X140.367 Y99.524 E3.67956
G1 X139.966 Y99.880 E3.70283
G1 X139.516 Y100.172 E3.72612
G1 X139.028 Y100.393 E3.74937
G1 X138.512 Y100.540 E3.77265
G1 X138.145 Y100.588 E3.78871
G1 X138.103 Y100.748 E3.79589
G1 X137.889 Y101.240 E3.81918
G1 X137.605 Y101.695 E3.84246
G1 X137.257 Y102.102 E3.86570
G1 X136.655 Y102.590 E3.89933
G1 X135.958 Y103.039 E3.93531
G1 X135.660 Y103.220 E3.95045
G1 X135.182 Y103.463 E3.97372
G1 X134.673 Y103.633 E3.99701
G1 X134.145 Y103.726 E4.02028
G1 X133.609 Y103.738 E4.04354
G1 X133.251 Y103.693 E4.05920
G1 X133.171 Y103.836 E4.06631
G1 X132.842 Y104.260 E4.08961
G1 X132.454 Y104.630 E4.11288
G1 X132.015 Y104.938 E4.13615
G1 X131.307 Y105.263 E4.16996
G1 X130.527 Y105.522 E4.20563
G1 X130.193 Y105.624 E4.22079
G1 X129.670 Y105.742 E4.24405
G1 X129.135 Y105.781 E4.26733
G1 X128.601 Y105.740 E4.29058
G1 X128.078 Y105.620 E4.31387
G1 X127.735 Y105.485 E4.32986
G1 X127.620 Y105.605 E4.33708
G1 X127.196 Y105.933 E4.36034
G1 X126.728 Y106.195 E4.38362
G1 X126.227 Y106.385 E4.40688
G1 X125.466 Y106.522 E4.44043
G1 X124.646 Y106.579 E4.47611
G1 X124.296 Y106.595 E4.49131
G1 X123.760 Y106.580 E4.51459
G1 X123.233 Y106.485 E4.53783
G1 X122.725 Y106.313 E4.56110
G1 X122.248 Y106.067 E4.58440
G1 X121.947 Y105.850 E4.60050
G1 X121.808 Y105.937 E4.60762
G1 X121.315 Y106.150 E4.63092
G1 X120.797 Y106.287 E4.65418
G1 X120.264 Y106.346 E4.67745
G1 X119.491 Y106.290 E4.71109
G1 X118.687 Y106.142 E4.74657
G1 X118.345 Y106.071 E4.76173
G1 X117.830 Y105.923 E4.78498
G1 X117.342 Y105.700 E4.80827
G1 X116.893 Y105.408 E4.83151
G1 X116.492 Y105.051 E4.85482
G1 X116.252 Y104.764 E4.87105
G1 X116.093 Y104.814 E4.87829
G1 X115.563 Y104.897 E4.90157
G1 X115.027 Y104.901 E4.92483
G1 X114.496 Y104.825 E4.94811
G1 X113.764 Y104.579 E4.98163
G1 X113.021 Y104.236 E5.01714
G1 X112.699 Y104.077 E5.03273
G1 X112.237 Y103.804 E5.05602
G1 X111.821 Y103.466 E5.07928
G1 X111.460 Y103.070 E5.10254
G1 X111.161 Y102.624 E5.12584
G1 X111.006 Y102.295 E5.14163
G1 X110.842 Y102.304 E5.14875
G1 X110.308 Y102.254 E5.17203
G1 X109.787 Y102.124 E5.19534
G1 X109.292 Y101.919 E5.21859
G1 X108.642 Y101.498 E5.25220
G1 X108.004 Y100.978 E5.28792
G1 X107.739 Y100.751 E5.30306
G1 X107.359 Y100.373 E5.32633
G1 X107.039 Y99.942 E5.34962
G1 X106.787 Y99.469 E5.37288
G1 X106.608 Y98.964 E5.39614
G1 X106.537 Y98.600 E5.41223
G1 X106.374 Y98.567 E5.41945
G1 X105.869 Y98.385 E5.44275
G1 X105.398 Y98.130 E5.46599
G1 X104.969 Y97.808 E5.48927
G1 X104.445 Y97.239 E5.52284
G1 X103.952 Y96.570 E5.55891
G1 X103.752 Y96.283 E5.57409
G1 X103.479 Y95.822 E5.59734
G1 X103.278 Y95.325 E5.62061
G1 X103.153 Y94.803 E5.64391
G1 X103.106 Y94.269 E5.66717
G1 X103.129 Y93.908 E5.68287
G1 X102.976 Y93.834 E5.69025
G1 X102.533 Y93.532 E5.71352
G1 X102.140 Y93.168 E5.73676
G1 X101.805 Y92.749 E5.76005
G1 X101.440 Y92.068 E5.79358
G1 X101.135 Y91.311 E5.82900
G1 X101.012 Y90.985 E5.84412
G1 X100.860 Y90.470 E5.86743
G1 X100.787 Y89.939 E5.89069
G1 X100.793 Y89.403 E5.91395
G1 X100.879 Y88.874 E5.93721
G1 X100.994 Y88.516 E5.95353
G1 X100.869 Y88.411 E5.96062
G1 X100.514 Y88.009 E5.98389
G1 X100.223 Y87.559 E6.00715
G1 X100.002 Y87.070 E6.03044
G1 X99.816 Y86.315 E6.06419
G1 X99.708 Y85.504 E6.09969
G1 X99.670 Y85.156 E6.11489
G1 X99.652 Y84.620 E6.13816
G1 X99.713 Y84.087 E6.16145
G1 X99.853 Y83.569 E6.18473
G1 X100.069 Y83.078 E6.20801
G1 X100.267 Y82.764 E6.22413
G1 X100.172 Y82.631 E6.23122
G1 X99.929 Y82.153 E6.25449
G1 X99.759 Y81.645 E6.27774
G1 X99.666 Y81.116 E6.30105
G1 X99.673 Y80.343 E6.33460
G1 X99.771 Y79.522 E6.37049
G1 X99.821 Y79.176 E6.38566
G1 X99.937 Y78.653 E6.40891
G1 X100.130 Y78.152 E6.43221
G1 X100.394 Y77.686 E6.45545
G1 X100.725 Y77.264 E6.47873
G1 X100.994 Y77.010 E6.49479
G1 X100.936 Y76.861 E6.50173
G1 X100.818 Y76.338 E6.52499
G1 X100.780 Y75.803 E6.54827
G1 X100.822 Y75.268 E6.57156
G1 X101.021 Y74.519 E6.60520
G1 X101.315 Y73.760 E6.64052
G1 X101.453 Y73.428 E6.65613
G1 X101.695 Y72.950 E6.67938
G1 X102.005 Y72.513 E6.70263
G1 X102.377 Y72.126 E6.72593
G1 X102.803 Y71.800 E6.74921
G1 X103.128 Y71.620 E6.76533
G0 F7200.00000 X103.554 Y71.855
G1 F1200.000 X103.506 Y71.352 E6.78726
G1 X103.538 Y70.848 E6.80918
G1 X103.650 Y70.354 E6.83117
G1 X103.837 Y69.885 E6.85308
G1 X104.101 Y69.443 E6.87542
G1 X104.570 Y68.788 E6.91039
G1 X104.780 Y68.508 E6.92558
G1 X105.114 Y68.129 E6.94750
G1 X105.504 Y67.807 E6.96945
G1 X105.940 Y67.551 E6.99139
G1 X106.411 Y67.366 E7.01335
G1 X106.891 Y67.261 E7.03468
G1 X106.891 Y67.258 E7.03481
G1 X106.970 Y66.759 E7.05674
G1 X107.127 Y66.279 E7.07865
G1 X107.358 Y65.829 E7.10061
G1 X107.657 Y65.421 E7.12256
G1 X108.022 Y65.060 E7.14484
G1 X108.641 Y64.541 E7.17990
G1 X108.915 Y64.322 E7.19512
G1 X109.334 Y64.039 E7.21707
G1 X109.792 Y63.825 E7.23901
G1 X110.278 Y63.686 E7.26094
G1 X110.780 Y63.625 E7.28289
G1 X111.265 Y63.643 E7.30395
G1 X111.265 Y63.642 E7.30400
G1 X111.466 Y63.178 E7.32594
G1 X111.737 Y62.752 E7.34786
G1 X112.072 Y62.373 E7.36981
G1 X112.463 Y62.052 E7.39177
G1 X112.905 Y61.794 E7.41398
G1 X113.625 Y61.448 E7.44865
G1 X113.953 Y61.300 E7.46426
G1 X114.429 Y61.129 E7.48621
G1 X114.925 Y61.035 E7.50812
G1 X115.431 Y61.021 E7.53009
G1 X115.932 Y61.086 E7.55202
G1 X116.401 Y61.225 E7.57325
G1 X116.711 Y60.825 E7.59521
G1 X117.080 Y60.480 E7.61714
G1 X117.499 Y60.196 E7.63910
G1 X117.957 Y59.982 E7.66104
G1 X118.454 Y59.841 E7.68347
G1 X119.244 Y59.685 E7.71841
G1 X119.589 Y59.625 E7.73361
G1 X120.092 Y59.578 E7.75554
G1 X120.597 Y59.611 E7.77750
G1 X121.090 Y59.723 E7.79944
G1 X121.559 Y59.911 E7.82137
G1 X121.977 Y60.161 E7.84251
G1 X122.376 Y59.852 E7.86441
G1 X122.819 Y59.609 E7.88634
G1 X123.295 Y59.438 E7.90829
G1 X123.792 Y59.345 E7.93024
G1 X124.303 Y59.332 E7.95242
G1 X125.126 Y59.377 E7.98819
G1 X125.475 Y59.406 E8.00339
G1 X125.974 Y59.488 E8.02534
G1 X126.454 Y59.647 E8.04728
G1 X126.903 Y59.879 E8.06922
G1 X127.309 Y60.180 E8.09115
G1 X127.641 Y60.519 E8.11175
G1 X127.643 Y60.518 E8.11184
G1 X128.107 Y60.317 E8.13379
G1 X128.597 Y60.192 E8.15574
G1 X129.100 Y60.145 E8.17766
G1 X129.605 Y60.179 E8.19963
G1 X130.102 Y60.293 E8.22176
G1 X130.880 Y60.538 E8.25716
G1 X131.211 Y60.652 E8.27235
G1 X131.675 Y60.854 E8.29431
G1 X132.100 Y61.127 E8.31624
G1 X132.478 Y61.463 E8.33819
G1 X132.798 Y61.854 E8.36011
G1 X133.042 Y62.272 E8.38112
G1 X133.045 Y62.271 E8.38126
G1 X133.545 Y62.193 E8.40322
G1 X134.050 Y62.194 E8.42514
G1 X134.549 Y62.274 E8.44707
G1 X135.029 Y62.432 E8.46900
G1 X135.479 Y62.664 E8.49098
G1 X136.180 Y63.101 E8.52683
G1 X136.471 Y63.294 E8.54198
G1 X136.869 Y63.606 E8.56393
G1 X137.212 Y63.977 E8.58586
G1 X137.494 Y64.397 E8.60781
G1 X137.705 Y64.856 E8.62974
G1 X137.834 Y65.313 E8.65035
G1 X137.837 Y65.313 E8.65048
G1 X138.340 Y65.361 E8.67241
G1 X138.830 Y65.488 E8.69438
G1 X139.293 Y65.690 E8.71630
G1 X139.719 Y65.962 E8.73823
G1 X140.102 Y66.303 E8.76049
G1 X140.661 Y66.891 E8.79570
G1 X140.896 Y67.150 E8.81088
G1 X141.205 Y67.550 E8.83282
G1 X141.447 Y67.994 E8.85476
G1 X141.616 Y68.470 E8.87668
G1 X141.709 Y68.967 E8.89863
G1 X141.720 Y69.450 E8.91960
G1 X142.195 Y69.621 E8.94151
G1 X142.638 Y69.865 E8.96346
G1 X143.037 Y70.175 E8.98538
G1 X143.382 Y70.545 E9.00734
G1 X143.670 Y70.974 E9.02977
G1 X144.068 Y71.686 E9.06517
G1 X144.231 Y71.996 E9.08037
G1 X144.431 Y72.460 E9.10230
G1 X144.554 Y72.951 E9.12426
G1 X144.599 Y73.454 E9.14618
G1 X144.564 Y73.959 E9.16815
G1 X144.456 Y74.426 E9.18895
G1 X144.458 Y74.427 E9.18905
G1 X144.876 Y74.712 E9.21101
G1 X145.244 Y75.058 E9.23293
G1 X145.553 Y75.458 E9.25487
G1 X145.795 Y75.902 E9.27681
G1 X145.966 Y76.387 E9.29913
G1 X146.173 Y77.170 E9.33428
G1 X146.254 Y77.510 E9.34945
G1 X146.332 Y78.010 E9.37141
G1 X146.330 Y78.515 E9.39333
G1 X146.249 Y79.014 E9.41527
G1 X146.090 Y79.494 E9.43722
G1 X145.867 Y79.923 E9.45820
G1 X145.868 Y79.924 E9.45826
G1 X146.203 Y80.304 E9.48025
G1 X146.473 Y80.731 E9.50217
G1 X146.673 Y81.195 E9.52410
G1 X146.797 Y81.685 E9.54604
G1 X146.843 Y82.198 E9.56839
G1 X146.849 Y83.008 E9.60355
G1 X146.843 Y83.358 E9.61874
G1 X146.794 Y83.861 E9.64067
G1 X146.667 Y84.350 E9.66260
G1 X146.464 Y84.814 E9.68458
G1 X146.191 Y85.239 E9.70650
G1 X145.868 Y85.600 E9.72753
G1 X146.097 Y86.050 E9.74944
G1 X146.253 Y86.531 E9.77138
G1 X146.332 Y87.031 E9.79335
G1 X146.330 Y87.536 E9.81527
G1 X146.248 Y88.042 E9.83752
G1 X146.051 Y88.835 E9.87298
G1 X145.958 Y89.172 E9.88815
G1 X145.785 Y89.647 E9.91009
G1 X145.540 Y90.090 E9.93206
G1 X145.228 Y90.488 E9.95401
G1 X144.857 Y90.831 E9.97594
G1 X144.457 Y91.100 E9.99686
G1 X144.457 Y91.101 E9.99690
G1 X144.567 Y91.594 E10.01883
G1 X144.599 Y92.099 E10.04079
G1 X144.550 Y92.602 E10.06272
G1 X144.422 Y93.091 E10.08466
G1 X144.216 Y93.561 E10.10693
G1 X143.830 Y94.275 E10.14216
G1 X143.656 Y94.579 E10.15736
G1 X143.371 Y94.996 E10.17928
G1 X143.024 Y95.364 E10.20123
G1 X142.623 Y95.672 E10.22318
G1 X142.179 Y95.913 E10.24510
G1 X141.722 Y96.074 E10.26613
G1 X141.707 Y96.578 E10.28801
G1 X141.612 Y97.074 E10.30993
G1 X141.440 Y97.550 E10.33190
G1 X141.195 Y97.992 E10.35383
G1 X140.878 Y98.397 E10.37615
G1 X140.332 Y98.987 E10.41104
G1 X140.081 Y99.245 E10.42666
G1 X139.701 Y99.579 E10.44862
G1 X139.273 Y99.848 E10.47056
G1 X138.808 Y100.047 E10.49251
G1 X138.317 Y100.170 E10.51448
G1 X137.836 Y100.212 E10.53543
G1 X137.695 Y100.698 E10.55739
G1 X137.479 Y101.155 E10.57933
G1 X137.194 Y101.573 E10.60129
G1 X136.847 Y101.940 E10.62321
G1 X136.438 Y102.254 E10.64559
G1 X135.750 Y102.697 E10.68110
G1 X135.452 Y102.878 E10.69623
G1 X135.001 Y103.106 E10.71817
G1 X134.519 Y103.259 E10.74011
G1 X134.019 Y103.335 E10.76206
G1 X133.514 Y103.331 E10.78398
G1 X133.044 Y103.252 E10.80466
G1 X132.788 Y103.687 E10.82657
G1 X132.466 Y104.076 E10.84849
G1 X132.086 Y104.410 E10.87044
G1 X131.659 Y104.680 E10.89237
G1 X131.181 Y104.884 E10.91492
G1 X130.411 Y105.139 E10.95013
G1 X130.077 Y105.241 E10.96528
G1 X129.583 Y105.350 E10.98724
G1 X129.078 Y105.380 E11.00920
G1 X128.575 Y105.330 E11.03113
G1 X128.086 Y105.202 E11.05307
G1 X127.645 Y105.007 E11.07400
G1 X127.645 Y105.008 E11.07404
G1 X127.287 Y105.365 E11.09598
G1 X126.878 Y105.662 E11.11792
G1 X126.427 Y105.891 E11.13987
G1 X125.946 Y106.045 E11.16179
G1 X125.438 Y106.123 E11.18410
