;FLAVOR:RepRap
;TIME:1582
M190 S50.000000
M104 S210.000000
M109 S210.000000
M109 S210.000000
M109 S210.000000
M109 S210.000000
M109 S210.000000
G21 ;metric values
G90 ;absolute positioning
M82 ;set extruder to absolute mode
M107 ;start with the fan off
G92 X0 Y0 Z0 ;Zero X Y and Z axis
G1 Z15.0 F9000 ;move the platform down 15mm
G92 E0 ;zero the extruded length
G1 F200 E3 ;extrude 3mm of feed stock
G92 E0 ;zero the extruded length again
G1 F9000
;Put printing message on LCD screen
M117 Printing...
;Generated with Cura_SteamEngine 2.1.3
;LAYER_COUNT:13
;LAYER:0
M107
G1 F4200.000000 E-6.40000
G1 Z20.200
G0 F7200.000 X77.545 Y67.614 Z0.500
;TYPE:SKIRT
G1 Z0.300
G1 F4200.000 E0.00000
G1 F1200.00000 X77.937 Y67.248 E0.02328
G1 X78.379 Y66.945 E0.04653
G1 X78.862 Y66.710 E0.06984
G1 X79.373 Y66.550 E0.09308
G1 X79.903 Y66.467 E0.11637
G1 X80.190 Y66.456 E0.12883
G1 X93.619 Y66.456 E0.71165
G1 X94.154 Y66.496 E0.73494
G1 X94.677 Y66.615 E0.75821
G1 X95.176 Y66.810 E0.78147
G1 X95.362 Y66.917 E0.79078
G1 X95.543 Y66.829 E0.79951
G1 X96.054 Y66.669 E0.82275
G1 X96.584 Y66.586 E0.84604
G1 X96.871 Y66.575 E0.85850
G1 X110.299 Y66.575 E1.44128
G1 X110.834 Y66.615 E1.46456
G1 X111.357 Y66.734 E1.48784
G1 X111.693 Y66.865 E1.50349
G1 X112.134 Y66.727 E1.52355
G1 X112.664 Y66.644 E1.54683
G1 X112.951 Y66.633 E1.55929
G1 X126.380 Y66.633 E2.14211
G1 X126.915 Y66.673 E2.16540
G1 X127.438 Y66.792 E2.18868
G1 X127.937 Y66.987 E2.21193
G1 X128.402 Y67.255 E2.23522
G1 X128.822 Y67.588 E2.25848
G1 X129.188 Y67.980 E2.28176
G1 X129.491 Y68.422 E2.30502
G1 X129.726 Y68.905 E2.32833
G1 X129.886 Y69.416 E2.35157
G1 X129.969 Y69.946 E2.37485
G1 X129.980 Y70.233 E2.38731
G1 X129.980 Y82.300 E2.91102
G1 X129.940 Y82.835 E2.93431
G1 X129.821 Y83.358 E2.95759
G1 X129.626 Y83.857 E2.98084
G1 X129.358 Y84.322 E3.00413
G1 X129.025 Y84.742 E3.02739
G1 X128.633 Y85.108 E3.05067
G1 X128.191 Y85.411 E3.07393
G1 X127.708 Y85.646 E3.09724
G1 X127.197 Y85.806 E3.12048
G1 X126.667 Y85.889 E3.14376
G1 X126.380 Y85.900 E3.15622
G1 X126.317 Y85.900 E3.15896
G1 X126.317 Y128.638 E5.01380
G1 X126.277 Y129.173 E5.03708
G1 X126.158 Y129.696 E5.06036
G1 X125.963 Y130.195 E5.08361
G1 X125.695 Y130.660 E5.10690
G1 X125.362 Y131.080 E5.13016
G1 X124.970 Y131.446 E5.15344
G1 X124.528 Y131.749 E5.17670
G1 X124.045 Y131.984 E5.20001
G1 X123.534 Y132.144 E5.22325
G1 X123.004 Y132.227 E5.24653
G1 X122.717 Y132.238 E5.25900
G1 X111.996 Y132.238 E5.72429
G1 X111.461 Y132.198 E5.74757
G1 X110.938 Y132.079 E5.77085
G1 X110.439 Y131.884 E5.79410
G1 X109.974 Y131.616 E5.81740
G1 X109.554 Y131.283 E5.84066
G1 X109.188 Y130.891 E5.86393
G1 X108.885 Y130.449 E5.88719
G1 X108.650 Y129.966 E5.91050
G1 X108.490 Y129.455 E5.93374
G1 X108.407 Y128.925 E5.95702
G1 X108.396 Y128.638 E5.96949
G1 X108.396 Y85.843 E7.82680
G1 X99.647 Y85.843 E8.20651
G1 X99.647 Y128.363 E10.05188
G1 X99.607 Y128.898 E10.07517
G1 X99.488 Y129.421 E10.09844
G1 X99.293 Y129.920 E10.12170
G1 X99.025 Y130.385 E10.14499
G1 X98.692 Y130.805 E10.16825
G1 X98.300 Y131.171 E10.19153
G1 X97.858 Y131.474 E10.21478
G1 X97.375 Y131.709 E10.23810
G1 X96.864 Y131.869 E10.26133
G1 X96.334 Y131.952 E10.28462
G1 X96.047 Y131.963 E10.29708
G1 X85.326 Y131.963 E10.76238
G1 X84.791 Y131.923 E10.78566
G1 X84.268 Y131.804 E10.80894
G1 X83.769 Y131.609 E10.83219
G1 X83.304 Y131.341 E10.85548
G1 X82.884 Y131.008 E10.87874
G1 X82.518 Y130.616 E10.90202
G1 X82.215 Y130.174 E10.92528
G1 X81.980 Y129.691 E10.94859
G1 X81.820 Y129.180 E10.97183
G1 X81.737 Y128.650 E10.99511
G1 X81.726 Y128.363 E11.00758
G1 X81.726 Y85.723 E12.85816
G1 X80.190 Y85.723 E12.92482
G1 X79.655 Y85.683 E12.94811
G1 X79.132 Y85.564 E12.97138
G1 X78.633 Y85.369 E12.99464
G1 X78.168 Y85.101 E13.01793
G1 X77.748 Y84.768 E13.04119
G1 X77.382 Y84.376 E13.06447
G1 X77.079 Y83.934 E13.08772
G1 X76.844 Y83.451 E13.11104
G1 X76.684 Y82.940 E13.13427
G1 X76.601 Y82.410 E13.15756
G1 X76.590 Y82.123 E13.17002
G1 X76.590 Y70.056 E13.69373
G1 X76.630 Y69.521 E13.71702
G1 X76.749 Y68.998 E13.74029
G1 X76.944 Y68.499 E13.76355
G1 X77.212 Y68.034 E13.78684
G1 X77.545 Y67.614 E13.81010
G0 F7200.00000 X77.939 Y67.781
G1 F1200.000 X78.326 Y67.455 E13.83206
G1 X78.759 Y67.194 E13.85400
G1 X79.227 Y67.004 E13.87592
G1 X79.720 Y66.891 E13.89788
G1 X80.190 Y66.856 E13.91833
G1 X93.619 Y66.856 E14.50115
G1 X94.123 Y66.896 E14.52309
G1 X94.614 Y67.015 E14.54502
G1 X95.081 Y67.209 E14.56697
G1 X95.343 Y67.371 E14.58034
G1 X95.440 Y67.313 E14.58524
G1 X95.908 Y67.123 E14.60716
G1 X96.401 Y67.010 E14.62911
G1 X96.871 Y66.975 E14.64957
G1 X110.299 Y66.975 E15.23235
G1 X110.803 Y67.015 E15.25429
G1 X111.294 Y67.134 E15.27621
G1 X111.694 Y67.300 E15.29501
G1 X111.988 Y67.181 E15.30878
G1 X112.481 Y67.068 E15.33073
G1 X112.951 Y67.033 E15.35118
G1 X126.380 Y67.033 E15.93400
G1 X126.884 Y67.073 E15.95594
G1 X127.375 Y67.192 E15.97787
G1 X127.842 Y67.386 E15.99982
G1 X128.272 Y67.652 E16.02176
G1 X128.655 Y67.982 E16.04370
G1 X128.981 Y68.369 E16.06566
G1 X129.242 Y68.802 E16.08761
G1 X129.432 Y69.270 E16.10953
G1 X129.545 Y69.763 E16.13148
G1 X129.580 Y70.233 E16.15193
G1 X129.580 Y82.300 E16.67564
G1 X129.540 Y82.804 E16.69759
G1 X129.421 Y83.295 E16.71951
G1 X129.227 Y83.762 E16.74146
G1 X128.961 Y84.192 E16.76340
G1 X128.631 Y84.575 E16.78534
G1 X128.244 Y84.901 E16.80731
G1 X127.811 Y85.162 E16.82925
G1 X127.343 Y85.352 E16.85117
G1 X126.850 Y85.465 E16.87312
G1 X126.380 Y85.500 E16.89357
G1 X125.917 Y85.500 E16.91367
G1 X125.917 Y128.638 E18.78587
G1 X125.877 Y129.142 E18.80781
G1 X125.758 Y129.633 E18.82973
G1 X125.564 Y130.100 E18.85168
G1 X125.298 Y130.530 E18.87363
G1 X124.968 Y130.913 E18.89557
G1 X124.581 Y131.239 E18.91753
G1 X124.148 Y131.500 E18.93947
G1 X123.680 Y131.690 E18.96139
G1 X123.187 Y131.803 E18.98334
G1 X122.717 Y131.838 E19.00380
G1 X111.996 Y131.838 E19.46909
G1 X111.492 Y131.798 E19.49103
G1 X111.001 Y131.679 E19.51296
G1 X110.534 Y131.485 E19.53491
G1 X110.104 Y131.219 E19.55685
G1 X109.721 Y130.889 E19.57879
G1 X109.395 Y130.502 E19.60075
G1 X109.134 Y130.069 E19.62269
G1 X108.944 Y129.601 E19.64462
G1 X108.831 Y129.108 E19.66657
G1 X108.796 Y128.638 E19.68702
G1 X108.796 Y85.443 E21.56169
G1 X99.247 Y85.443 E21.97612
G1 X99.247 Y128.363 E23.83885
G1 X99.207 Y128.867 E23.86080
G1 X99.088 Y129.358 E23.88272
G1 X98.894 Y129.825 E23.90467
G1 X98.628 Y130.255 E23.92661
G1 X98.298 Y130.638 E23.94856
G1 X97.911 Y130.964 E23.97052
G1 X97.478 Y131.225 E23.99246
G1 X97.010 Y131.415 E24.01438
G1 X96.517 Y131.528 E24.03633
G1 X96.047 Y131.563 E24.05679
G1 X85.326 Y131.563 E24.52208
G1 X84.822 Y131.523 E24.54402
G1 X84.331 Y131.404 E24.56595
G1 X83.864 Y131.210 E24.58789
G1 X83.434 Y130.944 E24.60984
G1 X83.051 Y130.614 E24.63178
G1 X82.725 Y130.227 E24.65374
G1 X82.464 Y129.794 E24.67568
G1 X82.274 Y129.326 E24.69760
G1 X82.161 Y128.833 E24.71956
G1 X82.126 Y128.363 E24.74001
G1 X82.126 Y85.323 E26.60795
G1 X80.190 Y85.323 E26.69198
G1 X79.686 Y85.283 E26.71392
G1 X79.195 Y85.164 E26.73584
G1 X78.728 Y84.970 E26.75779
G1 X78.298 Y84.704 E26.77974
G1 X77.915 Y84.374 E26.80168
G1 X77.589 Y83.987 E26.82364
G1 X77.328 Y83.554 E26.84558
G1 X77.138 Y83.086 E26.86750
G1 X77.025 Y82.593 E26.88945
G1 X76.990 Y82.123 E26.90991
G1 X76.990 Y70.056 E27.43362
G1 X77.030 Y69.552 E27.45556
G1 X77.149 Y69.061 E27.47749
G1 X77.343 Y68.594 E27.49943
G1 X77.609 Y68.164 E27.52138
G1 X77.939 Y67.781 E27.54332
G1 F4200.00000 E21.14332
G1 Z0.500
G0 F7200.000 X113.551 Y70.833 Z0.500
;TYPE:WALL-INNER
G1 Z0.300
G1 F4200.000 E27.54332
G1 F1200.00000 X125.780 Y70.833 E28.07406
G1 X125.780 Y81.700 E28.54569
G1 X113.551 Y81.700 E29.07643
G1 X113.551 Y70.833 E29.54806
G0 F7200.00000 X113.651 Y70.903
G0 X116.433 Y73.207
G0 X116.505 Y73.275
G1 F1200.000 X116.278 Y73.537 E29.56310
G1 X116.072 Y73.813 E29.57805
G1 X115.897 Y74.091 E29.59231
G1 X115.736 Y74.398 E29.60735
G1 X115.609 Y74.694 E29.62133
G1 X115.496 Y75.022 E29.63639
G1 X115.411 Y75.351 E29.65114
G1 X115.356 Y75.672 E29.66527
G1 X115.323 Y76.008 E29.67992
G1 X115.316 Y76.346 E29.69459
G1 X115.336 Y76.697 E29.70985
G1 X115.381 Y77.017 E29.72388
G1 X115.454 Y77.359 E29.73905
G1 X115.548 Y77.670 E29.75316
G1 X115.673 Y77.995 E29.76827
G1 X115.971 Y78.616 E29.79816
G1 X123.360 Y78.616 E30.11885
G1 X123.658 Y77.995 E30.14874
G1 X123.783 Y77.670 E30.16385
G1 X123.877 Y77.359 E30.17795
G1 X123.950 Y77.017 E30.19313
G1 X123.995 Y76.697 E30.20715
G1 X124.015 Y76.346 E30.22241
G1 X124.008 Y76.008 E30.23708
G1 X123.975 Y75.672 E30.25174
G1 X123.918 Y75.348 E30.26602
G1 X123.832 Y75.013 E30.28103
G1 X123.725 Y74.701 E30.29534
G1 X123.595 Y74.398 E30.30965
G1 X123.434 Y74.091 E30.32470
G1 X123.259 Y73.813 E30.33895
G1 X123.053 Y73.537 E30.35390
G1 X122.826 Y73.275 E30.36894
G1 X122.584 Y73.041 E30.38355
G1 X122.338 Y72.833 E30.39754
G1 X122.059 Y72.632 E30.41246
G1 X121.775 Y72.461 E30.42685
G1 X121.467 Y72.307 E30.44179
G1 X121.155 Y72.179 E30.45643
G1 X120.826 Y72.074 E30.47142
G1 X120.511 Y71.999 E30.48547
G1 X120.171 Y71.945 E30.50041
G1 X119.828 Y71.919 E30.51534
G1 X119.503 Y71.919 E30.52944
G1 X119.160 Y71.945 E30.54437
G1 X118.820 Y71.999 E30.55931
G1 X118.504 Y72.074 E30.57341
G1 X118.171 Y72.180 E30.58858
G1 X117.871 Y72.303 E30.60265
G1 X117.556 Y72.461 E30.61794
G1 X117.272 Y72.632 E30.63233
G1 X116.993 Y72.833 E30.64725
G1 X116.747 Y73.041 E30.66123
G1 X116.505 Y73.275 E30.67584
G0 F7200.00000 X116.791 Y73.556
;TYPE:WALL-OUTER
G1 F1200.000 X116.590 Y73.787 E30.68913
G1 X116.407 Y74.033 E30.70244
G1 X116.244 Y74.292 E30.71572
G1 X116.101 Y74.564 E30.72906
G1 X115.980 Y74.845 E30.74234
G1 X115.880 Y75.135 E30.75565
G1 X115.804 Y75.432 E30.76896
G1 X115.752 Y75.733 E30.78221
G1 X115.722 Y76.038 E30.79551
G1 X115.716 Y76.345 E30.80884
G1 X115.734 Y76.651 E30.82214
G1 X115.776 Y76.954 E30.83542
G1 X115.841 Y77.254 E30.84874
G1 X115.929 Y77.547 E30.86202
G1 X116.039 Y77.833 E30.87532
G1 X116.223 Y78.216 E30.89376
G1 X123.108 Y78.216 E31.19257
G1 X123.292 Y77.833 E31.21101
G1 X123.402 Y77.547 E31.22431
G1 X123.490 Y77.254 E31.23759
G1 X123.555 Y76.954 E31.25091
G1 X123.597 Y76.651 E31.26418
G1 X123.615 Y76.345 E31.27749
G1 X123.609 Y76.038 E31.29081
G1 X123.579 Y75.733 E31.30411
G1 X123.527 Y75.432 E31.31737
G1 X123.450 Y75.135 E31.33069
G1 X123.351 Y74.845 E31.34399
G1 X123.230 Y74.564 E31.35726
G1 X123.087 Y74.292 E31.37060
G1 X122.924 Y74.033 E31.38388
G1 X122.741 Y73.787 E31.39719
G1 X122.540 Y73.556 E31.41048
G1 X122.320 Y73.342 E31.42380
G1 X122.086 Y73.145 E31.43707
G1 X121.837 Y72.966 E31.45038
G1 X121.575 Y72.808 E31.46366
G1 X121.301 Y72.670 E31.47698
G1 X121.016 Y72.554 E31.49033
G1 X120.725 Y72.461 E31.50359
G1 X120.427 Y72.390 E31.51689
G1 X120.124 Y72.342 E31.53020
G1 X119.819 Y72.319 E31.54347
G1 X119.512 Y72.319 E31.55680
G1 X119.207 Y72.342 E31.57007
G1 X118.904 Y72.390 E31.58339
G1 X118.605 Y72.461 E31.59672
G1 X118.314 Y72.554 E31.60998
G1 X118.030 Y72.670 E31.62330
G1 X117.756 Y72.808 E31.63661
G1 X117.494 Y72.966 E31.64989
G1 X117.245 Y73.145 E31.66320
G1 X117.011 Y73.342 E31.67648
G1 X116.791 Y73.556 E31.68980
G0 F7200.00000 X116.444 Y73.196
G0 X113.621 Y70.903
G0 X113.151 Y70.433
G1 F1200.000 X126.180 Y70.433 E32.25526
G1 X126.180 Y82.100 E32.76161
G1 X113.151 Y82.100 E33.32707
G1 X113.151 Y70.433 E33.83342
G0 F7200.00000 X113.984 Y70.992
;TYPE:SKIN
G1 F1200.000 X116.280 Y73.288 E33.97434
G0 X116.350 Y73.358
G0 F7200.000 X116.558 Y73.000
G1 F1200.000 X114.550 Y70.992 E34.09758
G0 X114.480 Y70.922
G0 F7200.000 X115.116 Y70.992
G1 F1200.000 X116.859 Y72.735 E34.20456
G0 X116.929 Y72.805
G0 F7200.000 X117.185 Y72.496
G1 F1200.000 X115.681 Y70.992 E34.29687
G0 X115.611 Y70.922
G0 F7200.000 X116.247 Y70.992
G1 F1200.000 X117.543 Y72.288 E34.37642
G0 X117.613 Y72.358
G0 F7200.000 X117.927 Y72.106
G1 F1200.000 X116.813 Y70.992 E34.44479
G0 X116.743 Y70.922
G0 F7200.000 X117.379 Y70.992
G1 F1200.000 X118.342 Y71.956 E34.50393
G0 X118.412 Y72.026
G0 F7200.000 X118.793 Y71.841
G1 F1200.000 X117.944 Y70.992 E34.55604
G0 X117.874 Y70.922
G0 F7200.000 X118.510 Y70.992
G1 F1200.000 X119.291 Y71.774 E34.60401
G0 X119.361 Y71.844
G0 F7200.000 X119.843 Y71.760
G1 F1200.000 X119.076 Y70.992 E34.65111
G0 X119.006 Y70.922
G0 F7200.000 X119.641 Y70.992
G1 F1200.000 X120.481 Y71.832 E34.70267
G0 X120.551 Y71.902
G0 F7200.000 X121.266 Y72.052
G1 F1200.000 X120.207 Y70.992 E34.76770
G0 X120.137 Y70.922
G0 F7200.000 X120.773 Y70.992
G1 F1200.000 X125.619 Y75.839 E35.06516
G0 X125.689 Y75.909
G0 F7200.000 X125.619 Y75.273
G1 F1200.000 X121.338 Y70.992 E35.32792
G0 X121.268 Y70.922
G0 F7200.000 X121.904 Y70.992
G1 F1200.000 X125.619 Y74.707 E35.55593
G0 X125.689 Y74.777
G0 F7200.000 X125.619 Y74.142
G1 F1200.000 X122.470 Y70.992 E35.74924
G0 X122.400 Y70.922
G0 F7200.000 X123.035 Y70.992
G1 F1200.000 X125.619 Y73.576 E35.90784
G0 X125.689 Y73.646
G0 F7200.000 X125.619 Y73.010
G1 F1200.000 X123.601 Y70.992 E36.03170
G0 X123.531 Y70.922
G0 F7200.000 X124.167 Y70.992
G1 F1200.000 X125.619 Y72.445 E36.12085
G0 X125.689 Y72.515
G0 F7200.000 X125.619 Y71.879
G1 F1200.000 X124.732 Y70.992 E36.17529
G0 X124.662 Y70.922
G0 F7200.000 X125.298 Y70.992
G1 F1200.000 X125.619 Y71.313 E36.19499
G0 F7200.00000 X123.882 Y74.667
G1 F1200.000 X125.619 Y76.405 E36.30163
G0 X125.689 Y76.475
G0 F7200.000 X125.619 Y76.970
G1 F1200.000 X124.096 Y75.447 E36.39511
G0 X124.026 Y75.377
G0 F7200.000 X124.169 Y76.086
G1 F1200.000 X125.619 Y77.536 E36.48411
G0 X125.689 Y77.606
G0 F7200.000 X125.619 Y78.102
G1 F1200.000 X124.157 Y76.639 E36.57387
G0 X124.087 Y76.569
G0 F7200.000 X124.087 Y77.135
G1 F1200.000 X125.619 Y78.667 E36.66790
G0 X125.689 Y78.737
G0 F7200.000 X125.619 Y79.233
G1 F1200.000 X123.974 Y77.587 E36.76890
G0 X123.904 Y77.517
G0 F7200.000 X123.825 Y78.004
G1 F1200.000 X125.619 Y79.799 E36.87904
G0 X125.689 Y79.869
G0 F7200.000 X125.619 Y80.364
G1 F1200.000 X123.644 Y78.389 E37.00026
G0 X123.574 Y78.319
G0 F7200.000 X123.461 Y78.772
G1 F1200.000 X125.619 Y80.930 E37.13271
G0 X125.689 Y81.000
G0 F7200.000 X125.619 Y81.496
G1 F1200.000 X122.899 Y78.775 E37.29969
G0 X122.829 Y78.705
G0 F7200.000 X122.333 Y78.775
G1 F1200.000 X125.097 Y81.540 E37.46936
G0 X125.167 Y81.610
G0 F7200.000 X124.532 Y81.540
G1 F1200.000 X121.768 Y78.775 E37.63904
G0 X121.698 Y78.705
G0 F7200.000 X121.202 Y78.775
G1 F1200.000 X123.966 Y81.540 E37.80872
G0 X124.036 Y81.610
G0 F7200.000 X123.400 Y81.540
G1 F1200.000 X120.636 Y78.775 E37.97840
G0 X120.566 Y78.705
G0 F7200.000 X120.070 Y78.775
G1 F1200.000 X122.835 Y81.540 E38.14810
G0 X122.905 Y81.610
G0 F7200.000 X122.269 Y81.540
G1 F1200.000 X119.505 Y78.775 E38.31778
G0 X119.435 Y78.705
G0 F7200.000 X118.939 Y78.775
G1 F1200.000 X121.703 Y81.540 E38.48746
G0 X121.773 Y81.610
G0 F7200.000 X121.137 Y81.540
G1 F1200.000 X118.373 Y78.775 E38.65713
G0 X118.303 Y78.705
G0 F7200.000 X117.808 Y78.775
G1 F1200.000 X120.572 Y81.540 E38.82681
G0 X120.642 Y81.610
G0 F7200.000 X120.006 Y81.540
G1 F1200.000 X117.242 Y78.775 E38.99649
G0 X117.172 Y78.705
G0 F7200.000 X116.676 Y78.775
G1 F1200.000 X119.440 Y81.540 E39.16616
G0 X119.510 Y81.610
G0 F7200.000 X118.875 Y81.540
G1 F1200.000 X116.111 Y78.775 E39.33584
G0 X116.041 Y78.705
G0 F7200.000 X115.645 Y78.310
G1 F1200.000 X113.710 Y76.375 E39.45461
G0 X113.640 Y76.305
G0 F7200.000 X113.710 Y76.940
G1 F1200.000 X118.309 Y81.540 E39.73691
G0 X118.379 Y81.610
G0 F7200.000 X117.743 Y81.540
G1 F1200.000 X113.710 Y77.506 E39.98447
G0 X113.640 Y77.436
G0 F7200.000 X113.710 Y78.072
G1 F1200.000 X117.178 Y81.540 E40.19733
G0 X117.248 Y81.610
G0 F7200.000 X116.612 Y81.540
