	;FLAVOR:RepRap
;TIME:1482
M190 S50.000000
M104 S210.000000
M109 S210.000000
M109 S210.000000
M109 S210.000000
G21 ;metric values
G90 ;absolute positioning
M82 ;set extruder to absolute mode
M107 ;start with the fan off
G92 X0 Y0 Z0 ;Zero X Y and Z axis
G1 Z15.0 F9000 ;move the platform down 15mm
G92 E0 ;zero the extruded length
G1 F200 E3 ;extrude 3mm of feed stock
G92 E0 ;zero the extruded length again
G1 F9000
;Put printing message on LCD screen
M117 Printing...
;Generated with Cura_SteamEngine 2.1.3
;LAYER_COUNT:13
;LAYER:0
M107
G1 F4200.000000 E-6.40000
G1 Z20.200
G0 F7200.000 X94.136 Y56.023 Z0.500
;TYPE:SKIRT
G1 Z0.300
G1 F4200.000 E0.00000
G1 F1200.00000 X94.469 Y55.603 E0.02326
G1 X94.861 Y55.237 E0.04654
G1 X95.303 Y54.934 E0.06980
G1 X95.786 Y54.699 E0.09311
G1 X96.297 Y54.539 E0.11635
G1 X96.827 Y54.456 E0.13963
G1 X97.114 Y54.445 E0.15209
G1 X112.887 Y54.445 E0.83664
G1 X113.422 Y54.485 E0.85993
G1 X113.945 Y54.604 E0.88321
G1 X114.444 Y54.799 E0.90646
G1 X114.909 Y55.067 E0.92975
G1 X115.329 Y55.400 E0.95301
G1 X115.695 Y55.792 E0.97629
G1 X115.998 Y56.234 E0.99955
G1 X116.233 Y56.717 E1.02286
G1 X116.393 Y57.228 E1.04610
G1 X116.476 Y57.758 E1.06938
G1 X116.487 Y58.045 E1.08184
G1 X116.487 Y72.909 E1.72694
G1 X121.684 Y72.909 E1.95250
G1 X122.219 Y72.949 E1.97578
G1 X122.742 Y73.068 E1.99906
G1 X123.241 Y73.263 E2.02231
G1 X123.706 Y73.531 E2.04560
G1 X124.126 Y73.864 E2.06886
G1 X124.492 Y74.256 E2.09214
G1 X124.795 Y74.698 E2.11540
G1 X125.030 Y75.181 E2.13871
G1 X125.190 Y75.692 E2.16195
G1 X125.273 Y76.222 E2.18523
G1 X125.284 Y76.509 E2.19770
G1 X125.284 Y119.910 E4.08131
G1 X125.244 Y120.445 E4.10459
G1 X125.125 Y120.968 E4.12787
G1 X124.930 Y121.467 E4.15112
G1 X124.662 Y121.932 E4.17441
G1 X124.329 Y122.352 E4.19768
G1 X123.937 Y122.718 E4.22095
G1 X123.495 Y123.021 E4.24421
G1 X123.012 Y123.256 E4.26752
G1 X122.501 Y123.416 E4.29076
G1 X121.971 Y123.499 E4.31404
G1 X121.684 Y123.510 E4.32651
G1 X110.963 Y123.510 E4.79180
G1 X110.428 Y123.470 E4.81508
G1 X109.905 Y123.351 E4.83836
G1 X109.406 Y123.156 E4.86161
G1 X108.941 Y122.888 E4.88491
G1 X108.521 Y122.555 E4.90817
G1 X108.155 Y122.163 E4.93144
G1 X107.852 Y121.721 E4.95470
G1 X107.617 Y121.238 E4.97801
G1 X107.457 Y120.727 E5.00125
G1 X107.374 Y120.197 E5.02454
G1 X107.363 Y119.910 E5.03700
G1 X107.363 Y78.455 E6.83615
G1 X103.215 Y78.455 E7.01618
G1 X103.215 Y120.976 E8.86160
G1 X103.175 Y121.511 E8.88488
G1 X103.056 Y122.034 E8.90816
G1 X102.861 Y122.533 E8.93141
G1 X102.593 Y122.998 E8.95470
G1 X102.260 Y123.418 E8.97796
G1 X101.868 Y123.784 E9.00124
G1 X101.426 Y124.087 E9.02450
G1 X100.943 Y124.322 E9.04781
G1 X100.432 Y124.482 E9.07105
G1 X99.902 Y124.565 E9.09433
G1 X99.615 Y124.576 E9.10680
G1 X88.893 Y124.576 E9.57213
G1 X88.358 Y124.536 E9.59542
G1 X87.835 Y124.417 E9.61870
G1 X87.336 Y124.222 E9.64195
G1 X86.871 Y123.954 E9.66524
G1 X86.451 Y123.621 E9.68850
G1 X86.085 Y123.229 E9.71178
G1 X85.782 Y122.787 E9.73504
G1 X85.547 Y122.304 E9.75835
G1 X85.387 Y121.793 E9.78159
G1 X85.304 Y121.263 E9.80487
G1 X85.293 Y120.976 E9.81733
G1 X85.293 Y77.575 E11.70094
G1 X85.333 Y77.040 E11.72423
G1 X85.452 Y76.517 E11.74751
G1 X85.647 Y76.018 E11.77076
G1 X85.915 Y75.553 E11.79405
G1 X86.248 Y75.133 E11.81731
G1 X86.640 Y74.767 E11.84059
G1 X87.082 Y74.464 E11.86385
G1 X87.565 Y74.229 E11.88716
G1 X88.076 Y74.069 E11.91040
G1 X88.606 Y73.986 E11.93368
G1 X88.893 Y73.975 E11.94614
G1 X93.514 Y73.975 E12.14670
G1 X93.514 Y58.045 E12.83806
G1 X93.554 Y57.510 E12.86134
G1 X93.673 Y56.987 E12.88462
G1 X93.868 Y56.488 E12.90787
G1 X94.136 Y56.023 E12.93117
G0 F7200.00000 X94.533 Y56.153
G1 F1200.000 X94.863 Y55.770 E12.95311
G1 X95.250 Y55.444 E12.97507
G1 X95.683 Y55.183 E12.99701
G1 X96.151 Y54.993 E13.01893
G1 X96.644 Y54.880 E13.04088
G1 X97.114 Y54.845 E13.06134
G1 X112.887 Y54.845 E13.74589
G1 X113.391 Y54.885 E13.76783
G1 X113.882 Y55.004 E13.78976
G1 X114.349 Y55.198 E13.81171
G1 X114.779 Y55.464 E13.83365
G1 X115.162 Y55.794 E13.85559
G1 X115.488 Y56.181 E13.87755
G1 X115.749 Y56.614 E13.89949
G1 X115.939 Y57.082 E13.92142
G1 X116.052 Y57.575 E13.94337
G1 X116.087 Y58.045 E13.96382
G1 X116.087 Y73.309 E14.62628
G1 X121.684 Y73.309 E14.86919
G1 X122.188 Y73.349 E14.89113
G1 X122.679 Y73.468 E14.91306
G1 X123.146 Y73.662 E14.93501
G1 X123.576 Y73.928 E14.95695
G1 X123.959 Y74.258 E14.97889
G1 X124.285 Y74.645 E15.00085
G1 X124.546 Y75.078 E15.02280
G1 X124.736 Y75.546 E15.04472
G1 X124.849 Y76.039 E15.06667
G1 X124.884 Y76.509 E15.08712
G1 X124.884 Y119.910 E16.97073
G1 X124.844 Y120.414 E16.99268
G1 X124.725 Y120.905 E17.01460
G1 X124.531 Y121.372 E17.03655
G1 X124.265 Y121.802 E17.05849
G1 X123.935 Y122.185 E17.08044
G1 X123.548 Y122.511 E17.10240
G1 X123.115 Y122.772 E17.12434
G1 X122.647 Y122.962 E17.14626
G1 X122.154 Y123.075 E17.16821
G1 X121.684 Y123.110 E17.18867
G1 X110.963 Y123.110 E17.65396
G1 X110.459 Y123.070 E17.67590
G1 X109.968 Y122.951 E17.69783
G1 X109.501 Y122.757 E17.71977
G1 X109.071 Y122.491 E17.74172
G1 X108.688 Y122.161 E17.76366
G1 X108.362 Y121.774 E17.78562
G1 X108.101 Y121.341 E17.80756
G1 X107.911 Y120.873 E17.82948
G1 X107.798 Y120.380 E17.85144
G1 X107.763 Y119.910 E17.87189
G1 X107.763 Y78.055 E19.68840
G1 X102.815 Y78.055 E19.90315
G1 X102.815 Y120.976 E21.76593
G1 X102.775 Y121.480 E21.78787
G1 X102.656 Y121.971 E21.80979
G1 X102.462 Y122.438 E21.83174
G1 X102.196 Y122.868 E21.85369
G1 X101.866 Y123.251 E21.87563
G1 X101.479 Y123.577 E21.89759
G1 X101.046 Y123.838 E21.91953
G1 X100.578 Y124.028 E21.94145
G1 X100.085 Y124.141 E21.96340
G1 X99.615 Y124.176 E21.98386
G1 X88.893 Y124.176 E22.44919
G1 X88.389 Y124.136 E22.47114
G1 X87.898 Y124.017 E22.49306
G1 X87.431 Y123.823 E22.51501
G1 X87.001 Y123.557 E22.53695
G1 X86.618 Y123.227 E22.55890
G1 X86.292 Y122.840 E22.58086
G1 X86.031 Y122.407 E22.60280
G1 X85.841 Y121.939 E22.62472
G1 X85.728 Y121.446 E22.64667
G1 X85.693 Y120.976 E22.66713
G1 X85.693 Y77.575 E24.55074
G1 X85.733 Y77.071 E24.57268
G1 X85.852 Y76.580 E24.59460
G1 X86.046 Y76.113 E24.61655
G1 X86.312 Y75.683 E24.63850
G1 X86.642 Y75.300 E24.66044
G1 X87.029 Y74.974 E24.68240
G1 X87.462 Y74.713 E24.70434
G1 X87.930 Y74.523 E24.72626
G1 X88.423 Y74.410 E24.74821
G1 X88.893 Y74.375 E24.76867
G1 X93.914 Y74.375 E24.98658
G1 X93.914 Y58.045 E25.69530
G1 X93.954 Y57.541 E25.71725
G1 X94.073 Y57.050 E25.73917
G1 X94.267 Y56.583 E25.76112
G1 X94.533 Y56.153 E25.78306
G1 F4200.00000 E19.38306
G1 Z0.500
G0 F7200.000 X111.563 Y77.109 Z0.500
;TYPE:WALL-INNER
G1 Z0.300
G1 F4200.000 E25.78306
G1 F1200.00000 X121.084 Y77.109 E26.19628
G1 X121.084 Y119.310 E28.02781
G1 X111.563 Y119.310 E28.44102
G1 X111.563 Y77.109 E30.27255
G0 F7200.00000 X111.663 Y77.179
G0 X114.247 Y79.351
G0 X114.316 Y79.422
G1 F1200.000 X114.014 Y79.767 E30.29245
G1 X113.763 Y80.157 E30.31258
G1 X113.580 Y80.575 E30.33238
G1 X113.459 Y81.020 E30.35240
G1 X113.410 Y81.475 E30.37226
G1 X113.429 Y81.940 E30.39246
G1 X113.517 Y82.382 E30.41201
G1 X113.676 Y82.815 E30.43203
G1 X113.898 Y83.219 E30.45204
G1 X114.179 Y83.584 E30.47203
G1 X114.516 Y83.902 E30.49214
G1 X114.885 Y84.161 E30.51171
G1 X115.301 Y84.364 E30.53180
G1 X115.743 Y84.501 E30.55188
G1 X116.195 Y84.568 E30.57171
G1 X116.653 Y84.566 E30.59159
G1 X117.112 Y84.493 E30.61176
G1 X117.542 Y84.354 E30.63137
G1 X117.960 Y84.145 E30.65166
G1 X118.331 Y83.878 E30.67149
G1 X118.657 Y83.562 E30.69120
G1 X118.936 Y83.191 E30.71134
G1 X119.151 Y82.790 E30.73109
G1 X119.307 Y82.351 E30.75131
G1 X119.390 Y81.904 E30.77104
G1 X119.407 Y81.446 E30.79093
G1 X119.352 Y80.985 E30.81108
G1 X119.227 Y80.545 E30.83093
G1 X119.037 Y80.125 E30.85094
G1 X118.785 Y79.744 E30.87077
G1 X118.477 Y79.401 E30.89077
G1 X118.121 Y79.110 E30.91073
G1 X117.724 Y78.877 E30.93071
G1 X117.303 Y78.710 E30.95036
G1 X116.851 Y78.608 E30.97047
G1 X116.386 Y78.574 E30.99071
G1 X115.951 Y78.608 E31.00964
G1 X115.483 Y78.720 E31.03053
G1 X115.065 Y78.891 E31.05013
G1 X114.669 Y79.129 E31.07018
G1 X114.316 Y79.422 E31.09009
G0 F7200.00000 X114.247 Y79.351
G0 X113.728 Y80.139
G0 X113.420 Y81.013
G0 X113.390 Y81.944
G0 X116.382 Y110.532
G0 X116.388 Y110.612
G0 X116.386 Y110.573
G1 F1200.000 X115.951 Y110.607 E31.10903
G1 X115.483 Y110.719 E31.12991
G1 X115.065 Y110.890 E31.14951
G1 X114.669 Y111.128 E31.16957
G1 X114.316 Y111.421 E31.18948
G1 X114.014 Y111.766 E31.20938
G1 X113.763 Y112.156 E31.22950
G1 X113.580 Y112.574 E31.24931
G1 X113.459 Y113.019 E31.26932
G1 X113.410 Y113.474 E31.28918
G1 X113.429 Y113.939 E31.30938
G1 X113.517 Y114.381 E31.32894
G1 X113.676 Y114.814 E31.34896
G1 X113.898 Y115.218 E31.36897
G1 X114.179 Y115.583 E31.38896
G1 X114.516 Y115.901 E31.40907
G1 X114.885 Y116.160 E31.42863
G1 X115.301 Y116.363 E31.44872
G1 X115.743 Y116.500 E31.46881
G1 X116.195 Y116.567 E31.48864
G1 X116.653 Y116.565 E31.50851
G1 X117.112 Y116.492 E31.52869
G1 X117.542 Y116.353 E31.54830
G1 X117.960 Y116.144 E31.56858
G1 X118.331 Y115.877 E31.58842
G1 X118.657 Y115.561 E31.60812
G1 X118.936 Y115.190 E31.62827
G1 X119.151 Y114.789 E31.64802
G1 X119.307 Y114.350 E31.66824
G1 X119.390 Y113.903 E31.68797
G1 X119.407 Y113.445 E31.70786
G1 X119.352 Y112.984 E31.72801
G1 X119.227 Y112.544 E31.74786
G1 X119.037 Y112.124 E31.76787
G1 X118.785 Y111.743 E31.78769
G1 X118.477 Y111.400 E31.80770
G1 X118.121 Y111.109 E31.82765
G1 X117.724 Y110.876 E31.84763
G1 X117.303 Y110.709 E31.86729
G1 X116.851 Y110.607 E31.88740
G1 X116.386 Y110.573 E31.90763
G0 F7200.00000 X116.394 Y110.974
;TYPE:WALL-OUTER
G1 F1200.000 X116.011 Y111.004 E31.92431
G1 X115.610 Y111.100 E31.94220
G1 X115.242 Y111.251 E31.95947
G1 X114.902 Y111.455 E31.97667
G1 X114.595 Y111.710 E31.99399
G1 X114.333 Y112.009 E32.01125
G1 X114.118 Y112.344 E32.02852
G1 X113.958 Y112.708 E32.04578
G1 X113.854 Y113.093 E32.06309
G1 X113.810 Y113.488 E32.08034
G1 X113.827 Y113.886 E32.09763
G1 X113.905 Y114.276 E32.11489
G1 X114.042 Y114.650 E32.13217
G1 X114.234 Y114.998 E32.14942
G1 X114.477 Y115.314 E32.16672
G1 X114.765 Y115.587 E32.18395
G1 X115.092 Y115.816 E32.20127
G1 X115.450 Y115.990 E32.21855
G1 X115.830 Y116.109 E32.23583
G1 X116.224 Y116.167 E32.25311
G1 X116.621 Y116.165 E32.27034
G1 X117.015 Y116.102 E32.28766
G1 X117.394 Y115.980 E32.30494
G1 X117.750 Y115.802 E32.32221
G1 X118.072 Y115.570 E32.33944
G1 X118.358 Y115.294 E32.35669
G1 X118.598 Y114.974 E32.37405
G1 X118.785 Y114.624 E32.39127
G1 X118.919 Y114.249 E32.40855
G1 X118.992 Y113.858 E32.42582
G1 X119.006 Y113.461 E32.44306
G1 X118.959 Y113.065 E32.46036
G1 X118.850 Y112.681 E32.47769
G1 X118.686 Y112.319 E32.49494
G1 X118.467 Y111.987 E32.51220
G1 X118.201 Y111.691 E32.52947
G1 X117.892 Y111.439 E32.54677
G1 X117.549 Y111.238 E32.56403
G1 X117.179 Y111.091 E32.58131
G1 X116.792 Y111.003 E32.59853
G1 X116.394 Y110.974 E32.61585
G0 F7200.00000 X116.430 Y110.477
G0 X117.314 Y110.671
G0 X118.143 Y111.077
G0 X118.816 Y111.719
G0 X119.264 Y112.531
G0 X121.014 Y119.240
G0 X121.484 Y119.710
G1 F1200.000 X111.163 Y119.710 E33.06378
G1 X111.163 Y76.709 E34.93003
G1 X121.484 Y76.709 E35.37797
G1 X121.484 Y119.710 E37.24422
G0 F7200.00000 X120.984 Y119.240
G0 X116.698 Y84.660
G0 X116.621 Y84.166
G1 F1200.000 X117.015 Y84.103 E37.26153
G1 X117.394 Y83.981 E37.27881
G1 X117.750 Y83.803 E37.29609
G1 X118.072 Y83.571 E37.31331
G1 X118.358 Y83.295 E37.33056
G1 X118.598 Y82.975 E37.34792
G1 X118.785 Y82.625 E37.36514
G1 X118.919 Y82.250 E37.38243
G1 X118.992 Y81.859 E37.39969
G1 X119.006 Y81.462 E37.41693
G1 X118.959 Y81.066 E37.43424
G1 X118.850 Y80.682 E37.45156
G1 X118.686 Y80.320 E37.46881
G1 X118.467 Y79.988 E37.48607
G1 X118.201 Y79.692 E37.50334
G1 X117.892 Y79.440 E37.52065
G1 X117.549 Y79.239 E37.53790
G1 X117.179 Y79.092 E37.55518
G1 X116.792 Y79.004 E37.57240
G1 X116.394 Y78.975 E37.58972
G1 X116.011 Y79.005 E37.60640
G1 X115.610 Y79.101 E37.62429
G1 X115.242 Y79.252 E37.64156
G1 X114.902 Y79.456 E37.65876
G1 X114.595 Y79.711 E37.67608
G1 X114.333 Y80.010 E37.69334
G1 X114.118 Y80.345 E37.71061
G1 X113.958 Y80.709 E37.72787
G1 X113.854 Y81.094 E37.74518
G1 X113.810 Y81.489 E37.76243
G1 X113.827 Y81.887 E37.77972
G1 X113.905 Y82.277 E37.79698
G1 X114.042 Y82.651 E37.81426
G1 X114.234 Y82.999 E37.83151
G1 X114.477 Y83.315 E37.84881
G1 X114.765 Y83.588 E37.86604
G1 X115.092 Y83.817 E37.88336
G1 X115.450 Y83.991 E37.90064
G1 X115.830 Y84.110 E37.91792
G1 X116.224 Y84.168 E37.93520
G1 X116.621 Y84.166 E37.95243
G0 F7200.00000 X116.927 Y84.683
;TYPE:SKIN
G1 F1200.000 X120.923 Y88.678 E38.19767
G0 X120.993 Y88.748
G0 F7200.000 X120.923 Y88.113
G1 F1200.000 X117.383 Y84.574 E38.41491
G0 X117.313 Y84.504
G0 F7200.000 X117.786 Y84.410
G1 F1200.000 X120.923 Y87.547 E38.60745
G0 X120.993 Y87.617
G0 F7200.000 X120.923 Y86.981
G1 F1200.000 X118.148 Y84.207 E38.77774
G0 X118.078 Y84.137
G0 F7200.000 X118.471 Y83.964
G1 F1200.000 X120.923 Y86.416 E38.92824
G0 X120.993 Y86.486
G0 F7200.000 X120.923 Y85.850
G1 F1200.000 X118.758 Y83.686 E39.06109
G0 X118.688 Y83.616
G0 F7200.000 X119.003 Y83.365
G1 F1200.000 X120.923 Y85.284 E39.17890
G0 X120.993 Y85.354
G0 F7200.000 X120.923 Y84.719
G1 F1200.000 X119.213 Y83.009 E39.28386
G0 X119.143 Y82.939
G0 F7200.000 X119.382 Y82.612
G1 F1200.000 X120.923 Y84.153 E39.37844
G0 X120.993 Y84.223
G0 F7200.000 X120.923 Y83.587
G1 F1200.000 X119.502 Y82.167 E39.46562
G0 X119.432 Y82.097
G0 F7200.000 X119.557 Y81.656
G1 F1200.000 X120.923 Y83.022 E39.54947
G0 X120.993 Y83.092
G0 F7200.000 X120.923 Y82.456
G1 F1200.000 X119.520 Y81.053 E39.63558
G0 X119.450 Y80.983
G0 F7200.000 X119.259 Y80.226
G1 F1200.000 X120.923 Y81.890 E39.73771
G0 X120.993 Y81.960
G0 F7200.000 X120.923 Y81.325
G1 F1200.000 X116.867 Y77.269 E39.98665
G0 X116.797 Y77.199
G0 F7200.000 X117.432 Y77.269
G1 F1200.000 X120.923 Y80.759 E40.20089
G0 X120.993 Y80.829
G0 F7200.000 X120.923 Y80.193
G1 F1200.000 X117.998 Y77.269 E40.38039
G0 X117.928 Y77.199
G0 F7200.000 X118.564 Y77.269
G1 F1200.000 X120.923 Y79.628 E40.52518
G0 X120.993 Y79.698
G0 F7200.000 X120.923 Y79.062
G1 F1200.000 X119.129 Y77.269 E40.63526
G0 X119.059 Y77.199
G0 F7200.000 X119.695 Y77.269
G1 F1200.000 X120.923 Y78.496 E40.71060
G0 X120.993 Y78.566
G0 F7200.000 X120.923 Y77.930
G1 F1200.000 X120.261 Y77.269 E40.75120
G0 X120.191 Y77.199
G0 F7200.000 X120.826 Y77.269
G1 F1200.000 X120.923 Y77.365 E40.75712
G0 F7200.00000 X117.746 Y78.713
G1 F1200.000 X116.301 Y77.269 E40.84578
G0 X116.231 Y77.199
G0 F7200.000 X115.735 Y77.269
G1 F1200.000 X116.928 Y78.461 E40.91897
G0 X116.998 Y78.531
G0 F7200.000 X116.318 Y78.417
G1 F1200.000 X115.170 Y77.269 E40.98943
G0 X115.100 Y77.199
G0 F7200.000 X114.604 Y77.269
G1 F1200.000 X115.812 Y78.476 E41.06355
G0 X115.882 Y78.546
G0 F7200.000 X115.364 Y78.594
G1 F1200.000 X114.038 Y77.269 E41.14490
G0 X113.968 Y77.199
G0 F7200.000 X113.472 Y77.269
G1 F1200.000 X114.966 Y78.762 E41.23657
G0 X115.036 Y78.832
G0 F7200.000 X114.612 Y78.974
G1 F1200.000 X112.907 Y77.269 E41.34122
G0 X112.837 Y77.199
G0 F7200.000 X112.341 Y77.269
G1 F1200.000 X114.298 Y79.226 E41.46133
G0 X114.368 Y79.296
G0 F7200.000 X114.021 Y79.514
G1 F1200.000 X111.775 Y77.269 E41.59915
G0 X111.705 Y77.199
G0 F7200.000 X111.722 Y77.781
G1 F1200.000 X113.778 Y79.837 E41.72534
G0 X113.848 Y79.907
G0 F7200.000 X113.571 Y80.195
G1 F1200.000 X111.722 Y78.346 E41.83883
G0 X111.652 Y78.276
G0 F7200.000 X111.722 Y78.912
G1 F1200.000 X113.407 Y80.597 E41.94225
G0 X113.477 Y80.667
G0 F7200.000 X113.294 Y81.050
G1 F1200.000 X111.722 Y79.478 E42.03874
G0 X111.652 Y79.408
G0 F7200.000 X111.722 Y80.043
G1 F1200.000 X113.253 Y81.575 E42.13274
