;FLAVOR:RepRap
;TIME:760
M190 S50.000000
M104 S210.000000
M109 S210.000000
M109 S210.000000
M109 S210.000000
M109 S210.000000
M109 S210.000000
M109 S210.000000
G21 ;metric values
G90 ;absolute positioning
M82 ;set extruder to absolute mode
M107 ;start with the fan off
G92 X0 Y0 Z0 ;Zero X Y and Z axis
G1 Z15.0 F9000 ;move the platform down 15mm
G92 E0 ;zero the extruded length
G1 F200 E3 ;extrude 3mm of feed stock
G92 E0 ;zero the extruded length again
G1 F9000
;Put printing message on LCD screen
M117 Printing...
;Generated with Cura_SteamEngine 2.1.3
;LAYER_COUNT:7
;LAYER:0
M107
G1 F4200.000000 E-6.40000
G1 Z20.200
G0 F7200.000 X51.649 Y90.856 Z0.500
;TYPE:SKIRT
G1 Z0.300
G1 F4200.000 E0.00000
G1 F1200.00000 X52.132 Y90.621 E0.02331
G1 X52.643 Y90.461 E0.04655
G1 X53.173 Y90.378 E0.06983
G1 X53.460 Y90.367 E0.08230
G1 X66.889 Y90.367 E0.66512
G1 X67.424 Y90.407 E0.68840
G1 X67.722 Y90.475 E0.70167
G1 X67.766 Y90.461 E0.70367
G1 X68.296 Y90.378 E0.72696
G1 X68.583 Y90.367 E0.73942
G1 X82.011 Y90.367 E1.32220
G1 X82.546 Y90.407 E1.34548
G1 X83.069 Y90.526 E1.36876
G1 X83.415 Y90.661 E1.38488
G1 X83.685 Y90.619 E1.39674
G1 X83.972 Y90.608 E1.40920
G1 X97.401 Y90.608 E1.99202
G1 X97.936 Y90.648 E2.01531
G1 X98.142 Y90.695 E2.02448
G1 X98.407 Y90.612 E2.03653
G1 X98.937 Y90.529 E2.05981
G1 X99.224 Y90.518 E2.07228
G1 X112.652 Y90.518 E2.65505
G1 X113.187 Y90.558 E2.67834
G1 X113.710 Y90.677 E2.70162
G1 X114.093 Y90.827 E2.71947
G1 X114.428 Y90.774 E2.73419
G1 X114.715 Y90.763 E2.74665
G1 X128.144 Y90.763 E3.32947
G1 X128.679 Y90.803 E3.35276
G1 X128.926 Y90.859 E3.36375
G1 X129.358 Y90.649 E3.38460
G1 X129.869 Y90.489 E3.40784
G1 X130.399 Y90.406 E3.43112
G1 X130.686 Y90.395 E3.44358
G1 X144.115 Y90.395 E4.02640
G1 X144.650 Y90.435 E4.04969
G1 X145.173 Y90.554 E4.07297
G1 X145.672 Y90.749 E4.09622
G1 X146.137 Y91.017 E4.11951
G1 X146.557 Y91.350 E4.14277
G1 X146.923 Y91.742 E4.16605
G1 X147.226 Y92.184 E4.18931
G1 X147.461 Y92.667 E4.21262
G1 X147.621 Y93.178 E4.23586
G1 X147.704 Y93.708 E4.25914
G1 X147.715 Y93.995 E4.27160
G1 X147.715 Y106.061 E4.79527
G1 X147.675 Y106.596 E4.81855
G1 X147.556 Y107.119 E4.84183
G1 X147.361 Y107.618 E4.86508
G1 X147.093 Y108.083 E4.88838
G1 X146.760 Y108.503 E4.91164
G1 X146.368 Y108.869 E4.93492
G1 X145.926 Y109.172 E4.95817
G1 X145.443 Y109.407 E4.98148
G1 X144.932 Y109.567 E5.00472
G1 X144.402 Y109.650 E5.02801
G1 X144.115 Y109.661 E5.04047
G1 X130.686 Y109.661 E5.62329
G1 X130.151 Y109.621 E5.64658
G1 X129.904 Y109.565 E5.65757
G1 X129.472 Y109.775 E5.67841
G1 X128.961 Y109.935 E5.70165
G1 X128.431 Y110.018 E5.72494
G1 X128.144 Y110.029 E5.73740
G1 X114.715 Y110.029 E6.32022
G1 X114.180 Y109.989 E6.34351
G1 X113.657 Y109.870 E6.36678
G1 X113.274 Y109.720 E6.38464
G1 X112.939 Y109.773 E6.39936
G1 X112.652 Y109.784 E6.41182
G1 X99.224 Y109.784 E6.99460
G1 X98.689 Y109.744 E7.01788
G1 X98.483 Y109.697 E7.02705
G1 X98.218 Y109.780 E7.03910
G1 X97.688 Y109.863 E7.06239
G1 X97.401 Y109.874 E7.07485
G1 X83.972 Y109.874 E7.65767
G1 X83.437 Y109.834 E7.68096
G1 X82.914 Y109.715 E7.70423
G1 X82.568 Y109.580 E7.72035
G1 X82.298 Y109.622 E7.73221
G1 X82.011 Y109.633 E7.74468
G1 X68.583 Y109.633 E8.32745
G1 X68.048 Y109.593 E8.35074
G1 X67.750 Y109.525 E8.36400
G1 X67.706 Y109.539 E8.36601
G1 X67.176 Y109.622 E8.38929
G1 X66.889 Y109.633 E8.40176
G1 X53.460 Y109.633 E8.98458
G1 X52.925 Y109.593 E9.00786
G1 X52.402 Y109.474 E9.03114
G1 X51.903 Y109.279 E9.05439
G1 X51.438 Y109.011 E9.07768
G1 X51.018 Y108.678 E9.10095
G1 X50.652 Y108.286 E9.12422
G1 X50.349 Y107.844 E9.14748
G1 X50.114 Y107.361 E9.17079
G1 X49.954 Y106.850 E9.19403
G1 X49.871 Y106.320 E9.21731
G1 X49.860 Y106.033 E9.22978
G1 X49.860 Y93.967 E9.75344
G1 X49.900 Y93.432 E9.77673
G1 X50.019 Y92.909 E9.80001
G1 X50.214 Y92.410 E9.82326
G1 X50.482 Y91.945 E9.84655
G1 X50.815 Y91.525 E9.86981
G1 X51.207 Y91.159 E9.89309
G1 X51.649 Y90.856 E9.91635
G0 F7200.00000 X52.029 Y91.105
G1 F1200.000 X52.497 Y90.915 E9.93827
G1 X52.990 Y90.802 E9.96022
G1 X53.460 Y90.767 E9.98067
G1 X66.889 Y90.767 E10.56349
G1 X67.393 Y90.807 E10.58544
G1 X67.732 Y90.889 E10.60057
G1 X68.113 Y90.802 E10.61753
G1 X68.583 Y90.767 E10.63799
G1 X82.011 Y90.767 E11.22077
G1 X82.515 Y90.807 E11.24271
G1 X83.006 Y90.926 E11.26463
G1 X83.364 Y91.075 E11.28146
G1 X83.502 Y91.043 E11.28761
G1 X83.972 Y91.008 E11.30807
G1 X97.401 Y91.008 E11.89089
G1 X97.905 Y91.048 E11.91283
G1 X98.156 Y91.109 E11.92404
G1 X98.261 Y91.066 E11.92896
G1 X98.754 Y90.953 E11.95092
G1 X99.224 Y90.918 E11.97137
G1 X112.652 Y90.918 E12.55415
G1 X113.156 Y90.958 E12.57609
G1 X113.647 Y91.077 E12.59802
G1 X114.047 Y91.243 E12.61681
G1 X114.245 Y91.198 E12.62562
G1 X114.715 Y91.163 E12.64608
G1 X128.144 Y91.163 E13.22890
G1 X128.648 Y91.203 E13.25084
G1 X128.998 Y91.288 E13.26647
G1 X129.255 Y91.133 E13.27950
G1 X129.723 Y90.943 E13.30142
G1 X130.216 Y90.830 E13.32337
G1 X130.686 Y90.795 E13.34383
G1 X144.115 Y90.795 E13.92665
G1 X144.619 Y90.835 E13.94859
G1 X145.110 Y90.954 E13.97052
G1 X145.577 Y91.148 E13.99246
G1 X146.007 Y91.414 E14.01441
G1 X146.390 Y91.744 E14.03635
G1 X146.716 Y92.131 E14.05831
G1 X146.977 Y92.564 E14.08025
G1 X147.167 Y93.032 E14.10217
G1 X147.280 Y93.525 E14.12412
G1 X147.315 Y93.995 E14.14458
G1 X147.315 Y106.061 E14.66824
G1 X147.275 Y106.565 E14.69019
G1 X147.156 Y107.056 E14.71211
G1 X146.962 Y107.523 E14.73406
G1 X146.696 Y107.953 E14.75600
G1 X146.366 Y108.336 E14.77795
G1 X145.979 Y108.662 E14.79991
G1 X145.546 Y108.923 E14.82185
G1 X145.078 Y109.113 E14.84377
G1 X144.585 Y109.226 E14.86572
G1 X144.115 Y109.261 E14.88618
G1 X130.686 Y109.261 E15.46900
G1 X130.182 Y109.221 E15.49094
G1 X129.832 Y109.136 E15.50657
G1 X129.575 Y109.291 E15.51960
G1 X129.107 Y109.481 E15.54152
G1 X128.614 Y109.594 E15.56347
G1 X128.144 Y109.629 E15.58392
G1 X114.715 Y109.629 E16.16674
G1 X114.211 Y109.589 E16.18869
G1 X113.720 Y109.470 E16.21061
G1 X113.320 Y109.304 E16.22941
G1 X113.122 Y109.349 E16.23822
G1 X112.652 Y109.384 E16.25868
G1 X99.224 Y109.384 E16.84145
G1 X98.720 Y109.344 E16.86340
G1 X98.469 Y109.283 E16.87461
G1 X98.364 Y109.326 E16.87953
G1 X97.871 Y109.439 E16.90148
G1 X97.401 Y109.474 E16.92194
G1 X83.972 Y109.474 E17.50476
G1 X83.468 Y109.434 E17.52670
G1 X82.977 Y109.315 E17.54863
G1 X82.619 Y109.166 E17.56545
G1 X82.481 Y109.198 E17.57160
G1 X82.011 Y109.233 E17.59206
G1 X68.583 Y109.233 E18.17483
G1 X68.079 Y109.193 E18.19678
G1 X67.740 Y109.111 E18.21191
G1 X67.359 Y109.198 E18.22887
G1 X66.889 Y109.233 E18.24933
G1 X53.460 Y109.233 E18.83215
G1 X52.956 Y109.193 E18.85409
G1 X52.465 Y109.074 E18.87602
G1 X51.998 Y108.880 E18.89797
G1 X51.568 Y108.614 E18.91991
G1 X51.185 Y108.284 E18.94185
G1 X50.859 Y107.897 E18.96381
G1 X50.598 Y107.464 E18.98575
G1 X50.408 Y106.996 E19.00768
G1 X50.295 Y106.503 E19.02963
G1 X50.260 Y106.033 E19.05008
G1 X50.260 Y93.967 E19.57375
G1 X50.300 Y93.463 E19.59569
G1 X50.419 Y92.972 E19.61762
G1 X50.613 Y92.505 E19.63956
G1 X50.879 Y92.075 E19.66151
G1 X51.209 Y91.692 E19.68345
G1 X51.596 Y91.366 E19.70541
G1 X52.029 Y91.105 E19.72735
G1 F4200.00000 E13.32735
G1 Z0.500
G0 F7200.000 X54.060 Y94.567 Z0.500
;TYPE:WALL-INNER
G1 Z0.300
G1 F4200.000 E19.72735
G1 F1200.00000 X66.289 Y94.567 E20.25809
G1 X66.289 Y105.433 E20.72968
G1 X54.060 Y105.433 E21.26042
G1 X54.060 Y94.567 E21.73201
G0 F7200.00000 X54.160 Y94.637
G0 X56.702 Y96.834
G0 X56.775 Y96.901
G1 F1200.000 X56.547 Y97.171 E21.74734
G1 X56.344 Y97.452 E21.76239
G1 X56.165 Y97.743 E21.77722
G1 X56.009 Y98.048 E21.79208
G1 X55.874 Y98.368 E21.80716
G1 X55.759 Y98.709 E21.82278
G1 X55.673 Y99.043 E21.83774
G1 X55.617 Y99.377 E21.85244
G1 X55.582 Y99.722 E21.86749
G1 X55.575 Y100.070 E21.88260
G1 X55.594 Y100.431 E21.89829
G1 X55.638 Y100.761 E21.91274
G1 X55.707 Y101.100 E21.92775
G1 X55.804 Y101.436 E21.94293
G1 X55.928 Y101.768 E21.95831
G1 X56.070 Y102.078 E21.97311
G1 X56.244 Y102.391 E21.98865
G1 X56.434 Y102.679 E22.00362
G1 X56.642 Y102.948 E22.01838
G1 X56.882 Y103.213 E22.03390
G1 X57.288 Y103.599 E22.05821
G1 X63.061 Y103.599 E22.30876
G1 X63.467 Y103.213 E22.33307
G1 X63.707 Y102.948 E22.34859
G1 X63.919 Y102.673 E22.36366
G1 X64.104 Y102.393 E22.37823
G1 X64.277 Y102.078 E22.39382
G1 X64.418 Y101.774 E22.40837
G1 X64.545 Y101.436 E22.42404
G1 X64.642 Y101.100 E22.43921
G1 X64.710 Y100.766 E22.45401
G1 X64.754 Y100.431 E22.46867
G1 X64.774 Y100.069 E22.48441
G1 X64.766 Y99.722 E22.49947
G1 X64.732 Y99.376 E22.51456
G1 X64.674 Y99.040 E22.52936
G1 X64.590 Y98.710 E22.54414
G1 X64.475 Y98.367 E22.55984
G1 X64.340 Y98.048 E22.57487
G1 X64.186 Y97.751 E22.58939
G1 X63.998 Y97.443 E22.60505
G1 X63.802 Y97.171 E22.61960
G1 X63.574 Y96.901 E22.63494
G1 X63.325 Y96.649 E22.65031
G1 X63.069 Y96.424 E22.66510
G1 X62.794 Y96.219 E22.67999
G1 X62.497 Y96.030 E22.69527
G1 X62.191 Y95.866 E22.71034
G1 X61.867 Y95.723 E22.72571
G1 X61.544 Y95.609 E22.74057
G1 X61.209 Y95.519 E22.75563
G1 X60.866 Y95.452 E22.77080
G1 X60.521 Y95.413 E22.78586
G1 X60.174 Y95.401 E22.80093
G1 X59.827 Y95.413 E22.81600
G1 X59.483 Y95.452 E22.83103
G1 X59.140 Y95.518 E22.84619
G1 X58.804 Y95.609 E22.86129
G1 X58.473 Y95.727 E22.87654
G1 X58.162 Y95.864 E22.89129
G1 X57.846 Y96.033 E22.90685
G1 X57.560 Y96.214 E22.92154
G1 X57.279 Y96.424 E22.93676
G1 X57.024 Y96.649 E22.95152
G1 X56.775 Y96.901 E22.96690
G0 F7200.00000 X57.071 Y97.170
;TYPE:WALL-OUTER
G1 F1200.000 X56.866 Y97.413 E22.98069
G1 X56.680 Y97.670 E22.99446
G1 X56.513 Y97.941 E23.00828
G1 X56.369 Y98.223 E23.02202
G1 X56.246 Y98.515 E23.03577
G1 X56.145 Y98.816 E23.04955
G1 X56.066 Y99.124 E23.06335
G1 X56.013 Y99.437 E23.07713
G1 X55.981 Y99.753 E23.09091
G1 X55.975 Y100.069 E23.10463
G1 X55.992 Y100.387 E23.11845
G1 X56.034 Y100.700 E23.13216
G1 X56.098 Y101.011 E23.14594
G1 X56.186 Y101.317 E23.15975
G1 X56.297 Y101.614 E23.17352
G1 X56.429 Y101.901 E23.18723
G1 X56.584 Y102.180 E23.20108
G1 X56.759 Y102.445 E23.21486
G1 X56.954 Y102.696 E23.22865
G1 X57.167 Y102.931 E23.24242
G1 X57.449 Y103.199 E23.25930
G1 X62.900 Y103.199 E23.49588
G1 X63.182 Y102.931 E23.51276
G1 X63.395 Y102.696 E23.52653
G1 X63.590 Y102.444 E23.54036
G1 X63.764 Y102.180 E23.55408
G1 X63.918 Y101.902 E23.56787
G1 X64.052 Y101.614 E23.58166
G1 X64.163 Y101.317 E23.59542
G1 X64.251 Y101.011 E23.60924
G1 X64.315 Y100.700 E23.62302
G1 X64.356 Y100.387 E23.63672
G1 X64.374 Y100.069 E23.65054
G1 X64.367 Y99.753 E23.66426
G1 X64.336 Y99.437 E23.67804
G1 X64.282 Y99.124 E23.69182
G1 X64.204 Y98.817 E23.70557
G1 X64.103 Y98.515 E23.71939
G1 X63.980 Y98.223 E23.73314
G1 X63.834 Y97.941 E23.74692
G1 X63.669 Y97.670 E23.76069
G1 X63.483 Y97.413 E23.77446
G1 X63.278 Y97.170 E23.78826
G1 X63.055 Y96.944 E23.80204
G1 X62.817 Y96.735 E23.81579
G1 X62.562 Y96.545 E23.82959
G1 X62.295 Y96.375 E23.84333
G1 X62.015 Y96.225 E23.85711
G1 X61.724 Y96.097 E23.87091
G1 X61.425 Y95.991 E23.88468
G1 X61.119 Y95.908 E23.89844
G1 X60.807 Y95.848 E23.91223
G1 X60.491 Y95.812 E23.92603
G1 X60.174 Y95.801 E23.93979
G1 X59.857 Y95.812 E23.95356
G1 X59.542 Y95.848 E23.96732
G1 X59.230 Y95.908 E23.98111
G1 X58.923 Y95.991 E23.99491
G1 X58.624 Y96.097 E24.00868
G1 X58.334 Y96.225 E24.02244
G1 X58.054 Y96.375 E24.03622
G1 X57.786 Y96.545 E24.05000
G1 X57.532 Y96.735 E24.06376
G1 X57.294 Y96.944 E24.07751
G1 X57.071 Y97.170 E24.09129
G0 F7200.00000 X56.691 Y96.846
G0 X54.130 Y94.637
G0 X53.660 Y94.167
G1 F1200.000 X66.689 Y94.167 E24.65675
G1 X66.689 Y105.833 E25.16306
G1 X53.660 Y105.833 E25.72852
G1 X53.660 Y94.167 E26.23482
G0 F7200.00000 X54.220 Y94.949
;TYPE:SKIN
G1 F1200.000 X56.387 Y97.116 E26.36783
G0 X56.457 Y97.186
G0 F7200.000 X56.644 Y96.807
G1 F1200.000 X54.562 Y94.726 E26.49558
G0 X54.492 Y94.656
G0 F7200.000 X55.128 Y94.726
G1 F1200.000 X56.924 Y96.522 E26.60582
G0 X56.994 Y96.592
G0 F7200.000 X57.228 Y96.261
G1 F1200.000 X55.693 Y94.726 E26.70003
G0 X55.623 Y94.656
G0 F7200.000 X56.259 Y94.726
G1 F1200.000 X57.557 Y96.024 E26.77970
G0 X57.627 Y96.094
G0 F7200.000 X57.913 Y95.814
G1 F1200.000 X56.825 Y94.726 E26.84648
G0 X56.755 Y94.656
G0 F7200.000 X57.390 Y94.726
G1 F1200.000 X58.294 Y95.629 E26.90193
G0 X58.364 Y95.699
G0 F7200.000 X58.704 Y95.473
G1 F1200.000 X57.956 Y94.726 E26.94781
G0 X57.886 Y94.656
G0 F7200.000 X58.522 Y94.726
G1 F1200.000 X59.148 Y95.352 E26.98623
G0 X59.218 Y95.422
G0 F7200.000 X59.360 Y94.999
G1 F5284.404 X59.910 Y94.983 E27.01877
G1 F5592.23301 X60.495 Y95.002 E27.05148
G1 F5226.86025 X61.135 Y95.076 E27.08999
G0 F1200.00000 X61.556 Y95.497
G0 F7200.000 X61.350 Y94.726
G1 F1200.000 X62.442 Y95.817 E27.15699
G0 X62.512 Y95.887
G0 F7200.000 X62.482 Y94.726
G1 F1200.000 X66.129 Y98.373 E27.38083
G0 X66.199 Y98.443
G0 F7200.000 X66.129 Y97.807
G1 F1200.000 X63.047 Y94.726 E27.56996
G0 X62.977 Y94.656
G0 F7200.000 X63.613 Y94.726
G1 F1200.000 X66.129 Y97.242 E27.72439
G0 X66.199 Y97.312
G0 F7200.000 X66.129 Y96.676
G1 F1200.000 X64.179 Y94.726 E27.84407
G0 X64.109 Y94.656
G0 F7200.000 X64.744 Y94.726
G1 F1200.000 X66.129 Y96.110 E27.92905
G0 X66.199 Y96.180
G0 F7200.000 X66.129 Y95.544
G1 F1200.000 X65.310 Y94.726 E27.97928
G0 X65.240 Y94.656
G0 F7200.000 X65.876 Y94.726
G1 F1200.000 X66.129 Y94.979 E27.99481
G0 F7200.00000 X64.356 Y97.732
G1 F1200.000 X66.129 Y99.504 E28.10360
G0 X66.199 Y99.574
G0 F7200.000 X66.129 Y98.939
G1 F1200.000 X61.916 Y94.726 E28.36219
G0 X61.846 Y94.656
G0 F7200.000 X61.846 Y94.667
G0 X64.031 Y97.421
G0 X64.749 Y98.690
G1 F1200.000 X66.129 Y100.070 E28.44689
G0 X66.199 Y100.140
G0 F7200.000 X66.129 Y100.636
G1 F1200.000 X64.894 Y99.400 E28.52272
G0 X64.824 Y99.330
G0 F7200.000 X64.932 Y100.004
G1 F1200.000 X66.129 Y101.201 E28.59619
G0 X66.199 Y101.271
G0 F7200.000 X66.129 Y101.767
G1 F1200.000 X64.900 Y100.538 E28.67162
G0 X64.830 Y100.468
G0 F7200.000 X64.819 Y101.023
G1 F1200.000 X66.129 Y102.333 E28.75202
G0 X66.199 Y102.403
G0 F7200.000 X66.129 Y102.898
G1 F1200.000 X64.701 Y101.471 E28.83964
G0 X64.631 Y101.401
G0 F7200.000 X64.544 Y101.879
G1 F1200.000 X66.129 Y103.464 E28.93692
G0 X66.199 Y103.534
G0 F7200.000 X66.129 Y104.030
G1 F1200.000 X64.358 Y102.259 E29.04562
G0 X64.288 Y102.189
G0 F7200.000 X64.148 Y102.615
G1 F1200.000 X66.129 Y104.595 E29.16718
G0 X66.199 Y104.665
G0 F7200.000 X66.129 Y105.161
G1 F1200.000 X63.911 Y102.943 E29.30331
G0 X63.841 Y102.873
G0 F7200.000 X63.649 Y103.247
G1 F1200.000 X65.673 Y105.271 E29.42754
G0 X65.743 Y105.341
G0 F7200.000 X65.108 Y105.271
G1 F1200.000 X63.365 Y103.529 E29.53449
G0 X63.295 Y103.459
G0 F7200.000 X63.029 Y103.758
G1 F1200.000 X64.542 Y105.271 E29.62735
G0 X64.612 Y105.341
G0 F7200.000 X63.976 Y105.271
G1 F1200.000 X62.463 Y103.758 E29.72022
G0 X62.393 Y103.688
G0 F7200.000 X61.898 Y103.758
G1 F1200.000 X63.411 Y105.271 E29.81308
G0 X63.481 Y105.341
G0 F7200.000 X62.845 Y105.271
G1 F1200.000 X61.332 Y103.758 E29.90594
G0 X61.262 Y103.688
G0 F7200.000 X60.766 Y103.758
G1 F1200.000 X62.279 Y105.271 E29.99881
G0 X62.349 Y105.341
G0 F7200.000 X61.714 Y105.271
G1 F1200.000 X60.200 Y103.758 E30.09170
G0 X60.130 Y103.688
G0 F7200.000 X59.635 Y103.758
G1 F1200.000 X61.148 Y105.271 E30.18456
G0 X61.218 Y105.341
G0 F7200.000 X60.582 Y105.271
G1 F1200.000 X59.069 Y103.758 E30.27743
G0 X58.999 Y103.688
G0 F7200.000 X58.503 Y103.758
G1 F1200.000 X60.017 Y105.271 E30.37032
G0 X60.087 Y105.341
G0 F7200.000 X59.451 Y105.271
G1 F1200.000 X57.938 Y103.758 E30.46318
G0 X57.868 Y103.688
G0 F7200.000 X57.372 Y103.758
G1 F1200.000 X58.885 Y105.271 E30.55605
G0 X58.955 Y105.341
G0 F7200.000 X58.320 Y105.271
G1 F1200.000 X54.220 Y101.172 E30.80766
