;FLAVOR:RepRap
;TIME:12702
M190 S50.000000
M104 S210.000000
M109 S210.000000
G21 ;metric values
G90 ;absolute positioning
M82 ;set extruder to absolute mode
M107 ;start with the fan off
G92 X0 Y0 Z0 ;Zero X Y and Z axis
G1 Z15.0 F9000 ;move the platform down 15mm
G92 E0 ;zero the extruded length
G1 F200 E3 ;extrude 3mm of feed stock
G92 E0 ;zero the extruded length again
G1 F9000
;Put printing message on LCD screen
M117 Printing...
;Generated with Cura_SteamEngine 2.1.3
;LAYER_COUNT:115
;LAYER:0
M107
G1 F4200.000000 E-6.40000
G1 Z20.200
G0 F7200.000 X46.486 Y81.993 Z0.500
;TYPE:SKIRT
G1 Z0.300
G1 F4200.000 E0.00000
G1 F1200.00000 X46.969 Y81.758 E0.02331
G1 X47.480 Y81.598 E0.04655
G1 X48.010 Y81.515 E0.06983
G1 X48.296 Y81.504 E0.08225
G1 X96.485 Y81.486 E2.17367
G1 X96.689 Y81.346 E2.18440
G1 X97.172 Y81.111 E2.20772
G1 X97.683 Y80.951 E2.23095
G1 X98.213 Y80.868 E2.25424
G1 X98.500 Y80.857 E2.26670
G1 X101.500 Y80.857 E2.39690
G1 X102.035 Y80.897 E2.42019
G1 X102.558 Y81.016 E2.44346
G1 X103.057 Y81.211 E2.46672
G1 X103.522 Y81.479 E2.49001
G1 X103.527 Y81.483 E2.49029
G1 X151.342 Y81.465 E4.56547
G1 X151.721 Y81.485 E4.58194
G1 X152.081 Y81.523 E4.59765
G1 X152.609 Y81.619 E4.62094
G1 X153.116 Y81.792 E4.64419
G1 X153.592 Y82.039 E4.66746
G1 X154.027 Y82.353 E4.69075
G1 X154.409 Y82.729 E4.71401
G1 X154.732 Y83.157 E4.73728
G1 X154.987 Y83.629 E4.76056
G1 X155.170 Y84.133 E4.78383
G1 X155.276 Y84.659 E4.80712
G1 X155.303 Y85.103 E4.82643
G1 X155.303 Y87.550 E4.93263
G1 X155.263 Y88.085 E4.95591
G1 X155.144 Y88.608 E4.97919
G1 X154.949 Y89.107 E5.00244
G1 X154.749 Y89.454 E5.01982
G1 X154.749 Y110.543 E5.93509
G1 X154.814 Y110.638 E5.94009
G1 X155.049 Y111.121 E5.96340
G1 X155.209 Y111.632 E5.98664
G1 X155.292 Y112.162 E6.00992
G1 X155.303 Y112.449 E6.02238
G1 X155.303 Y114.896 E6.12858
G1 X155.263 Y115.431 E6.15187
G1 X155.144 Y115.954 E6.17515
G1 X154.949 Y116.453 E6.19840
G1 X154.681 Y116.918 E6.22169
G1 X154.348 Y117.338 E6.24495
G1 X153.956 Y117.704 E6.26823
G1 X153.514 Y118.007 E6.29149
G1 X153.031 Y118.242 E6.31480
G1 X152.520 Y118.402 E6.33804
G1 X151.990 Y118.485 E6.36132
G1 X151.704 Y118.496 E6.37374
G1 X103.513 Y118.514 E8.46524
G1 X103.311 Y118.653 E8.47588
G1 X102.828 Y118.888 E8.49919
G1 X102.317 Y119.048 E8.52243
G1 X101.787 Y119.131 E8.54571
G1 X101.500 Y119.142 E8.55818
G1 X98.500 Y119.142 E8.68838
G1 X97.965 Y119.102 E8.71166
G1 X97.442 Y118.983 E8.73494
G1 X96.943 Y118.788 E8.75819
G1 X96.478 Y118.520 E8.78149
G1 X96.474 Y118.517 E8.78170
G1 X48.658 Y118.535 E10.85692
G1 X48.279 Y118.515 E10.87340
G1 X47.919 Y118.477 E10.88911
G1 X47.391 Y118.381 E10.91240
G1 X46.884 Y118.208 E10.93565
G1 X46.408 Y117.961 E10.95892
G1 X45.973 Y117.647 E10.98221
G1 X45.591 Y117.271 E11.00547
G1 X45.268 Y116.843 E11.02874
G1 X45.013 Y116.371 E11.05202
G1 X44.830 Y115.867 E11.07529
G1 X44.724 Y115.341 E11.09858
G1 X44.697 Y114.897 E11.11789
G1 X44.697 Y112.450 E11.22409
G1 X44.737 Y111.915 E11.24737
G1 X44.856 Y111.392 E11.27065
G1 X45.051 Y110.893 E11.29390
G1 X45.251 Y110.546 E11.31128
G1 X45.251 Y89.457 E12.22655
G1 X45.186 Y89.362 E12.23154
G1 X44.951 Y88.879 E12.25486
G1 X44.791 Y88.368 E12.27810
G1 X44.708 Y87.838 E12.30138
G1 X44.697 Y87.551 E12.31384
G1 X44.697 Y85.104 E12.42004
G1 X44.737 Y84.569 E12.44333
G1 X44.856 Y84.046 E12.46661
G1 X45.051 Y83.547 E12.48986
G1 X45.319 Y83.082 E12.51315
G1 X45.652 Y82.662 E12.53641
G1 X46.044 Y82.296 E12.55969
G1 X46.486 Y81.993 E12.58295
G0 F7200.00000 X46.866 Y82.242
G1 F1200.000 X47.334 Y82.052 E12.60487
G1 X47.827 Y81.939 E12.62682
G1 X48.296 Y81.904 E12.64723
G1 X96.601 Y81.886 E14.74367
G1 X96.636 Y81.856 E14.74567
G1 X97.069 Y81.595 E14.76762
G1 X97.537 Y81.405 E14.78954
G1 X98.030 Y81.292 E14.81149
G1 X98.500 Y81.257 E14.83194
G1 X101.500 Y81.257 E14.96214
G1 X102.004 Y81.297 E14.98409
G1 X102.495 Y81.416 E15.00601
G1 X102.962 Y81.610 E15.02796
G1 X103.392 Y81.876 E15.04990
G1 X103.400 Y81.883 E15.05037
G1 X151.342 Y81.865 E17.13106
G1 X151.679 Y81.883 E17.14570
G1 X152.039 Y81.921 E17.16141
G1 X152.536 Y82.013 E17.18335
G1 X153.012 Y82.183 E17.20529
G1 X153.456 Y82.426 E17.22725
G1 X153.855 Y82.735 E17.24916
G1 X154.202 Y83.104 E17.27114
G1 X154.485 Y83.522 E17.29305
G1 X154.700 Y83.980 E17.31501
G1 X154.839 Y84.466 E17.33694
G1 X154.903 Y85.103 E17.36473
G1 X154.903 Y87.550 E17.47093
G1 X154.863 Y88.054 E17.49287
G1 X154.744 Y88.545 E17.51480
G1 X154.550 Y89.012 E17.53675
G1 X154.349 Y89.337 E17.55333
G1 X154.349 Y110.660 E18.47875
G1 X154.565 Y111.018 E18.49690
G1 X154.755 Y111.486 E18.51882
G1 X154.868 Y111.979 E18.54077
G1 X154.903 Y112.449 E18.56122
G1 X154.903 Y114.896 E18.66742
G1 X154.863 Y115.400 E18.68937
G1 X154.744 Y115.891 E18.71129
G1 X154.550 Y116.358 E18.73324
G1 X154.284 Y116.788 E18.75519
G1 X153.954 Y117.171 E18.77713
G1 X153.567 Y117.497 E18.79909
G1 X153.134 Y117.758 E18.82103
G1 X152.666 Y117.948 E18.84295
G1 X152.173 Y118.061 E18.86490
G1 X151.704 Y118.096 E18.88531
G1 X103.398 Y118.114 E20.98180
G1 X103.364 Y118.143 E20.98374
G1 X102.931 Y118.404 E21.00568
G1 X102.463 Y118.594 E21.02760
G1 X101.970 Y118.707 E21.04956
G1 X101.500 Y118.742 E21.07001
G1 X98.500 Y118.742 E21.20021
G1 X97.996 Y118.702 E21.22215
G1 X97.505 Y118.583 E21.24408
G1 X97.038 Y118.389 E21.26603
G1 X96.608 Y118.123 E21.28797
G1 X96.601 Y118.117 E21.28837
G1 X48.658 Y118.135 E23.36910
G1 X48.321 Y118.117 E23.38375
G1 X47.961 Y118.079 E23.39946
G1 X47.464 Y117.987 E23.42140
G1 X46.988 Y117.817 E23.44334
G1 X46.544 Y117.574 E23.46530
G1 X46.145 Y117.265 E23.48720
G1 X45.798 Y116.896 E23.50919
G1 X45.515 Y116.478 E23.53110
G1 X45.300 Y116.020 E23.55305
G1 X45.161 Y115.534 E23.57499
G1 X45.097 Y114.897 E23.60278
G1 X45.097 Y112.450 E23.70898
G1 X45.137 Y111.946 E23.73092
G1 X45.256 Y111.455 E23.75285
G1 X45.450 Y110.988 E23.77479
G1 X45.651 Y110.663 E23.79138
G1 X45.651 Y89.340 E24.71680
G1 X45.435 Y88.982 E24.73495
G1 X45.245 Y88.514 E24.75687
G1 X45.132 Y88.021 E24.77882
G1 X45.097 Y87.551 E24.79927
G1 X45.097 Y85.104 E24.90547
G1 X45.137 Y84.600 E24.92742
G1 X45.256 Y84.109 E24.94934
G1 X45.450 Y83.642 E24.97129
G1 X45.716 Y83.212 E24.99323
G1 X46.046 Y82.829 E25.01517
G1 X46.433 Y82.503 E25.03714
G1 X46.866 Y82.242 E25.05908
G0 F7200.00000 X48.497 Y85.304
;TYPE:SUPPORT
G1 F1200.000 X98.700 Y85.285 E27.23790
G1 X98.700 Y84.657 E27.26515
G1 X101.300 Y84.657 E27.37799
G1 X101.300 Y85.284 E27.40520
G1 X151.332 Y85.265 E29.57660
G1 X151.503 Y85.283 E29.58406
G1 X151.503 Y87.350 E29.67377
G1 X130.349 Y87.350 E30.59186
G1 X130.349 Y112.649 E31.68984
G1 X151.503 Y112.649 E32.60793
G1 X151.503 Y114.696 E32.69677
G1 X101.300 Y114.715 E34.87558
G1 X101.300 Y115.342 E34.90280
G1 X98.700 Y115.342 E35.01564
G1 X98.700 Y114.716 E35.04281
G1 X48.668 Y114.735 E37.21420
G1 X48.497 Y114.717 E37.22166
G1 X48.497 Y112.650 E37.31137
G1 X69.651 Y112.650 E38.22946
G1 X69.651 Y87.351 E39.32744
G1 X48.497 Y87.351 E40.24553
G1 X48.497 Y85.304 E40.33437
G0 F7200.00000 X53.320 Y85.462
G1 F1200.000 X53.320 Y87.191 E40.40941
G1 F4200.00000 E34.00941
G1 Z0.500
G0 F7200.000 X58.652 Y87.191 Z0.500
G1 Z0.300
G1 F4200.000 E40.40941
G1 F1200.00000 X58.652 Y85.460 E40.48453
G0 F7200.00000 X63.984 Y85.458
G1 F1200.000 X63.984 Y87.191 E40.55974
G1 F4200.00000 E34.15974
G1 Z0.500
G0 F7200.000 X69.316 Y87.191 Z0.500
G1 Z0.300
G1 F4200.000 E40.55974
G1 F1200.00000 X69.316 Y85.456 E40.63504
G1 F4200.00000 E34.23504
G1 Z0.500
G0 F7200.000 X69.811 Y90.644 Z0.500
G1 Z0.300
G1 F4200.000 E40.63504
G1 F1200.00000 X130.189 Y90.644 E43.25546
G1 F4200.00000 E36.85546
G1 Z0.500
G0 F7200.000 X133.300 Y87.190 Z0.500
G1 Z0.300
G1 F4200.000 E43.25546
G1 F1200.00000 X133.300 Y85.431 E43.33180
G0 F7200.00000 X127.968 Y85.433
G1 F1200.000 X127.968 Y114.545 E44.59526
G1 F4200.00000 E38.19526
G1 Z0.500
G0 F7200.000 X130.189 Y111.972 Z0.500
G1 Z0.300
G1 F4200.000 E44.59526
G1 F1200.00000 X69.811 Y111.972 E47.21568
G0 F7200.00000 X69.316 Y112.810
G1 F1200.000 X69.316 Y114.568 E47.29198
G0 F7200.00000 X63.984 Y114.570
G1 F1200.000 X63.984 Y112.810 E47.36836
G1 F4200.00000 E40.96836
G1 Z0.500
G0 F7200.000 X58.652 Y112.810 Z0.500
G1 Z0.300
G1 F4200.000 E47.36836
G1 F1200.00000 X58.652 Y114.572 E47.44483
G0 F7200.00000 X53.320 Y114.574
G1 F1200.000 X53.320 Y112.810 E47.52139
G1 F4200.00000 E41.12139
G1 Z0.500
G0 F7200.000 X143.964 Y87.190 Z0.500
G1 Z0.300
G1 F4200.000 E47.52139
G1 F1200.00000 X143.964 Y85.427 E47.59790
G0 F7200.00000 X138.632 Y85.429
G1 F1200.000 X138.632 Y87.190 E47.67433
G1 F4200.00000 E41.27433
G1 Z0.500
G0 F7200.000 X149.296 Y87.190 Z0.500
G1 Z0.300
G1 F4200.000 E47.67433
G1 F1200.00000 X149.296 Y85.425 E47.75093
G1 F4200.00000 E41.35093
G1 Z0.500
G0 F7200.000 X130.189 Y95.976 Z0.500
G1 Z0.300
G1 F4200.000 E47.75093
G1 F1200.00000 X69.811 Y95.976 E50.37135
G1 F4200.00000 E43.97135
G1 Z0.500
G0 F7200.000 X69.811 Y101.308 Z0.500
G1 Z0.300
G1 F4200.000 E50.37135
G1 F1200.00000 X130.189 Y101.308 E52.99176
G1 F4200.00000 E46.59176
G1 Z0.500
G0 F7200.000 X130.189 Y106.640 Z0.500
G1 Z0.300
G1 F4200.000 E52.99176
G1 F1200.00000 X69.811 Y106.640 E55.61218
G1 F4200.00000 E49.21218
G1 Z0.500
G0 F7200.000 X74.648 Y114.566 Z0.500
G1 Z0.300
G1 F4200.000 E55.61218
G1 F1200.00000 X74.648 Y85.454 E56.87564
G0 F7200.00000 X79.980 Y85.452
G1 F1200.000 X79.980 Y114.564 E58.13911
G0 F7200.00000 X85.312 Y114.562
G1 F1200.000 X85.312 Y85.450 E59.40257
G0 F7200.00000 X90.644 Y85.448
G1 F1200.000 X90.644 Y114.560 E60.66604
G0 F7200.00000 X95.976 Y114.558
G1 F1200.000 X95.976 Y85.446 E61.92951
G0 F7200.00000 X98.860 Y85.312
G1 F1200.000 X101.140 Y85.312 E62.02846
G0 F7200.00000 X101.308 Y85.443
G1 F1200.000 X101.308 Y114.555 E63.29192
G0 F7200.00000 X106.640 Y114.553
G1 F1200.000 X106.640 Y85.441 E64.55539
G0 F7200.00000 X111.972 Y85.439
G1 F1200.000 X111.972 Y114.551 E65.81885
G0 F7200.00000 X117.304 Y114.549
G1 F1200.000 X117.304 Y85.437 E67.08232
G0 F7200.00000 X122.636 Y85.435
G1 F1200.000 X122.636 Y114.547 E68.34578
G0 F7200.00000 X133.300 Y114.543
G1 F1200.000 X133.300 Y112.809 E68.42104
G1 F4200.00000 E62.02104
G1 Z0.500
G0 F7200.000 X138.632 Y112.809 Z0.500
G1 Z0.300
G1 F4200.000 E68.42104
G1 F1200.00000 X138.632 Y114.541 E68.49621
G0 F7200.00000 X143.964 Y114.539
G1 F1200.000 X143.964 Y112.809 E68.57129
G1 F4200.00000 E62.17129
G1 Z0.500
G0 F7200.000 X149.296 Y112.809 Z0.500
G1 Z0.300
G1 F4200.000 E68.57129
G1 F1200.00000 X149.296 Y114.537 E68.64629
G1 F4200.00000 E62.24629
G1 Z0.500
G0 F7200.000 X68.151 Y111.150 Z0.500
;TYPE:WALL-INNER
G1 Z0.300
G1 F4200.000 E68.64629
G1 F1200.00000 X49.451 Y111.150 E69.45787
G1 X49.451 Y88.851 E70.42565
G1 X68.151 Y88.851 E71.23723
G1 X68.151 Y111.150 E72.20501
G0 F7200.00000 X68.051 Y111.080
G0 X57.426 Y106.704
G0 X57.330 Y106.679
G1 F1200.000 X57.399 Y106.131 E72.22898
G1 X57.329 Y105.602 E72.25214
G1 X57.110 Y105.083 E72.27659
G1 X56.772 Y104.649 E72.30047
G1 X56.347 Y104.324 E72.32369
G1 X55.827 Y104.112 E72.34806
G1 X55.279 Y104.043 E72.37203
G1 X54.750 Y104.113 E72.39519
G1 X54.231 Y104.332 E72.41963
G1 X53.798 Y104.669 E72.44345
G1 X53.472 Y105.095 E72.46673
G1 X53.260 Y105.615 E72.49110
G1 X53.191 Y106.163 E72.51507
G1 X53.261 Y106.692 E72.53823
G1 X53.480 Y107.211 E72.56268
G1 X53.816 Y107.641 E72.58636
G1 X54.245 Y107.971 E72.60985
G1 X54.763 Y108.182 E72.63413
G1 X55.311 Y108.251 E72.65810
G1 X55.840 Y108.181 E72.68126
G1 X56.359 Y107.961 E72.70572
G1 X56.791 Y107.625 E72.72947
G1 X57.119 Y107.197 E72.75288
G1 X57.330 Y106.679 E72.77715
G0 F7200.00000 X57.426 Y106.704
G0 X64.605 Y95.762
G0 X64.654 Y95.676
G1 F1200.000 X65.174 Y95.888 E72.80152
G1 X65.722 Y95.957 E72.82549
G1 X66.251 Y95.887 E72.84865
G1 X66.770 Y95.668 E72.87310
G1 X67.203 Y95.331 E72.89691
G1 X67.529 Y94.905 E72.92019
G1 X67.741 Y94.384 E72.94461
G1 X67.811 Y93.840 E72.96841
G1 X67.740 Y93.308 E72.99170
G1 X67.521 Y92.789 E73.01615
G1 X67.185 Y92.359 E73.03984
G1 X66.756 Y92.029 E73.06333
G1 X66.238 Y91.818 E73.08760
G1 X65.690 Y91.749 E73.11157
G1 X65.161 Y91.819 E73.13473
G1 X64.642 Y92.039 E73.15920
G1 X64.210 Y92.375 E73.18295
G1 X63.882 Y92.803 E73.20635
G1 X63.671 Y93.321 E73.23062
G1 X63.602 Y93.869 E73.25460
G1 X63.672 Y94.398 E73.27775
G1 X63.891 Y94.917 E73.30220
G1 X64.228 Y95.350 E73.32602
G1 X64.654 Y95.676 E73.34930
G0 F7200.00000 X64.856 Y95.327
;TYPE:WALL-OUTER
G1 F1200.000 X65.277 Y95.498 E73.36902
G1 X65.717 Y95.554 E73.38827
G1 X66.147 Y95.497 E73.40709
G1 X66.566 Y95.320 E73.42683
G1 X66.916 Y95.048 E73.44607
G1 X67.180 Y94.703 E73.46493
G1 X67.351 Y94.282 E73.48465
G1 X67.407 Y93.842 E73.50390
G1 X67.350 Y93.412 E73.52272
G1 X67.173 Y92.993 E73.54246
G1 X66.901 Y92.644 E73.56167
G1 X66.556 Y92.379 E73.58055
G1 X66.135 Y92.208 E73.60027
G1 X65.695 Y92.152 E73.61952
G1 X65.265 Y92.209 E73.63834
G1 X64.846 Y92.386 E73.65808
G1 X64.496 Y92.659 E73.67735
G1 X64.232 Y93.003 E73.69617
G1 X64.061 Y93.424 E73.71589
G1 X64.005 Y93.864 E73.73514
G1 X64.062 Y94.294 E73.75396
G1 X64.239 Y94.713 E73.77371
G1 X64.511 Y95.063 E73.79294
G1 X64.856 Y95.327 E73.81180
G0 F7200.00000 X64.667 Y95.788
G0 X64.200 Y95.378
G0 X63.857 Y94.937
G0 X63.634 Y94.408
G0 X63.562 Y93.869
G0 X63.633 Y93.311
G0 X63.848 Y92.784
G0 X64.182 Y92.347
G0 X68.081 Y88.921
G0 X68.551 Y88.451
G1 F1200.000 X68.551 Y111.550 E74.81430
G1 X49.051 Y111.550 E75.66060
G1 X49.051 Y88.451 E76.66310
G1 X68.551 Y88.451 E77.50940
G0 F7200.00000 X68.051 Y88.921
G0 X64.182 Y92.347
G0 X56.334 Y104.212
G0 X56.145 Y104.673
G1 F1200.000 X55.724 Y104.502 E77.52912
G1 X55.284 Y104.446 E77.54837
G1 X54.854 Y104.503 E77.56720
G1 X54.435 Y104.680 E77.58694
G1 X54.085 Y104.952 E77.60618
G1 X53.821 Y105.297 E77.62503
G1 X53.650 Y105.718 E77.64475
G1 X53.594 Y106.158 E77.66400
G1 X53.651 Y106.588 E77.68283
G1 X53.828 Y107.007 E77.70257
G1 X54.100 Y107.356 E77.72177
G1 X54.445 Y107.621 E77.74065
G1 X54.866 Y107.792 E77.76037
G1 X55.306 Y107.848 E77.77962
G1 X55.736 Y107.791 E77.79845
G1 X56.155 Y107.614 E77.81819
G1 X56.505 Y107.341 E77.83746
G1 X56.769 Y106.997 E77.85627
G1 X56.940 Y106.576 E77.87600
G1 X56.996 Y106.136 E77.89525
G1 X56.939 Y105.706 E77.91407
G1 X56.762 Y105.287 E77.93381
G1 X56.490 Y104.937 E77.95305
G1 X56.145 Y104.673 E77.97190
G0 F7200.00000 X55.876 Y103.959
;TYPE:SKIN
G1 F1200.000 X49.610 Y97.693 E78.35649
G0 X49.540 Y97.623
G0 F7200.000 X49.610 Y97.128
G1 F1200.000 X63.471 Y110.988 E79.20721
G0 X63.541 Y111.058
G0 F7200.000 X62.905 Y110.988
G1 F1200.000 X57.485 Y105.568 E79.53987
G0 X57.415 Y105.498
G0 F7200.000 X57.550 Y106.199
G1 F1200.000 X62.339 Y110.988 E79.83381
G0 X62.409 Y111.058
G0 F7200.000 X61.774 Y110.988
G1 F1200.000 X57.487 Y106.701 E80.09693
G0 X57.417 Y106.631
G0 F7200.000 X57.327 Y107.107
G1 F1200.000 X61.208 Y110.988 E80.33514
G0 X61.278 Y111.058
G0 F7200.000 X60.642 Y110.988
G1 F1200.000 X57.115 Y107.461 E80.55161
G0 X57.045 Y107.391
G0 F7200.000 X56.860 Y107.772
G1 F1200.000 X60.077 Y110.988 E80.74903
G0 X60.147 Y111.058
G0 F7200.000 X59.511 Y110.988
G1 F1200.000 X56.542 Y108.019 E80.93126
G0 X56.472 Y107.949
G0 F7200.000 X56.171 Y108.214
G1 F1200.000 X58.945 Y110.988 E81.10152
G0 X59.015 Y111.058
G0 F7200.000 X58.380 Y110.988
G1 F1200.000 X55.746 Y108.354 E81.26319
G0 X55.676 Y108.284
G0 F7200.000 X55.226 Y108.400
G1 F1200.000 X57.814 Y110.988 E81.42203
G0 X57.884 Y111.058
G0 F7200.000 X57.248 Y110.988
G1 F1200.000 X54.511 Y108.251 E81.59002
G0 X54.441 Y108.181
G0 F7200.000 X53.788 Y107.669
G0 X53.187 Y106.927
G1 F1200.000 X49.610 Y103.350 E81.80957
G0 X49.540 Y103.280
G0 F7200.000 X49.610 Y102.785
G1 F1200.000 X53.036 Y106.210 E82.01981
G0 X53.106 Y106.280
