;FLAVOR:RepRap
;TIME:3128
M190 S50.000000
M104 S210.000000
M109 S210.000000
G21 ;metric values
G90 ;absolute positioning
M82 ;set extruder to absolute mode
M107 ;start with the fan off
G92 X0 Y0 Z0 ;Zero X Y and Z axis
G1 Z15.0 F9000 ;move the platform down 15mm
G92 E0 ;zero the extruded length
G1 F200 E3 ;extrude 3mm of feed stock
G92 E0 ;zero the extruded length again
G1 F9000
;Put printing message on LCD screen
M117 Printing...
;Generated with Cura_SteamEngine 2.1.3
;LAYER_COUNT:33
;LAYER:0
M107
G0 F7200.000000 X82.492 Y79.778 Z0.300
G0 X81.221 Y82.228
;TYPE:SKIRT
G1 F1200.000 X81.295 Y81.739 E0.02146
G1 X81.452 Y81.226 E0.04475
G1 X81.684 Y80.743 E0.06800
G1 X81.985 Y80.299 E0.09128
G1 X82.492 Y79.778 E0.12283
G1 X83.264 Y79.134 E0.16647
G1 X83.617 Y78.857 E0.18594
G1 X84.062 Y78.558 E0.20921
G1 X84.547 Y78.329 E0.23249
G1 X85.060 Y78.174 E0.25574
G1 X85.591 Y78.098 E0.27902
G1 X86.127 Y78.101 E0.30229
G1 X86.231 Y78.117 E0.30685
G1 X86.426 Y77.658 E0.32850
G1 X86.706 Y77.201 E0.35176
G1 X87.051 Y76.791 E0.37501
G1 X87.454 Y76.436 E0.39832
G1 X88.073 Y76.059 E0.42978
G1 X88.969 Y75.632 E0.47285
G1 X89.380 Y75.450 E0.49236
G1 X89.886 Y75.270 E0.51567
G1 X90.412 Y75.167 E0.53893
G1 X90.948 Y75.144 E0.56222
G1 X91.481 Y75.200 E0.58548
G1 X92.000 Y75.335 E0.60875
G1 X92.107 Y75.380 E0.61379
G1 X92.403 Y74.990 E0.63504
G1 X92.788 Y74.616 E0.65833
G1 X93.224 Y74.303 E0.68163
G1 X93.701 Y74.059 E0.70488
G1 X94.401 Y73.845 E0.73665
G1 X95.376 Y73.654 E0.77977
G1 X95.819 Y73.580 E0.79926
G1 X96.353 Y73.531 E0.82253
G1 X96.888 Y73.563 E0.84579
G1 X97.413 Y73.673 E0.86907
G1 X97.916 Y73.860 E0.89236
G1 X98.385 Y74.120 E0.91564
G1 X98.475 Y74.189 E0.92056
G1 X98.859 Y73.886 E0.94179
G1 X99.324 Y73.619 E0.96506
G1 X99.824 Y73.424 E0.98835
G1 X100.347 Y73.306 E1.01162
G1 X101.084 Y73.273 E1.04364
G1 X102.076 Y73.332 E1.08677
G1 X102.524 Y73.371 E1.10628
G1 X103.054 Y73.457 E1.12959
G1 X103.564 Y73.621 E1.15284
G1 X104.045 Y73.858 E1.17611
G1 X104.485 Y74.165 E1.19939
G1 X104.874 Y74.534 E1.22266
G1 X104.942 Y74.621 E1.22746
G1 X105.393 Y74.422 E1.24885
G1 X105.910 Y74.279 E1.27213
G1 X106.442 Y74.216 E1.29538
G1 X106.978 Y74.232 E1.31865
G1 X107.698 Y74.382 E1.35057
G1 X108.645 Y74.686 E1.39374
G1 X109.068 Y74.835 E1.41320
G1 X109.559 Y75.051 E1.43648
G1 X110.013 Y75.337 E1.45977
G1 X110.419 Y75.687 E1.48303
G1 X110.769 Y76.094 E1.50633
G1 X111.054 Y76.548 E1.52959
G1 X111.098 Y76.649 E1.53438
G1 X111.585 Y76.567 E1.55581
G1 X112.121 Y76.558 E1.57908
G1 X112.652 Y76.629 E1.60233
G1 X113.168 Y76.778 E1.62564
G1 X113.822 Y77.100 E1.65727
G1 X114.670 Y77.633 E1.70074
G1 X115.043 Y77.883 E1.72023
G1 X115.465 Y78.213 E1.74348
G1 X115.833 Y78.603 E1.76675
G1 X116.140 Y79.044 E1.79007
G1 X116.377 Y79.525 E1.81334
G1 X116.540 Y80.035 E1.83658
G1 X116.557 Y80.142 E1.84128
G1 X117.047 Y80.184 E1.86263
G1 X117.569 Y80.308 E1.88591
G1 X118.066 Y80.509 E1.90918
G1 X118.528 Y80.781 E1.93245
G1 X119.087 Y81.260 E1.96440
G1 X119.768 Y81.980 E2.00741
G1 X120.068 Y82.315 E2.02692
G1 X120.395 Y82.740 E2.05020
G1 X120.655 Y83.209 E2.07347
G1 X120.843 Y83.712 E2.09678
G1 X120.954 Y84.236 E2.12002
G1 X120.986 Y84.772 E2.14333
G1 X120.976 Y84.884 E2.14821
G1 X121.439 Y85.046 E2.16950
G1 X121.914 Y85.296 E2.19279
G1 X122.346 Y85.614 E2.21607
G1 X122.725 Y85.993 E2.23933
G1 X123.146 Y86.595 E2.27122
G1 X123.629 Y87.464 E2.31436
G1 X123.836 Y87.863 E2.33387
G1 X124.046 Y88.356 E2.35713
G1 X124.182 Y88.875 E2.38041
G1 X124.238 Y89.409 E2.40372
G1 X124.215 Y89.944 E2.42696
G1 X124.112 Y90.471 E2.45026
G1 X124.075 Y90.575 E2.45505
G1 X124.487 Y90.849 E2.47653
G1 X124.883 Y91.210 E2.49978
G1 X125.222 Y91.626 E2.52307
G1 X125.496 Y92.087 E2.54635
G1 X125.753 Y92.771 E2.57806
G1 X126.005 Y93.735 E2.62130
G1 X126.106 Y94.172 E2.64077
G1 X126.187 Y94.702 E2.66404
G1 X126.189 Y95.239 E2.68735
G1 X126.111 Y95.769 E2.71059
G1 X125.955 Y96.282 E2.73387
G1 X125.725 Y96.767 E2.75716
G1 X125.663 Y96.859 E2.76198
G1 X125.991 Y97.223 E2.78324
G1 X126.286 Y97.671 E2.80652
G1 X126.512 Y98.157 E2.82978
G1 X126.663 Y98.672 E2.85308
G1 X126.742 Y99.404 E2.88503
G1 X126.746 Y100.391 E2.92787
G1 X126.736 Y100.840 E2.94736
G1 X126.684 Y101.374 E2.97064
G1 X126.554 Y101.894 E2.99390
G1 X126.347 Y102.389 E3.01719
G1 X126.070 Y102.848 E3.04046
G1 X125.727 Y103.260 E3.06372
G1 X125.639 Y103.338 E3.06883
G1 X125.866 Y103.774 E3.09016
G1 X126.041 Y104.281 E3.11344
G1 X126.138 Y104.808 E3.13669
G1 X126.156 Y105.344 E3.15997
G1 X126.050 Y106.076 E3.19207
G1 X125.807 Y107.033 E3.23492
G1 X125.685 Y107.466 E3.25445
G1 X125.502 Y107.970 E3.27772
G1 X125.245 Y108.441 E3.30100
G1 X124.922 Y108.869 E3.32428
G1 X124.538 Y109.244 E3.34757
G1 X124.104 Y109.558 E3.37082
G1 X124.002 Y109.611 E3.37581
G1 X124.114 Y110.089 E3.39711
G1 X124.157 Y110.624 E3.42041
G1 X124.120 Y111.159 E3.44368
G1 X124.004 Y111.682 E3.46693
G1 X123.723 Y112.357 E3.49866
G1 X123.245 Y113.236 E3.54209
G1 X123.019 Y113.624 E3.56158
G1 X122.715 Y114.066 E3.58486
G1 X122.349 Y114.458 E3.60813
G1 X121.929 Y114.791 E3.63140
G1 X121.464 Y115.058 E3.65467
G1 X120.964 Y115.254 E3.67798
G1 X120.858 Y115.278 E3.68269
G1 X120.847 Y115.771 E3.70409
G1 X120.755 Y116.299 E3.72735
G1 X120.586 Y116.808 E3.75063
G1 X120.343 Y117.286 E3.77390
G1 X119.903 Y117.870 E3.80564
G1 X119.226 Y118.597 E3.84875
G1 X118.911 Y118.917 E3.86824
G1 X118.507 Y119.271 E3.89155
G1 X118.055 Y119.560 E3.91484
G1 X117.566 Y119.779 E3.93809
G1 X117.049 Y119.922 E3.96137
G1 X116.517 Y119.988 E3.98464
G1 X116.403 Y119.985 E3.98959
G1 X116.270 Y120.460 E4.01099
G1 X116.050 Y120.949 E4.03426
G1 X115.759 Y121.400 E4.05756
G1 X115.405 Y121.803 E4.08084
G1 X114.831 Y122.260 E4.11268
G1 X114.001 Y122.791 E4.15545
G1 X113.617 Y123.023 E4.17492
G1 X113.138 Y123.266 E4.19823
G1 X112.629 Y123.434 E4.22149
G1 X112.101 Y123.525 E4.24474
G1 X111.564 Y123.537 E4.26805
G1 X111.033 Y123.469 E4.29129
G1 X110.918 Y123.436 E4.29648
G1 X110.669 Y123.865 E4.31801
G1 X110.333 Y124.283 E4.34128
G1 X109.940 Y124.648 E4.36456
G1 X109.496 Y124.949 E4.38784
G1 X108.834 Y125.246 E4.41933
G1 X107.883 Y125.560 E4.46280
G1 X107.453 Y125.688 E4.48227
G1 X106.929 Y125.803 E4.50555
G1 X106.394 Y125.838 E4.52882
G1 X105.860 Y125.793 E4.55208
G1 X105.338 Y125.670 E4.57535
G1 X104.840 Y125.470 E4.59864
G1 X104.747 Y125.415 E4.60333
G1 X104.401 Y125.766 E4.62472
G1 X103.972 Y126.089 E4.64803
G1 X103.501 Y126.344 E4.67128
G1 X102.996 Y126.526 E4.69457
G1 X102.275 Y126.650 E4.72632
G1 X101.286 Y126.717 E4.76934
G1 X100.837 Y126.735 E4.78885
G1 X100.301 Y126.717 E4.81212
G1 X99.774 Y126.619 E4.83539
G1 X99.267 Y126.444 E4.85866
G1 X98.792 Y126.195 E4.88194
G1 X98.359 Y125.879 E4.90520
G1 X98.277 Y125.798 E4.91021
G1 X97.854 Y126.053 E4.93164
G1 X97.359 Y126.259 E4.95491
G1 X96.838 Y126.388 E4.97821
G1 X96.304 Y126.439 E5.00149
G1 X95.577 Y126.380 E5.03314
G1 X94.596 Y126.198 E5.07645
G1 X94.157 Y126.103 E5.09594
G1 X93.642 Y125.950 E5.11926
G1 X93.156 Y125.724 E5.14252
G1 X92.710 Y125.427 E5.16577
G1 X92.312 Y125.067 E5.18906
G1 X91.972 Y124.653 E5.21231
G1 X91.916 Y124.559 E5.21706
G1 X91.447 Y124.700 E5.23832
G1 X90.916 Y124.777 E5.26160
G1 X90.379 Y124.773 E5.28491
G1 X89.850 Y124.691 E5.30814
G1 X89.154 Y124.451 E5.34010
G1 X88.250 Y124.029 E5.38339
G1 X87.849 Y123.828 E5.40286
G1 X87.389 Y123.553 E5.42612
G1 X86.974 Y123.212 E5.44943
G1 X86.615 Y122.814 E5.47269
G1 X86.320 Y122.367 E5.49594
G1 X86.094 Y121.880 E5.51924
G1 X86.063 Y121.777 E5.52391
G1 X85.566 Y121.796 E5.54549
G1 X85.033 Y121.737 E5.56877
G1 X84.515 Y121.600 E5.59202
G1 X84.022 Y121.387 E5.61533
G1 X83.414 Y120.984 E5.64699
G1 X82.647 Y120.356 E5.69001
G1 X82.308 Y120.062 E5.70948
G1 X81.930 Y119.681 E5.73278
G1 X81.613 Y119.249 E5.75603
G1 X81.364 Y118.774 E5.77931
G1 X81.188 Y118.267 E5.80260
G1 X81.089 Y117.740 E5.82587
G1 X81.085 Y117.625 E5.83086
G1 X80.602 Y117.522 E5.85230
G1 X80.100 Y117.333 E5.87558
G1 X79.632 Y117.071 E5.89886
G1 X79.208 Y116.743 E5.92212
G1 X78.717 Y116.201 E5.95386
G1 X78.131 Y115.401 E5.99690
G1 X77.875 Y115.031 E6.01643
G1 X77.603 Y114.569 E6.03969
G1 X77.403 Y114.071 E6.06298
G1 X77.280 Y113.549 E6.08626
G1 X77.235 Y113.015 E6.10952
G1 X77.270 Y112.480 E6.13279
G1 X77.295 Y112.368 E6.13777
G1 X76.855 Y112.149 E6.15910
G1 X76.416 Y111.841 E6.18237
G1 X76.027 Y111.471 E6.20567
G1 X75.698 Y111.048 E6.22893
G1 X75.355 Y110.397 E6.26086
G1 X74.991 Y109.486 E6.30344
G1 X74.834 Y109.064 E6.32298
G1 X74.685 Y108.549 E6.34625
G1 X74.614 Y108.018 E6.36950
G1 X74.623 Y107.481 E6.39281
G1 X74.711 Y106.952 E6.41608
G1 X74.877 Y106.442 E6.43936
G1 X74.932 Y106.332 E6.44470
G1 X74.559 Y106.008 E6.46614
G1 X74.211 Y105.600 E6.48941
G1 X73.927 Y105.145 E6.51269
G1 X73.713 Y104.653 E6.53598
G1 X73.545 Y103.946 E6.56752
G1 X73.416 Y102.960 E6.61067
G1 X73.370 Y102.512 E6.63022
G1 X73.355 Y101.976 E6.65349
G1 X73.420 Y101.443 E6.67679
G1 X73.563 Y100.927 E6.70003
G1 X73.782 Y100.437 E6.72333
G1 X74.070 Y99.985 E6.74659
G1 X74.144 Y99.900 E6.75148
G1 X73.864 Y99.495 E6.77285
G1 X73.627 Y99.014 E6.79612
G1 X73.465 Y98.503 E6.81938
G1 X73.381 Y97.973 E6.84267
G1 X73.394 Y97.242 E6.87440
G1 X73.514 Y96.253 E6.91764
G1 X73.581 Y95.809 E6.93713
G1 X73.701 Y95.286 E6.96042
G1 X73.896 Y94.787 E6.98367
G1 X74.164 Y94.322 E7.00696
G1 X74.498 Y93.902 E7.03025
G1 X74.890 Y93.537 E7.05350
G1 X74.982 Y93.474 E7.05834
G1 X74.812 Y93.013 E7.07966
G1 X74.702 Y92.488 E7.10294
G1 X74.672 Y91.953 E7.12620
G1 X74.721 Y91.419 E7.14947
G1 X74.916 Y90.712 E7.18130
G1 X75.278 Y89.784 E7.22453
G1 X75.453 Y89.371 E7.24400
G1 X75.699 Y88.895 E7.26725
G1 X76.012 Y88.460 E7.29051
G1 X76.387 Y88.076 E7.31380
G1 X76.814 Y87.752 E7.33707
G1 X77.285 Y87.495 E7.36035
G1 X77.391 Y87.456 E7.36526
G1 X77.340 Y86.966 E7.38664
G1 X77.365 Y86.431 E7.40988
G1 X77.469 Y85.905 E7.43315
G1 X77.650 Y85.400 E7.45643
G1 X78.015 Y84.763 E7.48830
G1 X78.593 Y83.961 E7.53120
G1 X78.865 Y83.604 E7.55068
G1 X79.221 Y83.203 E7.57395
G1 X79.633 Y82.859 E7.59725
G1 X80.091 Y82.580 E7.62052
G1 X80.585 Y82.373 E7.64377
G1 X81.105 Y82.240 E7.66706
G1 X81.221 Y82.228 E7.67212
G0 F7200.00000 X81.614 Y82.598
G1 F1200.000 X81.619 Y82.241 E7.68762
G1 X81.705 Y81.743 E7.70955
G1 X81.869 Y81.265 E7.73148
G1 X82.106 Y80.818 E7.75344
G1 X82.410 Y80.415 E7.77535
G1 X82.749 Y80.085 E7.79588
G1 X83.511 Y79.449 E7.83896
G1 X83.864 Y79.172 E7.85843
G1 X84.285 Y78.892 E7.88038
G1 X84.745 Y78.682 E7.90232
G1 X85.232 Y78.547 E7.92426
G1 X85.734 Y78.491 E7.94618
G1 X86.239 Y78.514 E7.96812
G1 X86.520 Y78.572 E7.98057
G1 X86.614 Y78.226 E7.99613
G1 X86.822 Y77.765 E8.01808
G1 X87.100 Y77.343 E8.04001
G1 X87.441 Y76.969 E8.06198
G1 X87.836 Y76.654 E8.08390
G1 X88.246 Y76.420 E8.10439
G1 X89.131 Y75.998 E8.14694
G1 X89.542 Y75.816 E8.16645
G1 X90.019 Y75.648 E8.18840
G1 X90.517 Y75.558 E8.21036
G1 X91.022 Y75.547 E8.23229
G1 X91.523 Y75.616 E8.25424
G1 X92.007 Y75.763 E8.27619
G1 X92.273 Y75.892 E8.28902
G1 X92.446 Y75.586 E8.30428
G1 X92.761 Y75.191 E8.32620
G1 X93.135 Y74.850 E8.34817
G1 X93.557 Y74.572 E8.37010
G1 X94.018 Y74.365 E8.39203
G1 X94.478 Y74.238 E8.41274
G1 X95.442 Y74.049 E8.45538
G1 X95.885 Y73.975 E8.47487
G1 X96.388 Y73.931 E8.49678
G1 X96.893 Y73.967 E8.51876
G1 X97.385 Y74.083 E8.54069
G1 X97.853 Y74.274 E8.56263
G1 X98.285 Y74.536 E8.58456
G1 X98.509 Y74.727 E8.59733
G1 X98.752 Y74.474 E8.61256
G1 X99.156 Y74.169 E8.63453
G1 X99.602 Y73.932 E8.65645
G1 X100.080 Y73.768 E8.67838
G1 X100.578 Y73.681 E8.70032
G1 X101.061 Y73.672 E8.72129
G1 X102.042 Y73.730 E8.76394
G1 X102.490 Y73.769 E8.78345
G1 X102.988 Y73.853 E8.80537
G1 X103.467 Y74.014 E8.82730
G1 X103.915 Y74.248 E8.84924
G1 X104.321 Y74.550 E8.87120
G1 X104.673 Y74.912 E8.89311
G1 X104.842 Y75.150 E8.90578
G1 X105.143 Y74.965 E8.92112
G1 X105.609 Y74.770 E8.94304
G1 X106.101 Y74.652 E8.96500
G1 X106.605 Y74.612 E8.98694
G1 X107.109 Y74.652 E9.00888
G1 X107.576 Y74.763 E9.02972
G1 X108.512 Y75.064 E9.07239
G1 X108.935 Y75.213 E9.09185
G1 X109.397 Y75.418 E9.11379
G1 X109.821 Y75.693 E9.13572
G1 X110.197 Y76.032 E9.15769
G1 X110.514 Y76.425 E9.17961
G1 X110.765 Y76.864 E9.20155
G1 X110.869 Y77.136 E9.21419
G1 X111.207 Y77.031 E9.22955
G1 X111.708 Y76.959 E9.25152
G1 X112.213 Y76.966 E9.27344
G1 X112.711 Y77.053 E9.29538
G1 X113.189 Y77.218 E9.31732
G1 X113.610 Y77.439 E9.33796
G1 X114.448 Y77.965 E9.38090
G1 X114.821 Y78.215 E9.40039
G1 X115.217 Y78.529 E9.42232
G1 X115.559 Y78.901 E9.44425
G1 X115.838 Y79.322 E9.46617
G1 X116.048 Y79.783 E9.48816
G1 X116.182 Y80.270 E9.51008
G1 X116.213 Y80.557 E9.52261
G1 X116.566 Y80.539 E9.53795
G1 X117.069 Y80.594 E9.55991
G1 X117.557 Y80.726 E9.58185
G1 X118.018 Y80.934 E9.60380
G1 X118.440 Y81.212 E9.62573
G1 X118.796 Y81.536 E9.64662
G1 X119.470 Y82.247 E9.68914
G1 X119.770 Y82.582 E9.70866
G1 X120.076 Y82.984 E9.73058
G1 X120.316 Y83.430 E9.75257
G1 X120.482 Y83.907 E9.77449
G1 X120.571 Y84.405 E9.79644
G1 X120.580 Y84.910 E9.81836
G1 X120.539 Y85.200 E9.83107
G1 X120.885 Y85.271 E9.84640
G1 X121.359 Y85.448 E9.86836
G1 X121.798 Y85.698 E9.89029
G1 X122.193 Y86.014 E9.91224
G1 X122.533 Y86.389 E9.93421
G1 X122.797 Y86.789 E9.95501
G1 X123.273 Y87.648 E9.99763
G1 X123.480 Y88.047 E10.01714
G1 X123.677 Y88.513 E10.03910
G1 X123.798 Y89.004 E10.06104
G1 X123.840 Y89.508 E10.08299
G1 X123.802 Y90.012 E10.10493
G1 X123.685 Y90.504 E10.12688
G1 X123.574 Y90.773 E10.13951
G1 X123.894 Y90.929 E10.15496
G1 X124.308 Y91.219 E10.17689
G1 X124.671 Y91.571 E10.19884
G1 X124.975 Y91.975 E10.22078
G1 X125.211 Y92.422 E10.24272
G1 X125.366 Y92.873 E10.26342
G1 X125.615 Y93.825 E10.30612
G1 X125.716 Y94.262 E10.32559
G1 X125.790 Y94.762 E10.34753
G1 X125.785 Y95.268 E10.36949
G1 X125.701 Y95.766 E10.39141
G1 X125.539 Y96.245 E10.41335
G1 X125.303 Y96.693 E10.43533
G1 X125.128 Y96.926 E10.44798
G1 X125.397 Y97.154 E10.46328
G1 X125.726 Y97.537 E10.48519
G1 X125.991 Y97.968 E10.50715
G1 X126.185 Y98.435 E10.52910
G1 X126.303 Y98.926 E10.55101
G1 X126.342 Y99.406 E10.57191
G1 X126.346 Y100.382 E10.61427
G1 X126.336 Y100.831 E10.63377
G1 X126.285 Y101.334 E10.65571
G1 X126.155 Y101.823 E10.67767
G1 X125.950 Y102.285 E10.69960
G1 X125.675 Y102.709 E10.72154
G1 X125.336 Y103.084 E10.74348
G1 X125.105 Y103.271 E10.75637
G1 X125.308 Y103.559 E10.77167
G1 X125.532 Y104.012 E10.79360
G1 X125.681 Y104.495 E10.81554
G1 X125.753 Y104.996 E10.83750
G1 X125.744 Y105.501 E10.85942
G1 X125.662 Y105.978 E10.88043
G1 X125.422 Y106.925 E10.92283
G1 X125.300 Y107.358 E10.94235
G1 X125.125 Y107.832 E10.96428
G1 X124.877 Y108.273 E10.98624
G1 X124.563 Y108.669 E11.00817
G1 X124.191 Y109.011 E11.03010
G1 X123.769 Y109.290 E11.05206
G1 X123.501 Y109.412 E11.06484
G1 X123.627 Y109.742 E11.08017
G1 X123.731 Y110.237 E11.10212
G1 X123.755 Y110.742 E11.12406
G1 X123.700 Y111.244 E11.14598
G1 X123.566 Y111.732 E11.16794
G1 X123.371 Y112.167 E11.18863
G1 X122.899 Y113.035 E11.23151
G1 X122.673 Y113.423 E11.25100
G1 X122.385 Y113.838 E11.27293
G1 X122.035 Y114.203 E11.29487
G1 X121.632 Y114.508 E11.31681
G1 X121.186 Y114.746 E11.33875
G1 X120.708 Y114.910 E11.36068
G1 X120.422 Y114.961 E11.37329
G1 X120.462 Y115.313 E11.38866
G1 X120.439 Y115.818 E11.41060
G1 X120.337 Y116.313 E11.43254
G1 X120.158 Y116.786 E11.45449
G1 X119.907 Y117.225 E11.47643
G1 X119.610 Y117.597 E11.49709
G1 X118.940 Y118.317 E11.53978
G1 X118.625 Y118.637 E11.55927
G1 X118.243 Y118.968 E11.58120
G1 X117.814 Y119.235 E11.60313
G1 X117.348 Y119.431 E11.62507
G1 X116.857 Y119.551 E11.64701
G1 X116.353 Y119.592 E11.66896
G1 X116.060 Y119.569 E11.68171
G1 X116.011 Y119.921 E11.69714
