;FLAVOR:RepRap
;TIME:6726
M190 S50.000000
M104 S210.000000
M109 S210.000000
G21 ;metric values
G90 ;absolute positioning
M82 ;set extruder to absolute mode
M107 ;start with the fan off
G92 X0 Y0 Z0 ;Zero X Y and Z axis
G1 Z15.0 F9000 ;move the platform down 15mm
G92 E0 ;zero the extruded length
G1 F200 E3 ;extrude 3mm of feed stock
G92 E0 ;zero the extruded length again
G1 F9000
;Put printing message on LCD screen
M117 Printing...
;Generated with Cura_SteamEngine 2.1.3
;LAYER_COUNT:146
;LAYER:0
M107
G1 F4200.000000 E-6.40000
G1 Z20.200
G0 F7200.000 X74.356 Y65.559 Z0.500
;TYPE:SKIRT
G1 Z0.300
G1 F4200.000 E0.00000
G1 F1200.00000 X74.748 Y65.193 E0.02328
G1 X75.190 Y64.890 E0.04653
G1 X75.673 Y64.655 E0.06984
G1 X76.184 Y64.495 E0.09308
G1 X76.714 Y64.412 E0.11637
G1 X77.001 Y64.401 E0.12883
G1 X122.999 Y64.401 E2.12515
G1 X123.534 Y64.441 E2.14844
G1 X124.057 Y64.560 E2.17171
G1 X124.556 Y64.755 E2.19497
G1 X125.021 Y65.023 E2.21826
G1 X125.441 Y65.356 E2.24152
G1 X125.807 Y65.748 E2.26480
G1 X126.110 Y66.190 E2.28805
G1 X126.345 Y66.673 E2.31137
G1 X126.505 Y67.184 E2.33461
G1 X126.588 Y67.714 E2.35789
G1 X126.599 Y68.001 E2.37035
G1 X126.599 Y131.999 E5.14788
G1 X126.559 Y132.534 E5.17116
G1 X126.440 Y133.057 E5.19444
G1 X126.245 Y133.556 E5.21769
G1 X125.977 Y134.021 E5.24098
G1 X125.644 Y134.441 E5.26424
G1 X125.252 Y134.807 E5.28752
G1 X124.810 Y135.110 E5.31078
G1 X124.327 Y135.345 E5.33409
G1 X123.816 Y135.505 E5.35733
G1 X123.286 Y135.588 E5.38061
G1 X122.999 Y135.599 E5.39308
G1 X77.022 Y135.599 E7.38849
G1 X76.487 Y135.559 E7.41177
G1 X75.964 Y135.440 E7.43505
G1 X75.465 Y135.245 E7.45830
G1 X75.000 Y134.977 E7.48159
G1 X74.580 Y134.644 E7.50485
G1 X74.214 Y134.252 E7.52813
G1 X73.911 Y133.810 E7.55139
G1 X73.676 Y133.327 E7.57470
G1 X73.516 Y132.816 E7.59794
G1 X73.433 Y132.286 E7.62122
G1 X73.422 Y131.999 E7.63369
G1 X73.422 Y128.351 E7.79201
G1 X73.412 Y128.287 E7.79482
G1 X73.401 Y128.000 E7.80729
G1 X73.401 Y68.001 E10.41125
G1 X73.441 Y67.466 E10.43454
G1 X73.560 Y66.943 E10.45781
G1 X73.755 Y66.444 E10.48107
G1 X74.023 Y65.979 E10.50436
G1 X74.356 Y65.559 E10.52762
G0 F7200.00000 X74.750 Y65.726
G1 F1200.000 X75.137 Y65.400 E10.54958
G1 X75.570 Y65.139 E10.57152
G1 X76.038 Y64.949 E10.59345
G1 X76.531 Y64.836 E10.61540
G1 X77.001 Y64.801 E10.63585
G1 X122.999 Y64.801 E12.63217
G1 X123.503 Y64.841 E12.65411
G1 X123.994 Y64.960 E12.67604
G1 X124.461 Y65.154 E12.69799
G1 X124.891 Y65.420 E12.71993
G1 X125.274 Y65.750 E12.74187
G1 X125.600 Y66.137 E12.76383
G1 X125.861 Y66.570 E12.78578
G1 X126.051 Y67.038 E12.80770
G1 X126.164 Y67.531 E12.82965
G1 X126.199 Y68.001 E12.85010
G1 X126.199 Y131.999 E15.62763
G1 X126.159 Y132.503 E15.64957
G1 X126.040 Y132.994 E15.67150
G1 X125.846 Y133.461 E15.69344
G1 X125.580 Y133.891 E15.71539
G1 X125.250 Y134.274 E15.73733
G1 X124.863 Y134.600 E15.75929
G1 X124.430 Y134.861 E15.78123
G1 X123.962 Y135.051 E15.80315
G1 X123.469 Y135.164 E15.82510
G1 X122.999 Y135.199 E15.84556
G1 X77.022 Y135.199 E17.84097
G1 X76.518 Y135.159 E17.86291
G1 X76.027 Y135.040 E17.88484
G1 X75.560 Y134.846 E17.90678
G1 X75.130 Y134.580 E17.92873
G1 X74.747 Y134.250 E17.95067
G1 X74.421 Y133.863 E17.97263
G1 X74.160 Y133.430 E17.99457
G1 X73.970 Y132.962 E18.01649
G1 X73.857 Y132.469 E18.03844
G1 X73.822 Y131.999 E18.05890
G1 X73.822 Y128.282 E18.22022
G1 X73.801 Y128.000 E18.23249
G1 X73.801 Y68.001 E20.83646
G1 X73.841 Y67.497 E20.85840
G1 X73.960 Y67.006 E20.88033
G1 X74.154 Y66.539 E20.90227
G1 X74.420 Y66.109 E20.92422
G1 X74.750 Y65.726 E20.94616
G1 F4200.00000 E14.54616
G1 Z0.500
G0 F7200.000 X77.601 Y68.601 Z0.500
;TYPE:WALL-INNER
G1 Z0.300
G1 F4200.000 E20.94616
G1 F1200.00000 X122.399 Y68.601 E22.89040
G1 X122.399 Y131.399 E25.61584
G1 X77.622 Y131.399 E27.55917
G1 X77.622 Y127.400 E27.73273
G1 X77.601 Y127.400 E27.73364
G1 X77.601 Y68.601 E30.28552
G0 F7200.00000 X77.201 Y68.201
;TYPE:WALL-OUTER
G1 F1200.000 X122.799 Y68.201 E32.26449
G1 X122.799 Y131.799 E35.02465
G1 X77.222 Y131.799 E37.00270
G1 X77.222 Y127.800 E37.17625
G1 X77.201 Y127.800 E37.17717
G1 X77.201 Y68.201 E39.76377
G0 F7200.00000 X77.812 Y68.761
;TYPE:SKIN
G1 F1200.000 X122.239 Y113.188 E42.49057
G0 X122.309 Y113.258
G0 F7200.000 X122.239 Y112.623
G1 F1200.000 X78.377 Y68.761 E45.18269
G0 X78.307 Y68.691
G0 F7200.000 X78.943 Y68.761
G1 F1200.000 X122.239 Y112.057 E47.84008
G0 X122.309 Y112.127
G0 F7200.000 X122.239 Y111.491
G1 F1200.000 X79.509 Y68.761 E50.46272
G0 X79.439 Y68.691
G0 F7200.000 X80.074 Y68.761
G1 F1200.000 X122.239 Y110.925 E53.05065
G0 X122.309 Y110.995
G0 F7200.000 X122.239 Y110.360
G1 F1200.000 X80.640 Y68.761 E55.60388
G0 X80.570 Y68.691
G0 F7200.000 X81.206 Y68.761
G1 F1200.000 X122.239 Y109.794 E58.12237
G0 X122.309 Y109.864
G0 F7200.000 X122.239 Y109.228
G1 F1200.000 X81.771 Y68.761 E60.60614
G0 X81.701 Y68.691
G0 F7200.000 X82.337 Y68.761
G1 F1200.000 X122.239 Y108.663 E63.05521
G0 X122.309 Y108.733
G0 F7200.000 X122.239 Y108.097
G1 F1200.000 X82.903 Y68.761 E65.46954
G0 X82.833 Y68.691
G0 F7200.000 X83.469 Y68.761
G1 F1200.000 X122.239 Y107.531 E67.84913
G0 X122.309 Y107.601
G0 F7200.000 X122.239 Y106.966
G1 F1200.000 X84.034 Y68.761 E70.19404
G0 X83.964 Y68.691
G0 F7200.000 X84.600 Y68.761
G1 F1200.000 X122.239 Y106.400 E72.50422
G0 X122.309 Y106.470
G0 F7200.000 X122.239 Y105.834
G1 F1200.000 X85.166 Y68.761 E74.77965
G0 X85.096 Y68.691
G0 F7200.000 X85.731 Y68.761
G1 F1200.000 X122.239 Y105.269 E77.02040
G0 X122.309 Y105.339
G0 F7200.000 X122.239 Y104.703
G1 F1200.000 X86.297 Y68.761 E79.22642
G0 X86.227 Y68.691
G0 F7200.000 X86.863 Y68.761
G1 F1200.000 X122.239 Y104.137 E81.39770
G0 X122.309 Y104.207
G0 F7200.000 X122.239 Y103.572
G1 F1200.000 X87.428 Y68.761 E83.53429
G0 X87.358 Y68.691
G0 F7200.000 X87.994 Y68.761
G1 F1200.000 X122.239 Y103.006 E85.63615
G0 X122.309 Y103.076
G0 F7200.000 X122.239 Y102.440
G1 F1200.000 X88.560 Y68.761 E87.70327
G0 X88.490 Y68.691
G0 F7200.000 X89.125 Y68.761
G1 F1200.000 X122.239 Y101.874 E89.73568
G0 X122.309 Y101.944
G0 F7200.000 X122.239 Y101.309
G1 F1200.000 X89.691 Y68.761 E91.73338
G0 X89.621 Y68.691
G0 F7200.000 X90.257 Y68.761
G1 F1200.000 X122.239 Y100.743 E93.69635
G0 X122.309 Y100.813
G0 F7200.000 X122.239 Y100.177
G1 F1200.000 X90.822 Y68.761 E95.62460
G0 X90.752 Y68.691
G0 F7200.000 X91.388 Y68.761
G1 F1200.000 X122.238 Y99.611 E97.51808
G0 X122.308 Y99.681
G0 F7200.000 X122.238 Y99.045
G1 F1200.000 X91.954 Y68.761 E99.37683
G0 X91.884 Y68.691
G0 F7200.000 X92.519 Y68.761
G1 F1200.000 X122.238 Y98.480 E101.20089
G0 X122.308 Y98.550
G0 F7200.000 X122.238 Y97.914
G1 F1200.000 X93.085 Y68.761 E102.99022
G0 X93.015 Y68.691
G0 F7200.000 X93.651 Y68.761
G1 F1200.000 X122.238 Y97.348 E104.74481
G0 X122.308 Y97.418
G0 F7200.000 X122.238 Y96.783
G1 F1200.000 X94.217 Y68.761 E106.46468
G0 X94.147 Y68.691
G0 F7200.000 X94.782 Y68.761
G1 F1200.000 X122.238 Y96.217 E108.14985
G0 X122.308 Y96.287
G0 F7200.000 X122.238 Y95.651
G1 F1200.000 X95.348 Y68.761 E109.80028
G0 X95.278 Y68.691
G0 F7200.000 X95.914 Y68.761
G1 F1200.000 X122.238 Y95.086 E111.41600
G0 X122.308 Y95.156
G0 F7200.000 X122.238 Y94.520
G1 F1200.000 X96.479 Y68.761 E112.99702
G0 X96.409 Y68.691
G0 F7200.000 X97.045 Y68.761
G1 F1200.000 X122.238 Y93.954 E114.54329
G0 X122.308 Y94.024
G0 F7200.000 X122.238 Y93.389
G1 F1200.000 X97.611 Y68.761 E116.05485
G0 X97.541 Y68.691
G0 F7200.000 X98.176 Y68.761
G1 F1200.000 X122.238 Y92.823 E117.53171
G0 X122.308 Y92.893
G0 F7200.000 X122.238 Y92.257
G1 F1200.000 X98.742 Y68.761 E118.97383
G0 X98.672 Y68.691
G0 F7200.000 X99.308 Y68.761
G1 F1200.000 X122.238 Y91.691 E120.38120
G0 X122.308 Y91.761
G0 F7200.000 X122.238 Y91.126
G1 F1200.000 X99.873 Y68.761 E121.75390
G0 X99.803 Y68.691
G0 F7200.000 X100.439 Y68.761
G1 F1200.000 X122.238 Y90.560 E123.09186
G0 X122.308 Y90.630
G0 F7200.000 X122.238 Y89.994
G1 F1200.000 X101.005 Y68.761 E124.39508
G0 X100.935 Y68.691
G0 F7200.000 X101.570 Y68.761
G1 F1200.000 X122.238 Y89.429 E125.66362
G0 X122.308 Y89.499
G0 F7200.000 X122.238 Y88.863
G1 F1200.000 X102.136 Y68.761 E126.89743
G0 X102.066 Y68.691
G0 F7200.000 X102.702 Y68.761
G1 F1200.000 X122.238 Y88.297 E128.09649
G0 X122.308 Y88.367
G0 F7200.000 X122.238 Y87.732
G1 F1200.000 X103.267 Y68.761 E129.26087
G0 X103.197 Y68.691
G0 F7200.000 X103.833 Y68.761
G1 F1200.000 X122.238 Y87.166 E130.39052
G0 X122.308 Y87.236
G0 F7200.000 X122.238 Y86.600
G1 F1200.000 X104.399 Y68.761 E131.48542
G0 X104.329 Y68.691
G0 F7200.000 X104.965 Y68.761
G1 F1200.000 X122.238 Y86.035 E132.54562
G0 X122.308 Y86.105
G0 F7200.000 X122.238 Y85.469
G1 F1200.000 X105.530 Y68.761 E133.57111
G0 X105.460 Y68.691
G0 F7200.000 X106.096 Y68.761
G1 F1200.000 X122.238 Y84.903 E134.56186
G0 X122.308 Y84.973
G0 F7200.000 X122.238 Y84.338
G1 F1200.000 X106.662 Y68.761 E135.51790
G0 X106.592 Y68.691
G0 F7200.000 X107.227 Y68.761
G1 F1200.000 X122.238 Y83.772 E136.43923
G0 X122.308 Y83.842
G0 F7200.000 X122.238 Y83.206
G1 F1200.000 X107.793 Y68.761 E137.32582
G0 X107.723 Y68.691
G0 F7200.000 X108.359 Y68.761
G1 F1200.000 X122.238 Y82.640 E138.17768
G0 X122.308 Y82.710
G0 F7200.000 X122.238 Y82.075
G1 F1200.000 X108.924 Y68.761 E138.99485
G0 X108.854 Y68.691
G0 F7200.000 X109.490 Y68.761
G1 F1200.000 X122.238 Y81.509 E139.77729
G0 X122.308 Y81.579
G0 F7200.000 X122.238 Y80.943
G1 F1200.000 X110.056 Y68.761 E140.52498
G0 X109.986 Y68.691
G0 F7200.000 X110.621 Y68.761
G1 F1200.000 X122.238 Y80.378 E141.23800
G0 X122.308 Y80.448
G0 F7200.000 X122.238 Y79.812
G1 F1200.000 X111.187 Y68.761 E141.91628
G0 X111.117 Y68.691
G0 F7200.000 X111.753 Y68.761
G1 F1200.000 X122.238 Y79.246 E142.55982
G0 X122.308 Y79.316
G0 F7200.000 X122.238 Y78.681
G1 F1200.000 X112.318 Y68.761 E143.16868
G0 X112.248 Y68.691
G0 F7200.000 X112.884 Y68.761
G1 F1200.000 X122.238 Y78.115 E143.74280
G0 X122.308 Y78.185
G0 F7200.000 X122.238 Y77.549
G1 F1200.000 X113.450 Y68.761 E144.28218
G0 X113.380 Y68.691
G0 F7200.000 X114.016 Y68.761
G1 F1200.000 X122.238 Y76.984 E144.78685
G0 X122.308 Y77.054
G0 F7200.000 X122.238 Y76.418
G1 F1200.000 X114.581 Y68.761 E145.25682
G0 X114.511 Y68.691
G0 F7200.000 X115.147 Y68.761
G1 F1200.000 X122.238 Y75.852 E145.69204
G0 X122.308 Y75.922
G0 F7200.000 X122.238 Y75.287
G1 F1200.000 X115.713 Y68.761 E146.09256
G0 X115.643 Y68.691
G0 F7200.000 X116.278 Y68.761
G1 F1200.000 X122.238 Y74.721 E146.45837
G0 X122.308 Y74.791
G0 F7200.000 X122.238 Y74.155
G1 F1200.000 X116.844 Y68.761 E146.78943
G0 X116.774 Y68.691
G0 F7200.000 X117.410 Y68.761
G1 F1200.000 X122.238 Y73.590 E147.08579
G0 X122.308 Y73.660
G0 F7200.000 X122.238 Y73.024
G1 F1200.000 X117.975 Y68.761 E147.34744
G0 X117.905 Y68.691
G0 F7200.000 X118.541 Y68.761
G1 F1200.000 X122.238 Y72.458 E147.57436
G0 X122.308 Y72.528
G0 F7200.000 X122.238 Y71.892
G1 F1200.000 X119.107 Y68.761 E147.76653
G0 X119.037 Y68.691
G0 F7200.000 X119.672 Y68.761
G1 F1200.000 X122.238 Y71.327 E147.92402
G0 X122.308 Y71.397
G0 F7200.000 X122.238 Y70.761
G1 F1200.000 X120.238 Y68.761 E148.04677
G0 X120.168 Y68.691
G0 F7200.000 X120.804 Y68.761
G1 F1200.000 X122.238 Y70.195 E148.13479
G0 X122.308 Y70.265
G0 F7200.000 X122.238 Y69.630
G1 F1200.000 X121.369 Y68.761 E148.18813
G0 X121.299 Y68.691
G0 F7200.000 X121.935 Y68.761
G1 F1200.000 X122.238 Y69.064 E148.20672
G0 F7200.00000 X77.759 Y69.274
G1 F1200.000 X122.239 Y113.754 E150.93678
G0 X122.309 Y113.824
G0 F7200.000 X122.239 Y114.320
G1 F1200.000 X77.759 Y69.840 E153.66683
G0 X77.689 Y69.770
G0 F7200.000 X77.759 Y70.405
G1 F1200.000 X122.239 Y114.885 E156.39688
G0 X122.309 Y114.955
G0 F7200.000 X122.239 Y115.451
G1 F1200.000 X77.759 Y70.971 E159.12694
G0 X77.689 Y70.901
G0 F7200.000 X77.759 Y71.537
G1 F1200.000 X122.239 Y116.017 E161.85699
G0 X122.309 Y116.087
G0 F7200.000 X122.239 Y116.582
G1 F1200.000 X77.759 Y72.102 E164.58704
G0 X77.689 Y72.032
G0 F7200.000 X77.759 Y72.668
G1 F1200.000 X122.239 Y117.148 E167.31710
G0 X122.309 Y117.218
G0 F7200.000 X122.239 Y117.714
G1 F1200.000 X77.759 Y73.234 E170.04715
G0 X77.689 Y73.164
G0 F7200.000 X77.759 Y73.800
G1 F1200.000 X122.239 Y118.279 E172.77717
G0 X122.309 Y118.349
G0 F7200.000 X122.239 Y118.845
G1 F1200.000 X77.759 Y74.365 E175.50722
G0 X77.689 Y74.295
G0 F7200.000 X77.759 Y74.931
G1 F1200.000 X122.239 Y119.411 E178.23728
G0 X122.309 Y119.481
G0 F7200.000 X122.239 Y119.976
G1 F1200.000 X77.759 Y75.497 E180.96730
G0 X77.689 Y75.427
G0 F7200.000 X77.759 Y76.062
G1 F1200.000 X122.239 Y120.542 E183.69735
G0 X122.309 Y120.612
G0 F7200.000 X122.239 Y121.108
G1 F1200.000 X77.759 Y76.628 E186.42741
G0 X77.689 Y76.558
G0 F7200.000 X77.759 Y77.194
G1 F1200.000 X122.239 Y121.673 E189.15743
G0 X122.309 Y121.743
G0 F7200.000 X122.239 Y122.239
G1 F1200.000 X77.759 Y77.759 E191.88748
G0 X77.689 Y77.689
G0 F7200.000 X77.759 Y78.325
G1 F1200.000 X122.239 Y122.805 E194.61753
G0 X122.309 Y122.875
G0 F7200.000 X122.239 Y123.371
G1 F1200.000 X77.759 Y78.891 E197.34759
G0 X77.689 Y78.821
G0 F7200.000 X77.759 Y79.456
G1 F1200.000 X122.239 Y123.936 E200.07764
G0 X122.309 Y124.006
G0 F7200.000 X122.239 Y124.502
G1 F1200.000 X77.759 Y80.022 E202.80769
G0 X77.689 Y79.952
G0 F7200.000 X77.759 Y80.588
G1 F1200.000 X122.239 Y125.068 E205.53775
G0 X122.309 Y125.138
G0 F7200.000 X122.239 Y125.633
G1 F1200.000 X77.759 Y81.153 E208.26780
G0 X77.689 Y81.083
G0 F7200.000 X77.759 Y81.719
G1 F1200.000 X122.239 Y126.199 E210.99785
G0 X122.309 Y126.269
G0 F7200.000 X122.239 Y126.765
G1 F1200.000 X77.759 Y82.285 E213.72791
G0 X77.689 Y82.215
G0 F7200.000 X77.759 Y82.850
G1 F1200.000 X122.239 Y127.330 E216.45796
G0 X122.309 Y127.400
G0 F7200.000 X122.239 Y127.896
G1 F1200.000 X77.759 Y83.416 E219.18801
G0 X77.689 Y83.346
G0 F7200.000 X77.759 Y83.982
G1 F1200.000 X122.239 Y128.462 E221.91807
G0 X122.309 Y128.532
G0 F7200.000 X122.239 Y129.027
G1 F1200.000 X77.759 Y84.548 E224.64809
G0 X77.689 Y84.478
G0 F7200.000 X77.759 Y85.113
G1 F1200.000 X122.239 Y129.593 E227.37814
G0 X122.309 Y129.663
G0 F7200.000 X122.239 Y130.159
G1 F1200.000 X77.759 Y85.679 E230.10819
G0 X77.689 Y85.609
G0 F7200.000 X77.759 Y86.245
G1 F1200.000 X122.239 Y130.724 E232.83822
G0 X122.309 Y130.794
G0 F7200.000 X122.187 Y131.238
G1 F1200.000 X77.759 Y86.810 E235.56508
G0 X77.689 Y86.740
G0 F7200.000 X77.759 Y87.376
G1 F1200.000 X121.621 Y131.238 E238.25720
G0 X121.691 Y131.308
G0 F7200.000 X121.055 Y131.238
G1 F1200.000 X77.759 Y87.942 E240.91458
G0 X77.689 Y87.872
G0 F7200.000 X77.759 Y88.507
G1 F1200.000 X120.490 Y131.238 E243.53729
G0 X120.560 Y131.308
G0 F7200.000 X119.924 Y131.238
G1 F1200.000 X77.759 Y89.073 E246.12525
G0 X77.689 Y89.003
G0 F7200.000 X77.759 Y89.639
G1 F1200.000 X119.358 Y131.238 E248.67848
G0 X119.428 Y131.308
G0 F7200.000 X118.793 Y131.238
G1 F1200.000 X77.759 Y90.204 E251.19703
G0 X77.689 Y90.134
G0 F7200.000 X77.759 Y90.770
G1 F1200.000 X118.227 Y131.238 E253.68083
G0 X118.297 Y131.308
G0 F7200.000 X117.661 Y131.238
G1 F1200.000 X77.759 Y91.336 E256.12990
G0 X77.689 Y91.266
G0 F7200.000 X77.759 Y91.901
G1 F1200.000 X117.096 Y131.238 E258.54429
G0 X117.166 Y131.308
G0 F7200.000 X116.530 Y131.238
G1 F1200.000 X77.759 Y92.467 E260.92394
G0 X77.689 Y92.397
G0 F7200.000 X77.759 Y93.033
G1 F1200.000 X115.964 Y131.238 E263.26886
G0 X116.034 Y131.308
G0 F7200.000 X115.399 Y131.238
G1 F1200.000 X77.759 Y93.599 E265.57906
G0 X77.689 Y93.529
G0 F7200.000 X77.759 Y94.164
G1 F1200.000 X114.833 Y131.238 E267.85455
G0 X114.903 Y131.308
G0 F7200.000 X114.267 Y131.238
G1 F1200.000 X77.759 Y94.730 E270.09531
G0 X77.689 Y94.660
G0 F7200.000 X77.759 Y95.296
