;FLAVOR:RepRap
;TIME:356
M190 S50.000000
M104 S210.000000
M109 S210.000000
G21 ;metric values
G90 ;absolute positioning
M82 ;set extruder to absolute mode
M107 ;start with the fan off
G28 Z0 ;move Z to min endstops
G92 X0 Y0 Z0 ;Zero X Y and Z axis
G1 Z15.0 F9000 ;move the platform down 15mm
G92 E0 ;zero the extruded length
G1 F200 E3 ;extrude 3mm of feed stock
G92 E0 ;zero the extruded length again
G1 F9000
;Put printing message on LCD screen
M117 Printing...
;Generated with Cura_SteamEngine 2.1.3
;LAYER_COUNT:12
;LAYER:0
M107
G1 F4200.000000 E-6.40000
G1 Z20.200
G0 F7200.000 X89.072 Y69.647 Z0.500
;TYPE:SKIRT
G1 Z0.300
G1 F4200.000 E0.00000
G1 F1200.00000 X89.469 Y69.244 E0.02455
G1 X89.919 Y68.902 E0.04908
G1 X90.412 Y68.626 E0.07360
G1 X90.940 Y68.422 E0.09817
G1 X91.490 Y68.295 E0.12267
G1 X92.113 Y68.246 E0.14979
G1 X107.887 Y68.246 E0.83438
G1 X108.451 Y68.286 E0.85892
G1 X109.004 Y68.405 E0.88347
G1 X109.534 Y68.601 E0.90800
G1 X110.031 Y68.869 E0.93250
G1 X110.486 Y69.205 E0.95705
G1 X110.889 Y69.602 E0.98160
G1 X111.231 Y70.052 E1.00613
G1 X111.507 Y70.545 E1.03065
G1 X111.711 Y71.073 E1.05522
G1 X111.838 Y71.623 E1.07972
G1 X111.887 Y72.246 E1.10684
G1 X111.887 Y89.056 E1.83640
G1 X111.847 Y89.620 E1.86094
G1 X111.728 Y90.173 E1.88549
G1 X111.532 Y90.703 E1.91001
G1 X111.264 Y91.200 E1.93452
G1 X110.928 Y91.655 E1.95906
G1 X110.531 Y92.058 E1.98361
G1 X110.081 Y92.400 E2.00815
G1 X109.588 Y92.676 E2.03267
G1 X109.060 Y92.880 E2.05723
G1 X108.510 Y93.007 E2.08173
G1 X107.887 Y93.056 E2.10885
G1 X92.113 Y93.056 E2.79345
G1 X91.549 Y93.016 E2.81799
G1 X90.996 Y92.897 E2.84254
G1 X90.466 Y92.701 E2.86706
G1 X89.969 Y92.433 E2.89157
G1 X89.514 Y92.097 E2.91611
G1 X89.111 Y91.700 E2.94067
G1 X88.769 Y91.250 E2.96520
G1 X88.493 Y90.757 E2.98972
G1 X88.289 Y90.229 E3.01428
G1 X88.162 Y89.679 E3.03878
G1 X88.113 Y89.056 E3.06590
G1 X88.113 Y72.246 E3.79546
G1 X88.153 Y71.682 E3.82000
G1 X88.272 Y71.129 E3.84455
G1 X88.468 Y70.599 E3.86907
G1 X88.736 Y70.102 E3.89358
G1 X89.072 Y69.647 E3.91813
G0 F7200.00000 X89.468 Y69.804
G1 F1200.000 X89.860 Y69.438 E3.94140
G1 X90.302 Y69.135 E3.96466
G1 X90.785 Y68.900 E3.98797
G1 X91.296 Y68.740 E4.01121
G1 X91.826 Y68.657 E4.03449
G1 X92.113 Y68.646 E4.04696
G1 X107.887 Y68.646 E4.73155
G1 X108.422 Y68.686 E4.75484
G1 X108.945 Y68.805 E4.77811
G1 X109.444 Y69.000 E4.80137
G1 X109.909 Y69.268 E4.82466
G1 X110.329 Y69.601 E4.84792
G1 X110.695 Y69.993 E4.87120
G1 X110.998 Y70.435 E4.89445
G1 X111.233 Y70.918 E4.91777
G1 X111.393 Y71.429 E4.94101
G1 X111.476 Y71.959 E4.96429
G1 X111.487 Y72.246 E4.97675
G1 X111.487 Y89.056 E5.70631
G1 X111.447 Y89.591 E5.72959
G1 X111.328 Y90.114 E5.75287
G1 X111.133 Y90.613 E5.77612
G1 X110.865 Y91.078 E5.79942
G1 X110.532 Y91.498 E5.82268
G1 X110.140 Y91.864 E5.84595
G1 X109.698 Y92.167 E5.86921
G1 X109.215 Y92.402 E5.89252
G1 X108.704 Y92.562 E5.91576
G1 X108.174 Y92.645 E5.93905
G1 X107.887 Y92.656 E5.95151
G1 X92.113 Y92.656 E6.63610
G1 X91.578 Y92.616 E6.65939
G1 X91.055 Y92.497 E6.68267
G1 X90.556 Y92.302 E6.70592
G1 X90.091 Y92.034 E6.72921
G1 X89.671 Y91.701 E6.75247
G1 X89.305 Y91.309 E6.77575
G1 X89.002 Y90.867 E6.79901
G1 X88.767 Y90.384 E6.82232
G1 X88.607 Y89.873 E6.84556
G1 X88.524 Y89.343 E6.86884
G1 X88.513 Y89.056 E6.88130
G1 X88.513 Y72.246 E7.61086
G1 X88.553 Y71.711 E7.63415
G1 X88.672 Y71.188 E7.65742
G1 X88.867 Y70.689 E7.68068
G1 X89.135 Y70.224 E7.70397
G1 X89.468 Y69.804 E7.72723
G0 F7200.00000 X89.862 Y69.971
G1 F1200.000 X90.249 Y69.645 E7.74919
G1 X90.682 Y69.384 E7.77113
G1 X91.150 Y69.194 E7.79305
G1 X91.643 Y69.081 E7.81501
G1 X92.113 Y69.046 E7.83546
G1 X107.887 Y69.046 E8.52005
G1 X108.391 Y69.086 E8.54200
G1 X108.882 Y69.205 E8.56392
G1 X109.349 Y69.399 E8.58587
G1 X109.779 Y69.665 E8.60781
G1 X110.162 Y69.995 E8.62976
G1 X110.488 Y70.382 E8.65172
G1 X110.749 Y70.815 E8.67366
G1 X110.939 Y71.283 E8.69558
G1 X111.052 Y71.776 E8.71753
G1 X111.087 Y72.246 E8.73799
G1 X111.087 Y89.056 E9.46754
G1 X111.047 Y89.560 E9.48949
G1 X110.928 Y90.051 E9.51141
G1 X110.734 Y90.518 E9.53336
G1 X110.468 Y90.948 E9.55530
G1 X110.138 Y91.331 E9.57724
G1 X109.751 Y91.657 E9.59921
G1 X109.318 Y91.918 E9.62115
G1 X108.850 Y92.108 E9.64307
G1 X108.357 Y92.221 E9.66502
G1 X107.887 Y92.256 E9.68547
G1 X92.113 Y92.256 E10.37007
G1 X91.609 Y92.216 E10.39201
G1 X91.118 Y92.097 E10.41394
G1 X90.651 Y91.903 E10.43588
G1 X90.221 Y91.637 E10.45783
G1 X89.838 Y91.307 E10.47977
G1 X89.512 Y90.920 E10.50173
G1 X89.251 Y90.487 E10.52367
G1 X89.061 Y90.019 E10.54559
G1 X88.948 Y89.526 E10.56755
G1 X88.913 Y89.056 E10.58800
G1 X88.913 Y72.246 E11.31756
G1 X88.953 Y71.742 E11.33950
G1 X89.072 Y71.251 E11.36143
G1 X89.266 Y70.784 E11.38337
G1 X89.532 Y70.354 E11.40532
G1 X89.862 Y69.971 E11.42726
G1 F4200.00000 E5.02726
G1 Z0.500
G0 F7200.000 X92.713 Y72.846 Z0.500
;TYPE:WALL-INNER
G1 Z0.300
G1 F4200.000 E11.42726
G1 F1200.00000 X107.287 Y72.846 E12.05977
G1 X107.287 Y88.456 E12.73725
G1 X92.713 Y88.456 E13.36976
G1 X92.713 Y72.846 E14.04724
G0 F7200.00000 X92.813 Y72.916
G0 X97.878 Y78.316
G0 X97.949 Y78.385
G1 F1200.000 X97.689 Y78.681 E14.06434
G1 X97.471 Y78.979 E14.08036
G1 X97.268 Y79.320 E14.09759
G1 X97.103 Y79.669 E14.11434
G1 X96.969 Y80.045 E14.13166
G1 X96.876 Y80.402 E14.14767
G1 X96.814 Y80.794 E14.16490
G1 X96.789 Y81.188 E14.18203
G1 X96.812 Y81.689 E14.20380
G1 X96.874 Y82.083 E14.22111
G1 X96.970 Y82.455 E14.23778
G1 X97.098 Y82.810 E14.25416
G1 X97.268 Y83.171 E14.27148
G1 X97.469 Y83.509 E14.28855
G1 X97.688 Y83.809 E14.30467
G1 X97.948 Y84.105 E14.32176
G1 X98.241 Y84.378 E14.33915
G1 X98.545 Y84.610 E14.35574
G1 X98.868 Y84.814 E14.37232
G1 X99.220 Y84.991 E14.38942
G1 X99.584 Y85.132 E14.40636
G1 X99.952 Y85.238 E14.42298
G1 X100.336 Y85.308 E14.43992
G1 X100.717 Y85.342 E14.45652
G1 X101.108 Y85.341 E14.47349
G1 X101.491 Y85.301 E14.49021
G1 X101.884 Y85.223 E14.50760
G1 X102.243 Y85.115 E14.52387
G1 X102.987 Y84.810 E14.55876
G1 X102.987 Y77.681 E14.86816
G1 X102.243 Y77.377 E14.90305
G1 X101.885 Y77.268 E14.91929
G1 X101.489 Y77.191 E14.93679
G1 X101.111 Y77.152 E14.95329
G1 X100.720 Y77.149 E14.97026
G1 X100.338 Y77.182 E14.98690
G1 X99.953 Y77.252 E15.00388
G1 X99.585 Y77.358 E15.02050
G1 X99.219 Y77.499 E15.03752
G1 X98.867 Y77.678 E15.05466
G1 X98.546 Y77.881 E15.07115
G1 X98.245 Y78.110 E15.08756
G1 X97.949 Y78.385 E15.10510
G0 F7200.00000 X98.239 Y78.661
;TYPE:WALL-OUTER
G1 F1200.000 X98.007 Y78.925 E15.12035
G1 X97.801 Y79.207 E15.13551
G1 X97.622 Y79.508 E15.15070
G1 X97.472 Y79.825 E15.16592
G1 X97.354 Y80.155 E15.18113
G1 X97.266 Y80.493 E15.19629
G1 X97.211 Y80.839 E15.21150
G1 X97.190 Y81.190 E15.22676
G1 X97.210 Y81.649 E15.24670
G1 X97.265 Y81.997 E15.26199
G1 X97.353 Y82.336 E15.27719
G1 X97.471 Y82.665 E15.29236
G1 X97.621 Y82.982 E15.30758
G1 X97.800 Y83.283 E15.32278
G1 X98.006 Y83.565 E15.33793
G1 X98.238 Y83.829 E15.35319
G1 X98.495 Y84.068 E15.36842
G1 X98.773 Y84.281 E15.38362
G1 X99.069 Y84.467 E15.39879
G1 X99.382 Y84.625 E15.41401
G1 X99.708 Y84.752 E15.42919
G1 X100.044 Y84.848 E15.44436
G1 X100.388 Y84.911 E15.45954
G1 X100.737 Y84.942 E15.47474
G1 X101.087 Y84.941 E15.48993
G1 X101.436 Y84.905 E15.50516
G1 X101.779 Y84.837 E15.52033
G1 X102.115 Y84.736 E15.53556
G1 X102.587 Y84.542 E15.55771
G1 X102.587 Y77.949 E15.84385
G1 X102.116 Y77.756 E15.86594
G1 X101.780 Y77.655 E15.88116
G1 X101.436 Y77.587 E15.89638
G1 X101.088 Y77.552 E15.91156
G1 X100.738 Y77.549 E15.92675
G1 X100.389 Y77.579 E15.94196
G1 X100.045 Y77.642 E15.95713
G1 X99.709 Y77.738 E15.97230
G1 X99.382 Y77.865 E15.98752
G1 X99.069 Y78.024 E16.00276
G1 X98.774 Y78.210 E16.01790
G1 X98.496 Y78.422 E16.03307
G1 X98.239 Y78.661 E16.04830
G0 F7200.00000 X97.864 Y78.331
G0 X92.783 Y72.916
G0 X92.313 Y72.446
G1 F1200.000 X107.687 Y72.446 E16.71554
G1 X107.687 Y88.856 E17.42773
G1 X92.313 Y88.856 E18.09497
G1 X92.313 Y72.446 E18.80716
G0 F7200.00000 X92.872 Y73.073
;TYPE:SKIN
G1 F1200.000 X97.956 Y78.157 E19.11920
G0 X98.026 Y78.227
G0 F7200.000 X97.680 Y78.447
G1 F1200.000 X92.872 Y73.638 E19.41434
G0 X92.802 Y73.568
G0 F7200.000 X92.872 Y74.204
G1 F1200.000 X97.430 Y78.763 E19.69412
G0 X97.500 Y78.833
G0 F7200.000 X97.208 Y79.106
G1 F1200.000 X92.872 Y74.770 E19.96025
G0 X92.802 Y74.700
G0 F7200.000 X92.872 Y75.335
G1 F1200.000 X97.015 Y79.478 E20.21454
G0 X97.085 Y79.548
G0 F7200.000 X96.856 Y79.886
G1 F1200.000 X92.872 Y75.901 E20.45910
G0 X92.802 Y75.831
G0 F7200.000 X92.872 Y76.467
G1 F1200.000 X96.730 Y80.325 E20.69589
G0 X96.800 Y80.395
G0 F7200.000 X96.652 Y80.813
G1 F1200.000 X92.872 Y77.032 E20.92793
G0 X92.802 Y76.962
G0 F7200.000 X92.872 Y77.598
G1 F1200.000 X96.636 Y81.363 E21.15898
G0 X96.706 Y81.433
G0 F7200.000 X96.696 Y81.989
G1 F1200.000 X92.872 Y78.164 E21.39372
G0 X92.802 Y78.094
G0 F7200.000 X92.872 Y78.729
G1 F1200.000 X96.913 Y82.771 E21.64177
G0 X96.983 Y82.841
G0 F7200.000 X97.920 Y84.132
G0 X98.849 Y84.848
G0 X99.359 Y85.217
G1 F1200.000 X102.437 Y88.295 E21.83069
G0 X102.507 Y88.365
G0 F7200.000 X101.872 Y88.295
G1 F1200.000 X92.872 Y79.295 E22.38308
G0 X92.802 Y79.225
G0 F7200.000 X92.872 Y79.861
G1 F1200.000 X101.306 Y88.295 E22.90074
G0 X101.376 Y88.365
G0 F7200.000 X100.740 Y88.295
G1 F1200.000 X92.872 Y80.427 E23.38365
G0 X92.802 Y80.357
G0 F7200.000 X92.872 Y80.992
G1 F1200.000 X100.175 Y88.295 E23.83189
G0 X100.245 Y88.365
G0 F7200.000 X99.609 Y88.295
G1 F1200.000 X92.872 Y81.558 E24.24539
G0 X92.802 Y81.488
G0 F7200.000 X92.872 Y82.124
G1 F1200.000 X99.043 Y88.295 E24.62415
G0 X99.113 Y88.365
G0 F7200.000 X98.478 Y88.295
G1 F1200.000 X92.872 Y82.689 E24.96823
G0 X92.802 Y82.619
G0 F7200.000 X92.872 Y83.255
G1 F1200.000 X97.912 Y88.295 E25.27757
G0 X97.982 Y88.365
G0 F7200.000 X97.346 Y88.295
G1 F1200.000 X92.872 Y83.821 E25.55217
G0 X92.802 Y83.751
G0 F7200.000 X92.872 Y84.386
G1 F1200.000 X96.780 Y88.295 E25.79206
G0 X96.850 Y88.365
G0 F7200.000 X96.215 Y88.295
G1 F1200.000 X92.872 Y84.952 E25.99724
G0 X92.802 Y84.882
G0 F7200.000 X92.872 Y85.518
G1 F1200.000 X95.649 Y88.295 E26.16769
G0 X95.719 Y88.365
G0 F7200.000 X95.083 Y88.295
G1 F1200.000 X92.872 Y86.083 E26.30342
G0 X92.802 Y86.013
G0 F7200.000 X92.872 Y86.649
G1 F1200.000 X94.518 Y88.295 E26.40445
G0 X94.588 Y88.365
G0 F7200.000 X93.952 Y88.295
G1 F1200.000 X92.872 Y87.215 E26.47074
G0 X92.802 Y87.145
G0 F7200.000 X92.872 Y87.780
G1 F1200.000 X93.386 Y88.295 E26.50232
G0 F7200.00000 X100.143 Y85.435
G1 F1200.000 X103.003 Y88.295 E26.67785
G0 X103.073 Y88.365
G0 F7200.000 X103.569 Y88.295
G1 F1200.000 X100.775 Y85.501 E26.84934
G0 X100.705 Y85.431
G0 F7200.000 X101.319 Y85.480
G1 F1200.000 X104.134 Y88.295 E27.02212
G0 X104.204 Y88.365
G0 F7200.000 X104.700 Y88.295
G1 F1200.000 X101.806 Y85.401 E27.19974
G0 X101.736 Y85.331
G0 F7200.000 X102.251 Y85.280
G1 F1200.000 X105.266 Y88.295 E27.38480
G0 X105.336 Y88.365
G0 F7200.000 X105.831 Y88.295
G1 F1200.000 X102.655 Y85.119 E27.57973
G0 X102.585 Y85.049
G0 F7200.000 X103.056 Y84.954
G1 F1200.000 X106.397 Y88.295 E27.78479
G0 X106.467 Y88.365
G0 F7200.000 X106.963 Y88.295
G1 F1200.000 X103.146 Y84.478 E28.01907
G0 X103.076 Y84.408
G0 F7200.000 X103.146 Y83.913
G1 F1200.000 X107.126 Y87.893 E28.26335
G0 X107.196 Y87.963
G0 F7200.000 X107.126 Y87.327
G1 F1200.000 X103.146 Y83.347 E28.50763
G0 X103.076 Y83.277
G0 F7200.000 X103.146 Y82.781
G1 F1200.000 X107.126 Y86.762 E28.75194
G0 X107.196 Y86.832
G0 F7200.000 X107.126 Y86.196
G1 F1200.000 X103.146 Y82.216 E28.99622
G0 X103.076 Y82.146
G0 F7200.000 X103.146 Y81.650
G1 F1200.000 X107.126 Y85.630 E29.24050
G0 X107.196 Y85.700
G0 F7200.000 X107.126 Y85.064
G1 F1200.000 X103.146 Y81.084 E29.48478
G0 X103.076 Y81.014
G0 F7200.000 X103.146 Y80.518
G1 F1200.000 X107.126 Y84.499 E29.72909
G0 X107.196 Y84.569
G0 F7200.000 X107.126 Y83.933
G1 F1200.000 X103.146 Y79.953 E29.97337
G0 X103.076 Y79.883
G0 F7200.000 X103.146 Y79.387
G1 F1200.000 X107.126 Y83.367 E30.21766
G0 X107.196 Y83.437
G0 F7200.000 X107.126 Y82.802
G1 F1200.000 X103.146 Y78.821 E30.46197
G0 X103.076 Y78.751
G0 F7200.000 X103.146 Y78.256
G1 F1200.000 X107.126 Y82.236 E30.70625
G0 X107.196 Y82.306
G0 F7200.000 X107.126 Y81.670
G1 F1200.000 X103.146 Y77.690 E30.95053
G0 X103.076 Y77.620
G0 F7200.000 X102.949 Y77.493
G1 F1200.000 X98.461 Y73.005 E31.22599
G0 X98.391 Y72.935
G0 F7200.000 X97.896 Y73.005
G1 F1200.000 X102.036 Y77.146 E31.48012
G0 X102.106 Y77.216
G0 F7200.000 X101.339 Y77.014
G1 F1200.000 X97.330 Y73.005 E31.72618
G0 X97.260 Y72.935
G0 F7200.000 X96.764 Y73.005
G1 F1200.000 X100.747 Y76.989 E31.97068
G0 X100.817 Y77.059
G0 F7200.000 X100.230 Y77.037
G1 F1200.000 X96.199 Y73.005 E32.21812
G0 X96.129 Y72.935
G0 F7200.000 X95.633 Y73.005
G1 F1200.000 X99.765 Y77.138 E32.47176
G0 X99.835 Y77.208
G0 F7200.000 X99.341 Y77.279
G1 F1200.000 X95.067 Y73.005 E32.73409
G0 X94.997 Y72.935
G0 F7200.000 X94.501 Y73.005
G1 F1200.000 X98.951 Y77.455 E33.00721
G0 X99.021 Y77.525
G0 F7200.000 X98.592 Y77.662
G1 F1200.000 X93.936 Y73.005 E33.29302
G0 X93.866 Y72.935
G0 F7200.000 X93.370 Y73.005
G1 F1200.000 X98.260 Y77.896 E33.59318
G0 X98.330 Y77.966
G0 F7200.000 X98.310 Y77.936
G0 X99.027 Y73.005
G1 F1200.000 X107.126 Y81.105 E34.09030
G0 X107.196 Y81.175
G0 F7200.000 X107.126 Y80.539
G1 F1200.000 X99.593 Y73.005 E34.55269
G0 X99.523 Y72.935
G0 F7200.000 X100.158 Y73.005
G1 F1200.000 X107.126 Y79.973 E34.98036
G0 X107.196 Y80.043
G0 F7200.000 X107.126 Y79.408
G1 F1200.000 X100.724 Y73.005 E35.37333
G0 X100.654 Y72.935
G0 F7200.000 X101.290 Y73.005
G1 F1200.000 X107.126 Y78.842 E35.73156
G0 X107.196 Y78.912
G0 F7200.000 X107.126 Y78.276
G1 F1200.000 X101.855 Y73.005 E36.05508
G0 X101.785 Y72.935
G0 F7200.000 X102.421 Y73.005
G1 F1200.000 X107.126 Y77.711 E36.34389
G0 X107.196 Y77.781
G0 F7200.000 X107.126 Y77.145
G1 F1200.000 X102.987 Y73.005 E36.59796
G0 X102.917 Y72.935
G0 F7200.000 X103.552 Y73.005
G1 F1200.000 X107.126 Y76.579 E36.81732
G0 X107.196 Y76.649
G0 F7200.000 X107.126 Y76.013
G1 F1200.000 X104.118 Y73.005 E37.00194
G0 X104.048 Y72.935
G0 F7200.000 X104.684 Y73.005
G1 F1200.000 X107.126 Y75.448 E37.15186
G0 X107.196 Y75.518
G0 F7200.000 X107.126 Y74.882
G1 F1200.000 X105.250 Y73.005 E37.26703
G0 X105.180 Y72.935
G0 F7200.000 X105.815 Y73.005
G1 F1200.000 X107.126 Y74.316 E37.34749
G0 X107.196 Y74.386
G0 F7200.000 X107.126 Y73.751
G1 F1200.000 X106.381 Y73.005 E37.39325
G0 X106.311 Y72.935
G0 F7200.000 X106.947 Y73.005
G1 F1200.000 X107.126 Y73.185 E37.40427
G0 F7200.00000 X106.887 Y73.246
;LAYER:1
M106 S255.000
G0 X107.287 Y72.846 Z0.600
;TYPE:WALL-INNER
G1 F1500.000 X107.287 Y88.456 E38.08174
G1 X92.713 Y88.456 E38.71426
G1 X92.713 Y72.846 E39.39174
G1 X107.287 Y72.846 E40.02425
G0 F7200.00000 X103.070 Y77.626
G0 X102.987 Y77.681
G1 F1500.000 X102.247 Y77.378 E40.05895
G1 X101.880 Y77.267 E40.07559
G1 X101.505 Y77.192 E40.09219
G1 X101.115 Y77.152 E40.10921
G1 X100.726 Y77.148 E40.12609
G1 X100.343 Y77.181 E40.14277
G1 X99.960 Y77.251 E40.15967
G1 X99.584 Y77.356 E40.17661
G1 X99.234 Y77.494 E40.19294
G1 X98.879 Y77.672 E40.21018
G1 X98.549 Y77.878 E40.22706
G1 X98.249 Y78.106 E40.24341
G1 X97.961 Y78.375 E40.26052
G1 X97.696 Y78.673 E40.27783
G1 X97.472 Y78.977 E40.29421
G1 X97.269 Y79.320 E40.31151
G1 X97.104 Y79.664 E40.32807
G1 X96.973 Y80.027 E40.34482
G1 X96.878 Y80.393 E40.36123
G1 X96.814 Y80.784 E40.37842
G1 X96.790 Y81.178 E40.39556
G1 X96.800 Y81.554 E40.41188
G1 X96.848 Y81.944 E40.42893
G1 X96.933 Y82.326 E40.44592
G1 X97.053 Y82.695 E40.46276
G1 X97.200 Y83.038 E40.47895
G1 X97.389 Y83.382 E40.49599
