;FLAVOR:RepRap
;TIME:6759
M190 S50.000000
M104 S210.000000
M109 S210.000000
G21 ;metric values
G90 ;absolute positioning
M82 ;set extruder to absolute mode
M107 ;start with the fan off
G92 X0 Y0 Z0 ;Zero X Y and Z axis
G1 Z15.0 F9000 ;move the platform down 15mm
G92 E0 ;zero the extruded length
G1 F200 E3 ;extrude 3mm of feed stock
G92 E0 ;zero the extruded length again
G1 F9000
;Put printing message on LCD screen
M117 Printing...
;Generated with Cura_SteamEngine 2.1.3
;LAYER_COUNT:146
;LAYER:0
M107
G1 F4200.000000 E-6.40000
G1 Z20.200
G0 F7200.000 X74.356 Y64.058 Z0.500
;TYPE:SKIRT
G1 Z0.300
G1 F4200.000 E0.00000
G1 F1200.00000 X74.748 Y63.692 E0.02328
G1 X75.190 Y63.389 E0.04653
G1 X75.673 Y63.154 E0.06984
G1 X76.184 Y62.994 E0.09308
G1 X76.714 Y62.911 E0.11637
G1 X77.001 Y62.900 E0.12883
G1 X122.999 Y62.900 E2.12515
G1 X123.534 Y62.940 E2.14844
G1 X124.057 Y63.059 E2.17171
G1 X124.556 Y63.254 E2.19497
G1 X125.021 Y63.522 E2.21826
G1 X125.441 Y63.855 E2.24152
G1 X125.807 Y64.247 E2.26480
G1 X126.110 Y64.689 E2.28805
G1 X126.345 Y65.172 E2.31137
G1 X126.505 Y65.683 E2.33461
G1 X126.588 Y66.213 E2.35789
G1 X126.599 Y66.500 E2.37035
G1 X126.599 Y133.500 E5.27816
G1 X126.559 Y134.035 E5.30145
G1 X126.440 Y134.558 E5.32473
G1 X126.245 Y135.057 E5.34798
G1 X125.977 Y135.522 E5.37127
G1 X125.644 Y135.942 E5.39453
G1 X125.252 Y136.308 E5.41781
G1 X124.810 Y136.611 E5.44107
G1 X124.327 Y136.846 E5.46438
G1 X123.816 Y137.006 E5.48762
G1 X123.286 Y137.089 E5.51090
G1 X122.999 Y137.100 E5.52336
G1 X77.001 Y137.100 E7.51968
G1 X76.466 Y137.060 E7.54297
G1 X75.943 Y136.941 E7.56625
G1 X75.444 Y136.746 E7.58950
G1 X74.979 Y136.478 E7.61279
G1 X74.559 Y136.145 E7.63605
G1 X74.193 Y135.753 E7.65933
G1 X73.890 Y135.311 E7.68259
G1 X73.655 Y134.828 E7.70590
G1 X73.495 Y134.317 E7.72914
G1 X73.412 Y133.787 E7.75242
G1 X73.401 Y133.500 E7.76488
G1 X73.401 Y66.500 E10.67270
G1 X73.441 Y65.965 E10.69598
G1 X73.560 Y65.442 E10.71926
G1 X73.755 Y64.943 E10.74251
G1 X74.023 Y64.478 E10.76580
G1 X74.356 Y64.058 E10.78906
G0 F7200.00000 X74.750 Y64.225
G1 F1200.000 X75.137 Y63.899 E10.81103
G1 X75.570 Y63.638 E10.83297
G1 X76.038 Y63.448 E10.85489
G1 X76.531 Y63.335 E10.87684
G1 X77.001 Y63.300 E10.89729
G1 X122.999 Y63.300 E12.89361
G1 X123.503 Y63.340 E12.91556
G1 X123.994 Y63.459 E12.93748
G1 X124.461 Y63.653 E12.95943
G1 X124.891 Y63.919 E12.98138
G1 X125.274 Y64.249 E13.00332
G1 X125.600 Y64.636 E13.02528
G1 X125.861 Y65.069 E13.04722
G1 X126.051 Y65.537 E13.06914
G1 X126.164 Y66.030 E13.09109
G1 X126.199 Y66.500 E13.11155
G1 X126.199 Y133.500 E16.01936
G1 X126.159 Y134.004 E16.04130
G1 X126.040 Y134.495 E16.06323
G1 X125.846 Y134.962 E16.08517
G1 X125.580 Y135.392 E16.10712
G1 X125.250 Y135.775 E16.12906
G1 X124.863 Y136.101 E16.15102
G1 X124.430 Y136.362 E16.17296
G1 X123.962 Y136.552 E16.19488
G1 X123.469 Y136.665 E16.21683
G1 X122.999 Y136.700 E16.23729
G1 X77.001 Y136.700 E18.23361
G1 X76.497 Y136.660 E18.25555
G1 X76.006 Y136.541 E18.27748
G1 X75.539 Y136.347 E18.29943
G1 X75.109 Y136.081 E18.32137
G1 X74.726 Y135.751 E18.34331
G1 X74.400 Y135.364 E18.36527
G1 X74.139 Y134.931 E18.38721
G1 X73.949 Y134.463 E18.40914
G1 X73.836 Y133.970 E18.43109
G1 X73.801 Y133.500 E18.45154
G1 X73.801 Y66.500 E21.35935
G1 X73.841 Y65.996 E21.38129
G1 X73.960 Y65.505 E21.40322
G1 X74.154 Y65.038 E21.42517
G1 X74.420 Y64.608 E21.44711
G1 X74.750 Y64.225 E21.46905
G1 F4200.00000 E15.06905
G1 Z0.500
G0 F7200.000 X77.601 Y67.100 Z0.500
;TYPE:WALL-INNER
G1 Z0.300
G1 F4200.000 E21.46905
G1 F1200.00000 X122.399 Y67.100 E23.41329
G1 X122.399 Y132.900 E26.26902
G1 X77.601 Y132.900 E28.21326
G1 X77.601 Y67.100 E31.06899
G0 F7200.00000 X77.201 Y66.700
;TYPE:WALL-OUTER
G1 F1200.000 X122.799 Y66.700 E33.04795
G1 X122.799 Y133.300 E35.93841
G1 X77.201 Y133.300 E37.91737
G1 X77.201 Y66.700 E40.80782
G0 F7200.00000 X78.008 Y67.259
;TYPE:SKIN
G1 F1200.000 X122.238 Y111.490 E43.52256
G0 X122.308 Y111.560
G0 F7200.000 X122.238 Y110.925
G1 F1200.000 X78.573 Y67.259 E46.20262
G0 X78.503 Y67.189
G0 F7200.000 X79.139 Y67.259
G1 F1200.000 X122.238 Y110.359 E48.84794
G0 X122.308 Y110.429
G0 F7200.000 X122.238 Y109.793
G1 F1200.000 X79.705 Y67.259 E51.45852
G0 X79.635 Y67.189
G0 F7200.000 X80.270 Y67.259
G1 F1200.000 X122.238 Y109.228 E54.03443
G0 X122.308 Y109.298
G0 F7200.000 X122.238 Y108.662
G1 F1200.000 X80.836 Y67.259 E56.57559
G0 X80.766 Y67.189
G0 F7200.000 X81.402 Y67.259
G1 F1200.000 X122.238 Y108.096 E59.08202
G0 X122.308 Y108.166
G0 F7200.000 X122.238 Y107.531
G1 F1200.000 X81.967 Y67.259 E61.55377
G0 X81.897 Y67.189
G0 F7200.000 X82.533 Y67.259
G1 F1200.000 X122.238 Y106.965 E63.99077
G0 X122.308 Y107.035
G0 F7200.000 X122.238 Y106.399
G1 F1200.000 X83.099 Y67.259 E66.39304
G0 X83.029 Y67.189
G0 F7200.000 X83.664 Y67.259
G1 F1200.000 X122.238 Y105.834 E68.76063
G0 X122.308 Y105.904
G0 F7200.000 X122.238 Y105.268
G1 F1200.000 X84.230 Y67.259 E71.09348
G0 X84.160 Y67.189
G0 F7200.000 X84.796 Y67.259
G1 F1200.000 X122.238 Y104.702 E73.39160
G0 X122.308 Y104.772
G0 F7200.000 X122.238 Y104.137
G1 F1200.000 X85.361 Y67.259 E75.65503
G0 X85.291 Y67.189
G0 F7200.000 X85.927 Y67.259
G1 F1200.000 X122.238 Y103.571 E77.88372
G0 X122.308 Y103.641
G0 F7200.000 X122.238 Y103.005
G1 F1200.000 X86.493 Y67.259 E80.07768
G0 X86.423 Y67.189
G0 F7200.000 X87.058 Y67.259
G1 F1200.000 X122.238 Y102.439 E82.23692
G0 X122.308 Y102.509
G0 F7200.000 X122.238 Y101.874
G1 F1200.000 X87.624 Y67.259 E84.36146
G0 X87.554 Y67.189
G0 F7200.000 X88.190 Y67.259
G1 F1200.000 X122.238 Y101.308 E86.45126
G0 X122.308 Y101.378
G0 F7200.000 X122.238 Y100.742
G1 F1200.000 X88.756 Y67.259 E88.50632
G0 X88.686 Y67.189
G0 F7200.000 X89.321 Y67.259
G1 F1200.000 X122.238 Y100.177 E90.52670
G0 X122.308 Y100.247
G0 F7200.000 X122.238 Y99.611
G1 F1200.000 X89.887 Y67.259 E92.51234
G0 X89.817 Y67.189
G0 F7200.000 X90.453 Y67.259
G1 F1200.000 X122.238 Y99.045 E94.46324
G0 X122.308 Y99.115
G0 F7200.000 X122.238 Y98.480
G1 F1200.000 X91.018 Y67.259 E96.37947
G0 X90.948 Y67.189
G0 F7200.000 X91.584 Y67.259
G1 F1200.000 X122.238 Y97.914 E98.26095
G0 X122.308 Y97.984
G0 F7200.000 X122.238 Y97.348
G1 F1200.000 X92.150 Y67.259 E100.10769
G0 X92.080 Y67.189
G0 F7200.000 X92.715 Y67.259
G1 F1200.000 X122.238 Y96.783 E101.91976
G0 X122.308 Y96.853
G0 F7200.000 X122.238 Y96.217
G1 F1200.000 X93.281 Y67.259 E103.69709
G0 X93.211 Y67.189
G0 F7200.000 X93.847 Y67.259
G1 F1200.000 X122.238 Y95.651 E105.43968
G0 X122.308 Y95.721
G0 F7200.000 X122.238 Y95.086
G1 F1200.000 X94.412 Y67.259 E107.14759
G0 X94.342 Y67.189
G0 F7200.000 X94.978 Y67.259
G1 F1200.000 X122.238 Y94.520 E108.82076
G0 X122.308 Y94.590
G0 F7200.000 X122.238 Y93.954
G1 F1200.000 X95.544 Y67.259 E110.45919
G0 X95.474 Y67.189
G0 F7200.000 X96.109 Y67.259
G1 F1200.000 X122.238 Y93.389 E112.06294
G0 X122.308 Y93.459
G0 F7200.000 X122.238 Y92.823
G1 F1200.000 X96.675 Y67.259 E113.63195
G0 X96.605 Y67.189
G0 F7200.000 X97.241 Y67.259
G1 F1200.000 X122.238 Y92.257 E115.16623
G0 X122.308 Y92.327
G0 F7200.000 X122.238 Y91.691
G1 F1200.000 X97.807 Y67.259 E116.66576
G0 X97.737 Y67.189
G0 F7200.000 X98.372 Y67.259
G1 F1200.000 X122.238 Y91.126 E118.13062
G0 X122.308 Y91.196
G0 F7200.000 X122.238 Y90.560
G1 F1200.000 X98.938 Y67.259 E119.56073
G0 X98.868 Y67.189
G0 F7200.000 X99.504 Y67.259
G1 F1200.000 X122.238 Y89.994 E120.95611
G0 X122.308 Y90.064
G0 F7200.000 X122.238 Y89.429
G1 F1200.000 X100.069 Y67.259 E122.31681
G0 X99.999 Y67.189
G0 F7200.000 X100.635 Y67.259
G1 F1200.000 X122.238 Y88.863 E123.64277
G0 X122.308 Y88.933
G0 F7200.000 X122.238 Y88.297
G1 F1200.000 X101.201 Y67.259 E124.93399
G0 X101.131 Y67.189
G0 F7200.000 X101.766 Y67.259
G1 F1200.000 X122.238 Y87.732 E126.19053
G0 X122.308 Y87.802
G0 F7200.000 X122.238 Y87.166
G1 F1200.000 X102.332 Y67.259 E127.41234
G0 X102.262 Y67.189
G0 F7200.000 X102.898 Y67.259
G1 F1200.000 X122.238 Y86.600 E128.59940
G0 X122.308 Y86.670
G0 F7200.000 X122.238 Y86.035
G1 F1200.000 X103.463 Y67.259 E129.75179
G0 X103.393 Y67.189
G0 F7200.000 X104.029 Y67.259
G1 F1200.000 X122.238 Y85.469 E130.86943
G0 X122.308 Y85.539
G0 F7200.000 X122.238 Y84.903
G1 F1200.000 X104.595 Y67.259 E131.95234
G0 X104.525 Y67.189
G0 F7200.000 X105.160 Y67.259
G1 F1200.000 X122.238 Y84.338 E133.00057
G0 X122.308 Y84.408
G0 F7200.000 X122.238 Y83.772
G1 F1200.000 X105.726 Y67.259 E134.01406
G0 X105.656 Y67.189
G0 F7200.000 X106.292 Y67.259
G1 F1200.000 X122.238 Y83.206 E134.99281
G0 X122.308 Y83.276
G0 F7200.000 X122.238 Y82.640
G1 F1200.000 X106.857 Y67.259 E135.93685
G0 X106.787 Y67.189
G0 F7200.000 X107.423 Y67.259
G1 F1200.000 X122.238 Y82.075 E136.84618
G0 X122.308 Y82.145
G0 F7200.000 X122.238 Y81.509
G1 F1200.000 X107.989 Y67.259 E137.72077
G0 X107.919 Y67.189
G0 F7200.000 X108.555 Y67.259
G1 F1200.000 X122.238 Y80.943 E138.56063
G0 X122.308 Y81.013
G0 F7200.000 X122.238 Y80.378
G1 F1200.000 X109.120 Y67.259 E139.36580
G0 X109.050 Y67.189
G0 F7200.000 X109.686 Y67.259
G1 F1200.000 X122.238 Y79.812 E140.13624
G0 X122.308 Y79.882
G0 F7200.000 X122.238 Y79.246
G1 F1200.000 X110.252 Y67.259 E140.87194
G0 X110.182 Y67.189
G0 F7200.000 X110.817 Y67.259
G1 F1200.000 X122.238 Y78.681 E141.57295
G0 X122.308 Y78.751
G0 F7200.000 X122.238 Y78.115
G1 F1200.000 X111.383 Y67.259 E142.23923
G0 X111.313 Y67.189
G0 F7200.000 X111.949 Y67.259
G1 F1200.000 X122.238 Y77.549 E142.87077
G0 X122.308 Y77.619
G0 F7200.000 X122.238 Y76.984
G1 F1200.000 X112.514 Y67.259 E143.46763
G0 X112.444 Y67.189
G0 F7200.000 X113.080 Y67.259
G1 F1200.000 X122.238 Y76.418 E144.02976
G0 X122.308 Y76.488
G0 F7200.000 X122.238 Y75.852
G1 F1200.000 X113.646 Y67.259 E144.55714
G0 X113.576 Y67.189
G0 F7200.000 X114.211 Y67.259
G1 F1200.000 X122.238 Y75.287 E145.04984
G0 X122.308 Y75.357
G0 F7200.000 X122.238 Y74.721
G1 F1200.000 X114.777 Y67.259 E145.50781
G0 X114.707 Y67.189
G0 F7200.000 X115.343 Y67.259
G1 F1200.000 X122.238 Y74.155 E145.93103
G0 X122.308 Y74.225
G0 F7200.000 X122.238 Y73.590
G1 F1200.000 X115.908 Y67.259 E146.31958
G0 X115.838 Y67.189
G0 F7200.000 X116.474 Y67.259
G1 F1200.000 X122.238 Y73.024 E146.67339
G0 X122.308 Y73.094
G0 F7200.000 X122.238 Y72.458
G1 F1200.000 X117.040 Y67.259 E146.99246
G0 X116.970 Y67.189
G0 F7200.000 X117.605 Y67.259
G1 F1200.000 X122.238 Y71.892 E147.27682
G0 X122.308 Y71.962
G0 F7200.000 X122.238 Y71.327
G1 F1200.000 X118.171 Y67.259 E147.52647
G0 X118.101 Y67.189
G0 F7200.000 X118.737 Y67.259
G1 F1200.000 X122.238 Y70.761 E147.74138
G0 X122.308 Y70.831
G0 F7200.000 X122.238 Y70.195
G1 F1200.000 X119.303 Y67.259 E147.92155
G0 X119.233 Y67.189
G0 F7200.000 X119.868 Y67.259
G1 F1200.000 X122.238 Y69.630 E148.06705
G0 X122.308 Y69.700
G0 F7200.000 X122.238 Y69.064
G1 F1200.000 X120.434 Y67.259 E148.17780
G0 X120.364 Y67.189
G0 F7200.000 X121.000 Y67.259
G1 F1200.000 X122.238 Y68.498 E148.25382
G0 X122.308 Y68.568
G0 F7200.000 X122.238 Y67.933
G1 F1200.000 X121.565 Y67.259 E148.29516
G0 X121.495 Y67.189
G0 F7200.000 X122.131 Y67.259
G1 F1200.000 X122.238 Y67.367 E148.30176
G0 F7200.00000 X77.760 Y67.578
G1 F1200.000 X122.238 Y112.056 E151.03169
G0 X122.308 Y112.126
G0 F7200.000 X122.238 Y112.622
G1 F1200.000 X77.760 Y68.143 E153.76165
G0 X77.690 Y68.073
G0 F7200.000 X77.760 Y68.709
G1 F1200.000 X122.238 Y113.187 E156.49158
G0 X122.308 Y113.257
G0 F7200.000 X122.238 Y113.753
G1 F1200.000 X77.760 Y69.275 E159.22151
G0 X77.690 Y69.205
G0 F7200.000 X77.760 Y69.840
G1 F1200.000 X122.238 Y114.319 E161.95147
G0 X122.308 Y114.389
G0 F7200.000 X122.238 Y114.885
G1 F1200.000 X77.760 Y70.406 E164.68143
G0 X77.690 Y70.336
G0 F7200.000 X77.760 Y70.972
G1 F1200.000 X122.238 Y115.450 E167.41136
G0 X122.308 Y115.520
G0 F7200.000 X122.238 Y116.016
G1 F1200.000 X77.760 Y71.537 E170.14132
G0 X77.690 Y71.467
G0 F7200.000 X77.760 Y72.103
G1 F1200.000 X122.238 Y116.582 E172.87128
G0 X122.308 Y116.652
G0 F7200.000 X122.238 Y117.147
G1 F1200.000 X77.760 Y72.669 E175.60121
G0 X77.690 Y72.599
G0 F7200.000 X77.760 Y73.235
G1 F1200.000 X122.238 Y117.713 E178.33114
G0 X122.308 Y117.783
G0 F7200.000 X122.238 Y118.279
G1 F1200.000 X77.760 Y73.800 E181.06110
G0 X77.690 Y73.730
G0 F7200.000 X77.760 Y74.366
G1 F1200.000 X122.238 Y118.844 E183.79103
G0 X122.308 Y118.914
G0 F7200.000 X122.238 Y119.410
G1 F1200.000 X77.760 Y74.932 E186.52096
G0 X77.690 Y74.862
G0 F7200.000 X77.760 Y75.497
G1 F1200.000 X122.238 Y119.976 E189.25093
G0 X122.308 Y120.046
G0 F7200.000 X122.238 Y120.541
G1 F1200.000 X77.760 Y76.063 E191.98086
G0 X77.690 Y75.993
G0 F7200.000 X77.760 Y76.629
G1 F1200.000 X122.238 Y121.107 E194.71079
G0 X122.308 Y121.177
G0 F7200.000 X122.238 Y121.673
G1 F1200.000 X77.760 Y77.194 E197.44075
G0 X77.690 Y77.124
G0 F7200.000 X77.760 Y77.760
G1 F1200.000 X122.238 Y122.238 E200.17068
G0 X122.308 Y122.308
G0 F7200.000 X122.238 Y122.804
G1 F1200.000 X77.760 Y78.326 E202.90061
G0 X77.690 Y78.256
G0 F7200.000 X77.760 Y78.891
G1 F1200.000 X122.238 Y123.370 E205.63057
G0 X122.308 Y123.440
G0 F7200.000 X122.238 Y123.936
G1 F1200.000 X77.760 Y79.457 E208.36053
G0 X77.690 Y79.387
G0 F7200.000 X77.760 Y80.023
G1 F1200.000 X122.238 Y124.501 E211.09046
G0 X122.308 Y124.571
G0 F7200.000 X122.238 Y125.067
G1 F1200.000 X77.760 Y80.588 E213.82042
G0 X77.690 Y80.518
G0 F7200.000 X77.760 Y81.154
G1 F1200.000 X122.238 Y125.633 E216.55038
G0 X122.308 Y125.703
G0 F7200.000 X122.238 Y126.198
G1 F1200.000 X77.760 Y81.720 E219.28031
G0 X77.690 Y81.650
G0 F7200.000 X77.760 Y82.286
G1 F1200.000 X122.238 Y126.764 E222.01024
G0 X122.308 Y126.834
G0 F7200.000 X122.238 Y127.330
G1 F1200.000 X77.760 Y82.851 E224.74020
G0 X77.690 Y82.781
G0 F7200.000 X77.760 Y83.417
G1 F1200.000 X122.238 Y127.895 E227.47013
G0 X122.308 Y127.965
G0 F7200.000 X122.238 Y128.461
G1 F1200.000 X77.760 Y83.983 E230.20006
G0 X77.690 Y83.913
G0 F7200.000 X77.760 Y84.548
G1 F1200.000 X122.238 Y129.027 E232.93003
G0 X122.308 Y129.097
G0 F7200.000 X122.238 Y129.592
G1 F1200.000 X77.760 Y85.114 E235.65996
G0 X77.690 Y85.044
G0 F7200.000 X77.760 Y85.680
G1 F1200.000 X122.238 Y130.158 E238.38989
G0 X122.308 Y130.228
G0 F7200.000 X122.238 Y130.724
G1 F1200.000 X77.760 Y86.245 E241.11985
G0 X77.690 Y86.175
G0 F7200.000 X77.760 Y86.811
G1 F1200.000 X122.238 Y131.289 E243.84978
G0 X122.308 Y131.359
G0 F7200.000 X122.238 Y131.855
G1 F1200.000 X77.760 Y87.377 E246.57971
G0 X77.690 Y87.307
G0 F7200.000 X77.760 Y87.942
G1 F1200.000 X122.238 Y132.421 E249.30967
G0 X122.308 Y132.491
G0 F7200.000 X121.991 Y132.739
G1 F1200.000 X77.760 Y88.508 E252.02444
G0 X77.690 Y88.438
G0 F7200.000 X77.760 Y89.074
G1 F1200.000 X121.425 Y132.739 E254.70447
G0 X121.495 Y132.809
G0 F7200.000 X120.860 Y132.739
G1 F1200.000 X77.760 Y89.639 E257.34982
G0 X77.690 Y89.569
G0 F7200.000 X77.760 Y90.205
G1 F1200.000 X120.294 Y132.739 E259.96044
G0 X120.364 Y132.809
G0 F7200.000 X119.728 Y132.739
G1 F1200.000 X77.760 Y90.771 E262.53631
G0 X77.690 Y90.701
G0 F7200.000 X77.760 Y91.336
G1 F1200.000 X119.163 Y132.739 E265.07751
G0 X119.233 Y132.809
G0 F7200.000 X118.597 Y132.739
G1 F1200.000 X77.760 Y91.902 E267.58396
G0 X77.690 Y91.832
G0 F7200.000 X77.760 Y92.468
G1 F1200.000 X118.031 Y132.739 E270.05568
G0 X118.101 Y132.809
G0 F7200.000 X117.465 Y132.739
G1 F1200.000 X77.760 Y93.034 E272.49266
G0 X77.690 Y92.964
G0 F7200.000 X77.760 Y93.599
G1 F1200.000 X116.900 Y132.739 E274.89496
G0 X116.970 Y132.809
G0 F7200.000 X116.334 Y132.739
G1 F1200.000 X77.760 Y94.165 E277.26252
G0 X77.690 Y94.095
G0 F7200.000 X77.760 Y94.731
G1 F1200.000 X115.768 Y132.739 E279.59534
G0 X115.838 Y132.809
G0 F7200.000 X115.203 Y132.739
