;FLAVOR:RepRap
;TIME:7180
M190 S50.000000
M104 S210.000000
M109 S210.000000
G21 ;metric values
G90 ;absolute positioning
M82 ;set extruder to absolute mode
M107 ;start with the fan off
G92 X0 Y0 Z0 ;Zero X Y and Z axis
G1 Z15.0 F9000 ;move the platform down 15mm
G92 E0 ;zero the extruded length
G1 F200 E3 ;extrude 3mm of feed stock
G92 E0 ;zero the extruded length again
G1 F9000
;Put printing message on LCD screen
M117 Printing...
;Generated with Cura_SteamEngine 2.1.3
;LAYER_COUNT:205
;LAYER:0
M107
G1 F4200.000000 E-6.40000
G1 Z20.200
G0 F7200.000 X69.155 Y69.072 Z0.500
;TYPE:SKIRT
G1 Z0.300
G1 F4200.000 E0.00000
G1 F1200.00000 X69.547 Y68.706 E0.02328
G1 X69.989 Y68.403 E0.04653
G1 X70.472 Y68.168 E0.06984
G1 X70.983 Y68.008 E0.09308
G1 X71.513 Y67.925 E0.11637
G1 X71.800 Y67.914 E0.12883
G1 X128.200 Y67.914 E2.57660
G1 X128.735 Y67.954 E2.59988
G1 X129.258 Y68.073 E2.62316
G1 X129.757 Y68.268 E2.64641
G1 X130.222 Y68.536 E2.66971
G1 X130.642 Y68.869 E2.69297
G1 X131.008 Y69.261 E2.71625
G1 X131.311 Y69.703 E2.73950
G1 X131.546 Y70.186 E2.76281
G1 X131.706 Y70.697 E2.78605
G1 X131.789 Y71.227 E2.80934
G1 X131.800 Y71.514 E2.82180
G1 X131.800 Y130.513 E5.38237
G1 X131.760 Y131.048 E5.40565
G1 X131.641 Y131.571 E5.42893
G1 X131.446 Y132.070 E5.45218
G1 X131.178 Y132.535 E5.47547
G1 X130.845 Y132.955 E5.49874
G1 X130.453 Y133.321 E5.52201
G1 X130.011 Y133.624 E5.54527
G1 X129.528 Y133.859 E5.56858
G1 X129.017 Y134.019 E5.59182
G1 X128.487 Y134.102 E5.61510
G1 X128.200 Y134.113 E5.62757
G1 X71.800 Y134.113 E8.07534
G1 X71.265 Y134.073 E8.09862
G1 X70.742 Y133.954 E8.12190
G1 X70.243 Y133.759 E8.14515
G1 X69.778 Y133.491 E8.16844
G1 X69.358 Y133.158 E8.19171
G1 X68.992 Y132.766 E8.21498
G1 X68.689 Y132.324 E8.23824
G1 X68.454 Y131.841 E8.26155
G1 X68.294 Y131.330 E8.28479
G1 X68.211 Y130.800 E8.30807
G1 X68.200 Y130.513 E8.32054
G1 X68.200 Y71.514 E10.88110
G1 X68.240 Y70.979 E10.90439
G1 X68.359 Y70.456 E10.92767
G1 X68.554 Y69.957 E10.95092
G1 X68.822 Y69.492 E10.97421
G1 X69.155 Y69.072 E10.99747
G0 F7200.00000 X69.549 Y69.239
G1 F1200.000 X69.936 Y68.913 E11.01943
G1 X70.369 Y68.652 E11.04137
G1 X70.837 Y68.462 E11.06330
G1 X71.330 Y68.349 E11.08525
G1 X71.800 Y68.314 E11.10570
G1 X128.200 Y68.314 E13.55347
G1 X128.704 Y68.354 E13.57541
G1 X129.195 Y68.473 E13.59734
G1 X129.662 Y68.667 E13.61929
G1 X130.092 Y68.933 E13.64123
G1 X130.475 Y69.263 E13.66317
G1 X130.801 Y69.650 E13.68513
G1 X131.062 Y70.083 E13.70708
G1 X131.252 Y70.551 E13.72900
G1 X131.365 Y71.044 E13.75095
G1 X131.400 Y71.514 E13.77140
G1 X131.400 Y130.513 E16.33197
G1 X131.360 Y131.017 E16.35391
G1 X131.241 Y131.508 E16.37584
G1 X131.047 Y131.975 E16.39778
G1 X130.781 Y132.405 E16.41973
G1 X130.451 Y132.788 E16.44167
G1 X130.064 Y133.114 E16.46363
G1 X129.631 Y133.375 E16.48557
G1 X129.163 Y133.565 E16.50749
G1 X128.670 Y133.678 E16.52945
G1 X128.200 Y133.713 E16.54990
G1 X71.800 Y133.713 E18.99767
G1 X71.296 Y133.673 E19.01961
G1 X70.805 Y133.554 E19.04154
G1 X70.338 Y133.360 E19.06348
G1 X69.908 Y133.094 E19.08543
G1 X69.525 Y132.764 E19.10737
G1 X69.199 Y132.377 E19.12933
G1 X68.938 Y131.944 E19.15127
G1 X68.748 Y131.476 E19.17319
G1 X68.635 Y130.983 E19.19515
G1 X68.600 Y130.513 E19.21560
G1 X68.600 Y71.514 E21.77617
G1 X68.640 Y71.010 E21.79811
G1 X68.759 Y70.519 E21.82004
G1 X68.953 Y70.052 E21.84198
G1 X69.219 Y69.622 E21.86393
G1 X69.549 Y69.239 E21.88587
G1 F4200.00000 E15.48587
G1 Z0.500
G0 F7200.000 X72.800 Y72.514 Z0.500
;TYPE:WALL-INNER
G1 Z0.300
G1 F4200.000 E21.88587
G1 F1200.00000 X127.200 Y72.514 E24.24684
G1 X127.200 Y129.513 E26.72060
G1 X72.800 Y129.513 E29.08157
G1 X72.800 Y72.514 E31.55534
G0 F7200.00000 X78.599 Y83.232
G1 F1200.000 X77.994 Y83.564 E31.58529
G1 X77.476 Y83.990 E31.61439
G1 X77.036 Y84.525 E31.64446
G1 X76.699 Y85.153 E31.67539
G1 X76.497 Y85.818 E31.70555
G1 X76.430 Y86.513 E31.73586
G1 X76.506 Y87.240 E31.76758
G1 X76.716 Y87.911 E31.79809
G1 X77.056 Y88.525 E31.82855
G1 X77.475 Y89.037 E31.85727
G1 X78.011 Y89.479 E31.88742
G1 X78.640 Y89.815 E31.91837
G1 X79.302 Y90.017 E31.94841
G1 X80.003 Y90.085 E31.97897
G1 X80.728 Y90.008 E32.01062
G1 X81.402 Y89.796 E32.04128
G1 X82.007 Y89.464 E32.07123
G1 X82.525 Y89.038 E32.10034
G1 X82.965 Y88.503 E32.13040
G1 X83.300 Y87.876 E32.16125
G1 X83.504 Y87.211 E32.19144
G1 X83.571 Y86.513 E32.22187
G1 X83.502 Y85.818 E32.25219
G1 X83.283 Y85.117 E32.28406
G1 X82.945 Y84.504 E32.31444
G1 X82.526 Y83.991 E32.34319
G1 X81.990 Y83.549 E32.37334
G1 X81.361 Y83.212 E32.40431
G1 X80.698 Y83.011 E32.43438
G1 X79.999 Y82.944 E32.46485
G1 X79.273 Y83.020 E32.49653
G1 X78.599 Y83.232 E32.52720
G0 F7200.00000 X77.335 Y84.729
G0 X77.035 Y85.289
G0 X76.853 Y85.889
G0 X76.792 Y86.514
G0 X79.999 Y117.943
G1 F1200.000 X79.273 Y118.019 E32.55888
G1 X78.599 Y118.231 E32.58954
G1 X77.994 Y118.563 E32.61949
G1 X77.476 Y118.989 E32.64860
G1 X77.036 Y119.524 E32.67866
G1 X76.699 Y120.152 E32.70960
G1 X76.497 Y120.817 E32.73976
G1 X76.430 Y121.512 E32.77006
G1 X76.506 Y122.239 E32.80179
G1 X76.716 Y122.910 E32.83230
G1 X77.056 Y123.524 E32.86276
G1 X77.475 Y124.036 E32.89147
G1 X78.011 Y124.478 E32.92163
G1 X78.640 Y124.814 E32.95257
G1 X79.302 Y125.016 E32.98261
G1 X80.003 Y125.084 E33.01318
G1 X80.728 Y125.007 E33.04482
G1 X81.402 Y124.795 E33.07549
G1 X82.007 Y124.463 E33.10544
G1 X82.525 Y124.037 E33.13454
G1 X82.965 Y123.502 E33.16461
G1 X83.300 Y122.875 E33.19546
G1 X83.504 Y122.210 E33.22565
G1 X83.571 Y121.512 E33.25608
G1 X83.502 Y120.817 E33.28639
G1 X83.283 Y120.116 E33.31827
G1 X82.945 Y119.503 E33.34865
G1 X82.526 Y118.990 E33.37739
G1 X81.990 Y118.548 E33.40755
G1 X81.361 Y118.211 E33.43852
G1 X80.698 Y118.010 E33.46858
G1 X79.999 Y117.943 E33.49906
G0 F7200.00000 X116.429 Y121.512
G1 F1200.000 X116.505 Y122.239 E33.53078
G1 X116.715 Y122.910 E33.56130
G1 X117.055 Y123.524 E33.59176
G1 X117.474 Y124.036 E33.62047
G1 X118.010 Y124.478 E33.65062
G1 X118.639 Y124.814 E33.68157
G1 X119.301 Y125.016 E33.71161
G1 X120.003 Y125.084 E33.74222
G1 X120.727 Y125.007 E33.77382
G1 X121.401 Y124.795 E33.80448
G1 X122.006 Y124.463 E33.83443
G1 X122.524 Y124.037 E33.86354
G1 X122.964 Y123.502 E33.89360
G1 X123.299 Y122.875 E33.92446
G1 X123.503 Y122.210 E33.95465
G1 X123.570 Y121.512 E33.98508
G1 X123.501 Y120.817 E34.01539
G1 X123.282 Y120.116 E34.04726
G1 X122.944 Y119.503 E34.07764
G1 X122.525 Y118.990 E34.10639
G1 X121.989 Y118.548 E34.13654
G1 X121.360 Y118.211 E34.16751
G1 X120.697 Y118.010 E34.19758
G1 X119.997 Y117.943 E34.22810
G1 X119.274 Y118.019 E34.25965
G1 X118.599 Y118.231 E34.29036
G1 X117.993 Y118.563 E34.32034
G1 X117.475 Y118.989 E34.34945
G1 X117.035 Y119.524 E34.37951
G1 X116.698 Y120.152 E34.41045
G1 X116.496 Y120.817 E34.44061
G1 X116.429 Y121.512 E34.47091
G0 F7200.00000 X119.301 Y90.017
G1 F1200.000 X120.003 Y90.085 E34.50152
G1 X120.727 Y90.008 E34.53312
G1 X121.401 Y89.796 E34.56379
G1 X122.006 Y89.464 E34.59374
G1 X122.524 Y89.038 E34.62284
G1 X122.964 Y88.503 E34.65291
G1 X123.299 Y87.876 E34.68376
G1 X123.503 Y87.211 E34.71395
G1 X123.570 Y86.513 E34.74438
G1 X123.501 Y85.818 E34.77469
G1 X123.282 Y85.117 E34.80657
G1 X122.944 Y84.504 E34.83695
G1 X122.525 Y83.991 E34.86569
G1 X121.989 Y83.549 E34.89584
G1 X121.360 Y83.212 E34.92681
G1 X120.697 Y83.011 E34.95688
G1 X119.997 Y82.944 E34.98740
G1 X119.274 Y83.020 E35.01895
G1 X118.599 Y83.232 E35.04966
G1 X117.993 Y83.564 E35.07965
G1 X117.475 Y83.990 E35.10875
G1 X117.035 Y84.525 E35.13882
G1 X116.698 Y85.153 E35.16975
G1 X116.496 Y85.818 E35.19991
G1 X116.429 Y86.513 E35.23021
G1 X116.505 Y87.240 E35.26194
G1 X116.715 Y87.911 E35.29245
G1 X117.055 Y88.525 E35.32291
G1 X117.474 Y89.037 E35.35163
G1 X118.010 Y89.479 E35.38178
G1 X118.639 Y89.815 E35.41273
G1 X119.301 Y90.017 E35.44277
G0 F7200.00000 X119.380 Y89.622
G1 F1200.000 X120.002 Y89.683 E35.46989
G1 X120.646 Y89.614 E35.49800
G1 X121.241 Y89.427 E35.52507
G1 X121.781 Y89.131 E35.55180
G1 X122.240 Y88.754 E35.57757
G1 X122.632 Y88.277 E35.60437
G1 X122.928 Y87.724 E35.63159
G1 X123.108 Y87.133 E35.65840
G1 X123.168 Y86.514 E35.68539
G1 X123.107 Y85.896 E35.71235
G1 X122.913 Y85.274 E35.74062
G1 X122.614 Y84.731 E35.76753
G1 X122.240 Y84.274 E35.79316
G1 X121.763 Y83.881 E35.81998
G1 X121.209 Y83.585 E35.84724
G1 X120.618 Y83.406 E35.87404
G1 X119.998 Y83.346 E35.90107
G1 X119.354 Y83.414 E35.92918
G1 X118.758 Y83.601 E35.95629
G1 X118.218 Y83.897 E35.98301
G1 X117.759 Y84.274 E36.00879
G1 X117.367 Y84.751 E36.03559
G1 X117.070 Y85.304 E36.06283
G1 X116.891 Y85.896 E36.08967
G1 X116.831 Y86.514 E36.11662
G1 X116.899 Y87.160 E36.14481
G1 X117.085 Y87.754 E36.17183
G1 X117.385 Y88.297 E36.19875
G1 X117.759 Y88.754 E36.22438
G1 X118.236 Y89.147 E36.25120
G1 X118.790 Y89.443 E36.27846
G1 X119.380 Y89.622 E36.30522
G0 F7200.00000 X119.361 Y89.720
G0 X120.654 Y89.653
G0 X121.256 Y89.463
G0 X121.803 Y89.164
G0 X122.268 Y88.782
G0 X122.665 Y88.299
G0 X122.964 Y87.739
G0 X127.582 Y72.149
G0 X127.616 Y72.076
G0 X127.600 Y72.114
G1 F1200.000 X127.600 Y129.913 E38.81371
G1 X72.400 Y129.913 E41.20940
G1 X72.400 Y72.114 E43.71788
G1 X127.600 Y72.114 E46.11357
G0 F7200.00000 X83.206 Y85.877
G0 X83.108 Y85.896
G1 F1200.000 X82.914 Y85.274 E46.14185
G1 X82.615 Y84.731 E46.16875
G1 X82.241 Y84.274 E46.19438
G1 X81.764 Y83.881 E46.22120
G1 X81.210 Y83.585 E46.24846
G1 X80.619 Y83.406 E46.27526
G1 X79.999 Y83.346 E46.30230
G1 X79.354 Y83.414 E46.33045
G1 X78.759 Y83.601 E46.35751
G1 X78.219 Y83.897 E46.38424
G1 X77.760 Y84.274 E46.41002
G1 X77.368 Y84.751 E46.43681
G1 X77.071 Y85.304 E46.46406
G1 X76.892 Y85.896 E46.49090
G1 X76.832 Y86.514 E46.51785
G1 X76.900 Y87.160 E46.54604
G1 X77.086 Y87.754 E46.57305
G1 X77.386 Y88.297 E46.59998
G1 X77.760 Y88.754 E46.62560
G1 X78.237 Y89.147 E46.65243
G1 X78.791 Y89.443 E46.67969
G1 X79.381 Y89.622 E46.70645
G1 X80.002 Y89.683 E46.73353
G1 X80.647 Y89.614 E46.76168
G1 X81.242 Y89.427 E46.78875
G1 X81.782 Y89.131 E46.81547
G1 X82.241 Y88.754 E46.84125
G1 X82.633 Y88.277 E46.86805
G1 X82.929 Y87.724 E46.89527
G1 X83.109 Y87.133 E46.92208
G1 X83.169 Y86.514 E46.94907
G1 X83.108 Y85.896 E46.97603
G1 F4200.00000 E40.57603
G1 Z0.500
G0 F7200.000 X79.999 Y118.345 Z0.500
G1 Z0.300
G1 F4200.000 E46.97603
G1 F1200.00000 X79.354 Y118.413 E47.00417
G1 X78.759 Y118.600 E47.03124
G1 X78.219 Y118.896 E47.05797
G1 X77.760 Y119.273 E47.08375
G1 X77.368 Y119.750 E47.11054
G1 X77.071 Y120.303 E47.13779
G1 X76.892 Y120.895 E47.16463
G1 X76.832 Y121.513 E47.19158
G1 X76.900 Y122.159 E47.21977
G1 X77.086 Y122.753 E47.24678
G1 X77.386 Y123.296 E47.27370
G1 X77.760 Y123.753 E47.29933
G1 X78.237 Y124.146 E47.32616
G1 X78.791 Y124.442 E47.35342
G1 X79.381 Y124.621 E47.38018
G1 X80.002 Y124.682 E47.40726
G1 X80.647 Y124.613 E47.43541
G1 X81.242 Y124.426 E47.46248
G1 X81.782 Y124.130 E47.48920
G1 X82.241 Y123.753 E47.51498
G1 X82.633 Y123.276 E47.54178
G1 X82.929 Y122.723 E47.56900
G1 X83.109 Y122.132 E47.59581
G1 X83.169 Y121.513 E47.62280
G1 X83.108 Y120.895 E47.64976
G1 X82.914 Y120.273 E47.67803
G1 X82.615 Y119.730 E47.70494
G1 X82.241 Y119.273 E47.73057
G1 X81.764 Y118.880 E47.75739
G1 X81.210 Y118.584 E47.78465
G1 X80.619 Y118.405 E47.81145
G1 X79.999 Y118.345 E47.83848
G1 F4200.00000 E41.43848
G1 Z0.500
G0 F7200.000 X116.831 Y121.513 Z0.500
G1 Z0.300
G1 F4200.000 E47.83848
G1 F1200.00000 X116.899 Y122.159 E47.86667
G1 X117.085 Y122.753 E47.89369
G1 X117.385 Y123.296 E47.92061
G1 X117.759 Y123.753 E47.94624
G1 X118.236 Y124.146 E47.97306
G1 X118.790 Y124.442 E48.00032
G1 X119.380 Y124.621 E48.02708
G1 X120.002 Y124.682 E48.05421
G1 X120.646 Y124.613 E48.08232
G1 X121.241 Y124.426 E48.10939
G1 X121.781 Y124.130 E48.13611
G1 X122.240 Y123.753 E48.16189
G1 X122.632 Y123.276 E48.18869
G1 X122.928 Y122.723 E48.21591
G1 X123.108 Y122.132 E48.24272
G1 X123.168 Y121.513 E48.26971
G1 X123.107 Y120.895 E48.29666
G1 X122.913 Y120.273 E48.32494
G1 X122.614 Y119.730 E48.35184
G1 X122.240 Y119.273 E48.37747
G1 X121.763 Y118.880 E48.40430
G1 X121.209 Y118.584 E48.43156
G1 X120.618 Y118.405 E48.45836
G1 X119.998 Y118.345 E48.48539
G1 X119.354 Y118.413 E48.51350
G1 X118.758 Y118.600 E48.54061
G1 X118.218 Y118.896 E48.56733
G1 X117.759 Y119.273 E48.59311
G1 X117.367 Y119.750 E48.61991
G1 X117.070 Y120.303 E48.64715
G1 X116.891 Y120.895 E48.67399
G1 X116.831 Y121.513 E48.70094
G0 F7200.00000 X117.233 Y121.514
;TYPE:WALL-OUTER
G1 F1200.000 X117.293 Y122.079 E48.72560
G1 X117.455 Y122.596 E48.74911
G1 X117.715 Y123.069 E48.77254
G1 X118.043 Y123.469 E48.79499
G1 X118.462 Y123.813 E48.81851
G1 X118.941 Y124.069 E48.84208
G1 X119.460 Y124.226 E48.86562
G1 X120.001 Y124.280 E48.88921
G1 X120.565 Y124.219 E48.91383
G1 X121.082 Y124.057 E48.93735
G1 X121.556 Y123.797 E48.96081
G1 X121.956 Y123.469 E48.98326
G1 X122.300 Y123.050 E49.00679
G1 X122.556 Y122.572 E49.03032
G1 X122.713 Y122.053 E49.05386
G1 X122.766 Y121.513 E49.07740
G1 X122.713 Y120.973 E49.10095
G1 X122.544 Y120.430 E49.12563
G1 X122.284 Y119.957 E49.14906
G1 X121.956 Y119.557 E49.17151
G1 X121.537 Y119.213 E49.19504
G1 X121.058 Y118.957 E49.21861
G1 X120.539 Y118.800 E49.24214
G1 X119.999 Y118.747 E49.26569
G1 X119.434 Y118.807 E49.29035
G1 X118.917 Y118.969 E49.31386
G1 X118.443 Y119.229 E49.33733
G1 X118.043 Y119.557 E49.35978
G1 X117.699 Y119.976 E49.38330
G1 X117.443 Y120.454 E49.40684
G1 X117.286 Y120.974 E49.43041
G1 X117.233 Y121.514 E49.45396
G0 F7200.00000 X116.736 Y121.469
G0 X116.860 Y122.167
G0 X117.049 Y122.768
G0 X117.352 Y123.318
G0 X117.731 Y123.781
G0 X118.214 Y124.179
G0 X127.530 Y129.843
G0 X128.000 Y130.313
G1 F1200.000 X72.000 Y130.313 E51.88437
G1 X72.000 Y71.714 E54.42758
G1 X128.000 Y71.714 E56.85798
G1 X128.000 Y130.313 E59.40119
G0 F7200.00000 X127.500 Y129.843
G0 X120.714 Y89.697
G0 X120.565 Y89.220
G1 F1200.000 X121.082 Y89.058 E59.42470
G1 X121.556 Y88.798 E59.44817
G1 X121.956 Y88.470 E59.47062
G1 X122.300 Y88.051 E59.49415
G1 X122.556 Y87.573 E59.51768
G1 X122.713 Y87.054 E59.54121
G1 X122.766 Y86.514 E59.56476
G1 X122.713 Y85.974 E59.58831
G1 X122.544 Y85.431 E59.61299
G1 X122.284 Y84.958 E59.63642
G1 X121.956 Y84.558 E59.65887
G1 X121.537 Y84.214 E59.68239
G1 X121.058 Y83.958 E59.70597
G1 X120.539 Y83.801 E59.72950
G1 X119.999 Y83.748 E59.75305
G1 X119.434 Y83.808 E59.77771
G1 X118.917 Y83.970 E59.80122
G1 X118.443 Y84.230 E59.82468
G1 X118.043 Y84.558 E59.84713
G1 X117.699 Y84.977 E59.87066
G1 X117.443 Y85.455 E59.89419
G1 X117.286 Y85.975 E59.91777
G1 X117.233 Y86.515 E59.94132
G1 X117.293 Y87.080 E59.96598
G1 X117.455 Y87.597 E59.98949
G1 X117.715 Y88.070 E60.01292
G1 X118.043 Y88.470 E60.03537
G1 X118.462 Y88.814 E60.05889
G1 X118.941 Y89.070 E60.08247
G1 X119.460 Y89.227 E60.10600
G1 X120.001 Y89.281 E60.12959
G1 X120.565 Y89.220 E60.15421
G0 F7200.00000 X120.714 Y89.697
G0 X120.002 Y89.723
G0 X83.264 Y86.561
G0 X82.767 Y86.514
G1 F1200.000 X82.714 Y85.974 E60.17776
G1 X82.545 Y85.431 E60.20244
G1 X82.285 Y84.958 E60.22587
G1 X81.957 Y84.558 E60.24832
G1 X81.538 Y84.214 E60.27185
G1 X81.059 Y83.958 E60.29542
G1 X80.540 Y83.801 E60.31895
G1 X79.999 Y83.748 E60.34254
G1 X79.435 Y83.808 E60.36716
G1 X78.918 Y83.970 E60.39067
G1 X78.444 Y84.230 E60.41414
G1 X78.044 Y84.558 E60.43659
G1 X77.700 Y84.977 E60.46012
G1 X77.444 Y85.455 E60.48365
G1 X77.287 Y85.975 E60.50722
G1 X77.234 Y86.515 E60.53077
G1 X77.294 Y87.080 E60.55543
G1 X77.456 Y87.597 E60.57894
G1 X77.716 Y88.070 E60.60237
G1 X78.044 Y88.470 E60.62482
G1 X78.463 Y88.814 E60.64835
G1 X78.942 Y89.070 E60.67192
G1 X79.461 Y89.227 E60.69545
G1 X80.001 Y89.281 E60.71900
