; generated by Slic3r 1.2.9 on 2017-12-05 at 01:34:20

; external perimeters extrusion width = 0.40mm
; perimeters extrusion width = 0.48mm
; infill extrusion width = 0.48mm
; solid infill extrusion width = 0.48mm
; top infill extrusion width = 0.48mm

M190 S50 ; set bed temperature
M104 S199 ; set temperature
G92 X0 Y0 Z0 ;Zero X Y and Z axis
G1 Z5 F5000 ; lift nozzle

M109 S199 ; wait for temperature to be reached
G21 ; set units to millimeters
G90 ; use absolute coordinates
M82 ; use absolute distances for extrusion
G92 E0
G1 Z0.350 F7800.000
G1 E-6.40000 F4200.00000
G92 E0
G1 Z0.550 F7800.000
G1 X67.635 Y59.458 F7800.000
G1 Z0.350 F7800.000
G1 E6.40000 F4200.00000
G1 X70.058 Y57.034 E6.71520 F1800.000
G1 X70.161 Y56.955 E6.72721
G1 X73.126 Y55.243 E7.04211
G1 X73.248 Y55.193 E7.05421
G1 X76.558 Y54.306 E7.36945
G1 X76.690 Y54.288 E7.38169
G1 X78.400 Y54.176 E7.53928
G1 X121.600 Y54.176 E11.51272
G1 X123.312 Y54.289 E11.67049
G1 X123.441 Y54.306 E11.68252 F1800.000
G1 X126.752 Y55.193 E11.99780
G1 X126.873 Y55.243 E12.00981
G1 X129.839 Y56.955 E12.32477
G1 X129.942 Y57.034 E12.33677
G1 X132.364 Y59.456 E12.65176
G1 X132.445 Y59.561 E12.66402
G1 X134.158 Y62.528 E12.97908
G1 X134.208 Y62.649 E12.99109
G1 X135.094 Y65.958 E13.30620
G1 X135.224 Y67.800 E13.47606
G1 X135.224 Y132.200 E19.39943
G1 X135.094 Y134.042 E19.56930
G1 X134.208 Y137.350 E19.88427
G1 X134.158 Y137.472 E19.89642
G1 X132.445 Y140.439 E20.21153
G1 X132.365 Y140.543 E20.22353
G1 X129.943 Y142.965 E20.53866
G1 X129.839 Y143.045 E20.55066
G1 X126.872 Y144.758 E20.86577
G1 X126.751 Y144.808 E20.87778
G1 X123.442 Y145.694 E21.19288
G1 X123.287 Y145.715 E21.20732
G1 X121.600 Y145.824 E21.36278
G1 X78.400 Y145.824 E25.33622
G1 X76.716 Y145.715 E25.49146
G1 X76.557 Y145.694 E25.50614
G1 X73.252 Y144.809 E25.82087
G1 X73.128 Y144.758 E25.83325
G1 X70.161 Y143.045 E26.14835
G1 X70.057 Y142.965 E26.16036
G1 X67.635 Y140.543 E26.47548
G1 X67.555 Y140.439 E26.48748
G1 X65.843 Y137.473 E26.80246
G1 X65.792 Y137.352 E26.81459
G1 X64.906 Y134.042 E27.12970
G1 X64.776 Y132.200 E27.29957
G1 X64.776 Y67.800 E33.22294
G1 X64.906 Y65.958 E33.39282
G1 X65.792 Y62.649 E33.70791
G1 X65.842 Y62.528 E33.71993
G1 X67.598 Y59.505 E34.04144
G1 X68.130 Y59.838 F7800.000
G1 X70.438 Y57.530 E34.34163 F1800.000
G1 X70.542 Y57.451 E34.35364
G1 X73.365 Y55.820 E34.65354
G1 X73.487 Y55.770 E34.66564
G1 X76.640 Y54.925 E34.96587
G1 X76.772 Y54.908 E34.97810
G1 X78.400 Y54.801 E35.12818
G1 X121.600 Y54.801 E39.10162
G1 X123.230 Y54.908 E39.25188
G1 X123.360 Y54.925 E39.26391 F1800.000
G1 X126.513 Y55.770 E39.56418
G1 X126.634 Y55.820 E39.57619
G1 X129.458 Y57.451 E39.87615
G1 X129.562 Y57.530 E39.88816
G1 X131.868 Y59.836 E40.18814
G1 X131.949 Y59.942 E40.20039
G1 X133.580 Y62.767 E40.50045
G1 X133.630 Y62.888 E40.51246
G1 X134.475 Y66.039 E40.81256
G1 X134.599 Y67.800 E40.97491
G1 X134.599 Y132.200 E46.89828
G1 X134.475 Y133.961 E47.06063
G1 X133.631 Y137.111 E47.36060
G1 X133.580 Y137.233 E47.37274
G1 X131.949 Y140.059 E47.67285
G1 X131.869 Y140.162 E47.68485
G1 X129.562 Y142.469 E47.98497
G1 X129.459 Y142.549 E47.99698
G1 X126.633 Y144.180 E48.29708
G1 X126.512 Y144.230 E48.30909
G1 X123.361 Y145.075 E48.60918
G1 X123.206 Y145.095 E48.62351
G1 X121.600 Y145.199 E48.77157
G1 X78.400 Y145.199 E52.74501
G1 X76.796 Y145.095 E52.89286
G1 X76.639 Y145.075 E52.90741
G1 X73.491 Y144.232 E53.20716
G1 X73.367 Y144.180 E53.21951
G1 X70.541 Y142.549 E53.51961
G1 X70.438 Y142.469 E53.53162
G1 X68.131 Y140.162 E53.83173
G1 X68.051 Y140.059 E53.84374
G1 X66.420 Y137.234 E54.14372
G1 X66.370 Y137.112 E54.15585
G1 X65.525 Y133.961 E54.45595
G1 X65.401 Y132.200 E54.61831
G1 X65.401 Y67.800 E60.54167
G1 X65.525 Y66.039 E60.70403
G1 X66.370 Y62.888 E61.00412
G1 X66.420 Y62.767 E61.01614
G1 X68.094 Y59.886 E61.32264
G1 X68.626 Y60.218 F7800.000
G1 X70.819 Y58.026 E61.60783 F1800.000
G1 X70.922 Y57.947 E61.61983
G1 X73.605 Y56.398 E61.90475
G1 X73.726 Y56.347 E61.91684
G1 X76.721 Y55.545 E62.20205
G1 X76.853 Y55.527 E62.21428
G1 X78.400 Y55.426 E62.35686
G1 X121.600 Y55.426 E66.33029
G1 X123.149 Y55.528 E66.47304
G1 X123.278 Y55.545 E66.48507 F1800.000
G1 X126.274 Y56.347 E66.77033
G1 X126.395 Y56.397 E66.78233
G1 X129.078 Y57.946 E67.06730
G1 X129.181 Y58.026 E67.07931
G1 X131.372 Y60.217 E67.36429
G1 X131.453 Y60.322 E67.37653
G1 X133.003 Y63.006 E67.66159
G1 X133.053 Y63.127 E67.67360
G1 X133.855 Y66.121 E67.95870
G1 X133.974 Y67.800 E68.11353
G1 X133.974 Y132.200 E74.03689
G1 X133.855 Y133.879 E74.19173
G1 X133.053 Y136.872 E74.47670
G1 X133.003 Y136.994 E74.48883
G1 X131.453 Y139.678 E74.77394
G1 X131.374 Y139.782 E74.78594
G1 X129.182 Y141.974 E75.07106
G1 X129.078 Y142.053 E75.08306
G1 X126.394 Y143.603 E75.36816
G1 X126.273 Y143.653 E75.38017
G1 X123.279 Y144.455 E75.66526
G1 X123.126 Y144.475 E75.67947
G1 X121.600 Y144.574 E75.82013
G1 X78.400 Y144.574 E79.79357
G1 X76.876 Y144.476 E79.93402
G1 X76.721 Y144.455 E79.94845
G1 X73.730 Y143.654 E80.23321
G1 X73.606 Y143.603 E80.24555
G1 X70.922 Y142.053 E80.53065
G1 X70.818 Y141.974 E80.54265
G1 X68.626 Y139.782 E80.82776
G1 X68.547 Y139.678 E80.83977
G1 X66.998 Y136.995 E81.12475
G1 X66.947 Y136.873 E81.13687
G1 X66.145 Y133.879 E81.42197
G1 X66.026 Y132.200 E81.57681
G1 X66.026 Y67.800 E87.50017
G1 X66.145 Y66.121 E87.65501
G1 X66.947 Y63.127 E87.94010
G1 X66.997 Y63.006 E87.95212
G1 X68.590 Y60.266 E88.24362
G1 X69.122 Y60.599 F7800.000
G1 X71.199 Y58.522 E88.51379 F1800.000
G1 X71.303 Y58.442 E88.52580
G1 X73.844 Y56.975 E88.79572
G1 X73.965 Y56.925 E88.80781
G1 X76.803 Y56.164 E89.07801
G1 X76.935 Y56.147 E89.09023
G1 X78.400 Y56.051 E89.22530
G1 X121.600 Y56.051 E93.19874
G1 X123.067 Y56.147 E93.33397
G1 X123.197 Y56.164 E93.34600 F1800.000
G1 X126.035 Y56.925 E93.61625
G1 X126.155 Y56.975 E93.62825
G1 X128.697 Y58.442 E93.89822
G1 X128.801 Y58.522 E93.91023
G1 X130.877 Y60.597 E94.18022
G1 X130.958 Y60.703 E94.19244
G1 X132.426 Y63.245 E94.46250
G1 X132.476 Y63.366 E94.47450
G1 X133.236 Y66.202 E94.74460
G1 X133.349 Y67.800 E94.89191
G1 X133.349 Y132.200 E100.81528
G1 X133.236 Y133.798 E100.96260
G1 X132.476 Y136.633 E101.23257
G1 X132.426 Y136.755 E101.24470
G1 X130.957 Y139.298 E101.51480
G1 X130.878 Y139.401 E101.52680
G1 X128.801 Y141.478 E101.79691
G1 X128.698 Y141.557 E101.80892
G1 X126.155 Y143.026 E102.07901
G1 X126.034 Y143.076 E102.09102
G1 X123.198 Y143.836 E102.36111
G1 X123.046 Y143.856 E102.37520
G1 X121.600 Y143.949 E102.50846
G1 X78.400 Y143.949 E106.48190
G1 X76.956 Y143.856 E106.61496
G1 X76.802 Y143.836 E106.62926
G1 X73.969 Y143.077 E106.89903
G1 X73.845 Y143.026 E106.91135
G1 X71.302 Y141.557 E107.18145
G1 X71.199 Y141.478 E107.19345
G1 X69.122 Y139.401 E107.46356
G1 X69.043 Y139.298 E107.47556
G1 X67.575 Y136.756 E107.74555
G1 X67.524 Y136.634 E107.75766
G1 X66.764 Y133.798 E108.02776
G1 X66.651 Y132.200 E108.17508
G1 X66.651 Y67.800 E114.09844
G1 X66.764 Y66.202 E114.24576
G1 X67.524 Y63.366 E114.51585
G1 X67.574 Y63.245 E114.52786
G1 X69.085 Y60.646 E114.80437
G1 X69.618 Y60.979 F7800.000
G1 X71.579 Y59.018 E115.05953 F1800.000
G1 X71.683 Y58.938 E115.07154
G1 X74.083 Y57.552 E115.32646
G1 X74.204 Y57.502 E115.33855
G1 X76.884 Y56.784 E115.59374
G1 X77.016 Y56.767 E115.60594
G1 X78.400 Y56.676 E115.73351
G1 X121.600 Y56.676 E119.70695
G1 X122.986 Y56.767 E119.83467
G1 X123.115 Y56.784 E119.84670 F1800.000
G1 X125.796 Y57.502 E120.10193
G1 X125.916 Y57.552 E120.11394
G1 X128.317 Y58.938 E120.36891
G1 X128.421 Y59.017 E120.38092
G1 X130.381 Y60.978 E120.63591
G1 X130.462 Y61.083 E120.64812
G1 X131.848 Y63.484 E120.90318
G1 X131.898 Y63.605 E120.91518
G1 X132.616 Y66.284 E121.17027
G1 X132.633 Y66.413 E121.18228
G1 X132.724 Y67.800 E121.31009
G1 X132.724 Y132.200 E127.23346
G1 X132.616 Y133.716 E127.37326
G1 X131.899 Y136.394 E127.62823
G1 X131.848 Y136.516 E127.64036
G1 X130.462 Y138.917 E127.89545
G1 X130.382 Y139.021 E127.90746
G1 X128.421 Y140.982 E128.16256
G1 X128.317 Y141.062 E128.17456
G1 X125.916 Y142.448 E128.42966
G1 X125.795 Y142.498 E128.44166
G1 X123.116 Y143.216 E128.69675
G1 X122.965 Y143.236 E128.71072
G1 X121.600 Y143.324 E128.83658
G1 X78.400 Y143.324 E132.81002
G1 X77.036 Y143.236 E132.93569
G1 X76.884 Y143.216 E132.94986
G1 X74.208 Y142.499 E133.20465
G1 X74.084 Y142.448 E133.21695
G1 X71.683 Y141.062 E133.47204
G1 X71.579 Y140.982 E133.48405
G1 X69.618 Y139.021 E133.73915
G1 X69.538 Y138.917 E133.75115
G1 X68.152 Y136.517 E134.00614
G1 X68.102 Y136.395 E134.01825
G1 X67.384 Y133.716 E134.27334
G1 X67.276 Y132.200 E134.41314
G1 X67.276 Y67.800 E140.33651
G1 X67.384 Y66.284 E140.47631
G1 X68.102 Y63.605 E140.73139
G1 X68.152 Y63.484 E140.74340
G1 X69.581 Y61.027 E141.00490
G1 X70.113 Y61.360 F7800.000
G1 X71.960 Y59.513 E141.24506 F1800.000
G1 X72.063 Y59.434 E141.25707
G1 X74.322 Y58.130 E141.49700
G1 X74.444 Y58.079 E141.50908
G1 X76.966 Y57.403 E141.74926
G1 X77.097 Y57.386 E141.76145
G1 X78.400 Y57.301 E141.88152
G1 X121.600 Y57.301 E145.85496
G1 X122.904 Y57.386 E145.97517
G1 X123.034 Y57.403 E145.98719 F1800.000
G1 X125.557 Y58.079 E146.22741
G1 X125.677 Y58.129 E146.23942
G1 X127.937 Y59.434 E146.47939
G1 X128.040 Y59.513 E146.49140
G1 X129.885 Y61.358 E146.73139
G1 X129.966 Y61.463 E146.74359
G1 X131.271 Y63.724 E146.98365
G1 X131.321 Y63.844 E146.99565
G1 X131.997 Y66.366 E147.23574
G1 X132.014 Y66.495 E147.24774
G1 X132.099 Y67.800 E147.36804
G1 X132.099 Y132.200 E153.29141
G1 X131.997 Y133.635 E153.42369
G1 X131.321 Y136.155 E153.66367
G1 X131.271 Y136.276 E153.67578
G1 X129.966 Y138.537 E153.91587
G1 X129.886 Y138.641 E153.92788
G1 X128.041 Y140.486 E154.16798
G1 X127.937 Y140.566 E154.17998
G1 X125.676 Y141.871 E154.42007
G1 X125.556 Y141.921 E154.43208
G1 X123.035 Y142.597 E154.67216
G1 X122.885 Y142.616 E154.68602
G1 X121.600 Y142.699 E154.80447
G1 X78.400 Y142.699 E158.77791
G1 X77.117 Y142.616 E158.89619
G1 X76.965 Y142.597 E158.91023
G1 X74.447 Y141.922 E159.15003
G1 X74.323 Y141.871 E159.16232
G1 X72.063 Y140.566 E159.40240
G1 X71.959 Y140.486 E159.41441
G1 X70.114 Y138.641 E159.65451
G1 X70.034 Y138.537 E159.66651
G1 X68.729 Y136.277 E159.90650
G1 X68.679 Y136.156 E159.91860
G1 X68.003 Y133.635 E160.15869
G1 X67.901 Y132.200 E160.29097
G1 X67.901 Y67.800 E166.21434
G1 X68.003 Y66.365 E166.34662
G1 X68.679 Y63.844 E166.58670
G1 X68.729 Y63.724 E166.59872
G1 X70.077 Y61.407 E166.84521
G1 X70.609 Y61.740 F7800.000
G1 X72.340 Y60.009 E167.07036 F1800.000
G1 X72.444 Y59.930 E167.08237
G1 X74.562 Y58.707 E167.30730
G1 X74.683 Y58.657 E167.31938
G1 X77.048 Y58.023 E167.54455
G1 X77.179 Y58.006 E167.55673
G1 X78.400 Y57.926 E167.66929
G1 X121.600 Y57.926 E171.64273
G1 X122.823 Y58.006 E171.75543
G1 X122.952 Y58.023 E171.76745 F1800.000
G1 X125.317 Y58.657 E171.99266
G1 X125.438 Y58.707 E172.00467
G1 X127.556 Y59.930 E172.22965
G1 X127.660 Y60.009 E172.24165
G1 X129.390 Y61.739 E172.46665
G1 X129.470 Y61.844 E172.47884
G1 X130.694 Y63.963 E172.70389
G1 X130.744 Y64.083 E172.71589
G1 X131.377 Y66.447 E172.94097
G1 X131.394 Y66.577 E172.95298
G1 X131.474 Y67.800 E173.06576
G1 X131.474 Y132.200 E178.98912
G1 X131.377 Y133.553 E179.11389
G1 X130.744 Y135.916 E179.33887
G1 X130.694 Y136.037 E179.35098
G1 X129.470 Y138.157 E179.57606
G1 X129.391 Y138.260 E179.58807
G1 X127.660 Y139.991 E179.81316
G1 X127.557 Y140.070 E179.82517
G1 X125.437 Y141.294 E180.05025
G1 X125.317 Y141.344 E180.06226
G1 X122.953 Y141.977 E180.28733
G1 X122.805 Y141.996 E180.30108
G1 X121.600 Y142.074 E180.41213
G1 X78.400 Y142.074 E184.38557
G1 X77.197 Y141.997 E184.49646
G1 X77.047 Y141.977 E184.51037
G1 X74.686 Y141.345 E184.73519
G1 X74.563 Y141.294 E184.74746
G1 X72.443 Y140.070 E184.97254
G1 X72.340 Y139.991 E184.98454
G1 X70.609 Y138.260 E185.20963
G1 X70.530 Y138.157 E185.22164
G1 X69.307 Y136.038 E185.44663
G1 X69.256 Y135.917 E185.45873
G1 X68.623 Y133.553 E185.68381
G1 X68.526 Y132.200 E185.80857
G1 X68.526 Y67.800 E191.73194
G1 X68.623 Y66.447 E191.85671
G1 X69.256 Y64.083 E192.08178
G1 X69.306 Y63.963 E192.09380
G1 X70.573 Y61.788 E192.32529
G1 X71.105 Y62.120 F7800.000
G1 X72.720 Y60.505 E192.53543 F1800.000
G1 X72.824 Y60.425 E192.54744
G1 X74.801 Y59.284 E192.75738
G1 X74.922 Y59.234 E192.76945
G1 X77.129 Y58.642 E192.97961
G1 X77.260 Y58.625 E192.99178
G1 X78.400 Y58.551 E193.09684
G1 X121.600 Y58.551 E197.07028
G1 X122.741 Y58.625 E197.17546
G1 X122.871 Y58.642 E197.18748 F1800.000
G1 X125.078 Y59.234 E197.39768
G1 X125.199 Y59.284 E197.40969
G1 X127.176 Y60.425 E197.61967
G1 X127.279 Y60.505 E197.63167
G1 X128.894 Y62.119 E197.84167
G1 X128.975 Y62.224 E197.85385
G1 X130.116 Y64.202 E198.06389
G1 X130.166 Y64.322 E198.07590
G1 X130.757 Y66.529 E198.28598
G1 X130.774 Y66.658 E198.29799
G1 X130.849 Y67.800 E198.40324
G1 X130.849 Y132.200 E204.32661
G1 X130.757 Y133.471 E204.44386
G1 X130.167 Y135.677 E204.65384
G1 X130.116 Y135.798 E204.66594
G1 X128.974 Y137.776 E204.87602
G1 X128.895 Y137.880 E204.88803
G1 X127.280 Y139.495 E205.09812
G1 X127.176 Y139.574 E205.11012
G1 X125.198 Y140.716 E205.32020
G1 X125.078 Y140.766 E205.33221
G1 X122.871 Y141.357 E205.54228
G1 X122.725 Y141.377 E205.55591
G1 X121.600 Y141.449 E205.65956
G1 X78.400 Y141.449 E209.63300
G1 X77.277 Y141.377 E209.73649
G1 X77.128 Y141.357 E209.75028
G1 X74.925 Y140.767 E209.96011
G1 X74.802 Y140.716 E209.97236
G1 X72.824 Y139.574 E210.18244
G1 X72.720 Y139.495 E210.19444
G1 X71.105 Y137.880 E210.40453
G1 X71.026 Y137.776 E210.41654
G1 X69.884 Y135.799 E210.62653
G1 X69.834 Y135.678 E210.63862
G1 X69.243 Y133.471 E210.84870
G1 X69.151 Y132.200 E210.96595
G1 X69.151 Y67.800 E216.88931
G1 X69.243 Y66.529 E217.00656
G1 X69.834 Y64.322 E217.21663
G1 X69.884 Y64.202 E217.22864
G1 X71.068 Y62.168 E217.44514
G1 X71.601 Y62.501 F7800.000
G1 X73.101 Y61.001 E217.64027 F1800.000
G1 X73.204 Y60.921 E217.65227
G1 X75.040 Y59.861 E217.84722
G1 X75.161 Y59.811 E217.85929
G1 X77.211 Y59.262 E218.05444
G1 X78.400 Y59.176 E218.16413
G1 X121.600 Y59.176 E222.13757
G1 X122.660 Y59.245 E222.23524
G1 X122.789 Y59.262 E222.24726 F1800.000
G1 X124.839 Y59.811 E222.44244
G1 X124.960 Y59.861 E222.45445
G1 X126.795 Y60.921 E222.64943
G1 X126.899 Y61.001 E222.66144
G1 X128.398 Y62.500 E222.85644
G1 X128.479 Y62.604 E222.86860
G1 X129.539 Y64.441 E223.06365
G1 X129.589 Y64.562 E223.07566
G1 X130.138 Y66.610 E223.27073
G1 X130.155 Y66.740 E223.28274
G1 X130.224 Y67.800 E223.38048
G1 X130.224 Y132.200 E229.30384
G1 X130.138 Y133.390 E229.41357
G1 X129.589 Y135.438 E229.60856
G1 X129.539 Y135.559 E229.62065
G1 X128.479 Y137.396 E229.81573
G1 X128.399 Y137.499 E229.82774
G1 X126.899 Y138.999 E230.02282
G1 X126.796 Y139.079 E230.03483
G1 X124.959 Y140.139 E230.22990
G1 X124.838 Y140.189 E230.24191
G1 X122.790 Y140.738 E230.43698
G1 X122.644 Y140.757 E230.45049
G1 X121.600 Y140.824 E230.54673
G1 X78.400 Y140.824 E234.52017
G1 X77.357 Y140.757 E234.61628
G1 X77.210 Y140.738 E234.62994
G1 X75.164 Y140.190 E234.82478
G1 X75.041 Y140.139 E234.83702
G1 X73.204 Y139.079 E235.03209
G1 X73.101 Y138.999 E235.04409
G1 X71.601 Y137.499 E235.23918
G1 X71.521 Y137.396 E235.25118
G1 X70.461 Y135.560 E235.44618
G1 X70.411 Y135.438 E235.45826
G1 X69.862 Y133.390 E235.65333
G1 X69.776 Y132.200 E235.76306
G1 X69.776 Y67.800 E241.68643
G1 X69.862 Y66.610 E241.79616
G1 X70.411 Y64.562 E241.99123
G1 X70.461 Y64.441 E242.00324
G1 X71.564 Y62.548 E242.20473
G1 X72.097 Y62.881 F7800.000
G1 X73.481 Y61.496 E242.38485 F1800.000
G1 X73.585 Y61.417 E242.39686
G1 X75.279 Y60.439 E242.57681
G1 X75.400 Y60.388 E242.58887
G1 X77.292 Y59.882 E242.76902
G1 X78.400 Y59.800 E242.87119
