; generated by Slic3r 1.2.9 on 2017-12-05 at 01:34:28

; external perimeters extrusion width = 0.40mm
; perimeters extrusion width = 0.48mm
; infill extrusion width = 0.48mm
; solid infill extrusion width = 0.48mm
; top infill extrusion width = 0.48mm

M190 S50 ; set bed temperature
M104 S199 ; set temperature
G92 X0 Y0 Z0 ;Zero X Y and Z axis
G1 Z5 F5000 ; lift nozzle

M109 S199 ; wait for temperature to be reached
G21 ; set units to millimeters
G90 ; use absolute coordinates
M82 ; use absolute distances for extrusion
G92 E0
G1 Z0.350 F7800.000
G1 E-6.40000 F4200.00000
G92 E0
G1 Z0.550 F7800.000
G1 X70.312 Y61.512 F7800.000
G1 Z0.350 F7800.000
G1 E6.40000 F4200.00000
M204 S1200
G1 X72.112 Y59.712 E6.63416 F1080.000
G1 X72.215 Y59.632 E6.64616
G1 X74.418 Y58.360 E6.88010
G1 X74.539 Y58.310 E6.89218
G1 X76.999 Y57.651 E7.12636
G1 X77.130 Y57.634 E7.13855
G1 X78.400 Y57.551 E7.25562
G1 X121.600 Y57.551 E11.22905
G1 X122.872 Y57.634 E11.34626
G1 X123.001 Y57.651 E11.35829 F1080.000
G1 X125.461 Y58.310 E11.59251
G1 X125.582 Y58.360 E11.60451
G1 X127.785 Y59.632 E11.83849
G1 X127.888 Y59.711 E11.85050
G1 X129.687 Y61.510 E12.08450
G1 X129.768 Y61.615 E12.09669
G1 X131.040 Y63.819 E12.33075
G1 X131.090 Y63.940 E12.34275
G1 X131.749 Y66.398 E12.57684
G1 X131.766 Y66.528 E12.58885
G1 X131.849 Y67.800 E12.70614
G1 X131.849 Y132.200 E18.62951
G1 X131.749 Y133.602 E18.75879
G1 X131.091 Y136.059 E18.99277
G1 X131.040 Y136.181 E19.00488
G1 X129.768 Y138.385 E19.23897
G1 X129.688 Y138.489 E19.25098
G1 X127.889 Y140.288 E19.48508
G1 X127.785 Y140.368 E19.49708
G1 X125.581 Y141.640 E19.73118
G1 X125.460 Y141.690 E19.74318
G1 X123.002 Y142.349 E19.97726
G1 X122.853 Y142.368 E19.99108
G1 X121.600 Y142.449 E20.10657
G1 X78.400 Y142.449 E24.08001
G1 X77.149 Y142.369 E24.19533
G1 X76.998 Y142.349 E24.20933
G1 X74.542 Y141.691 E24.44314
G1 X74.419 Y141.640 E24.45542
G1 X72.215 Y140.368 E24.68951
G1 X72.111 Y140.288 E24.70151
G1 X70.312 Y138.489 E24.93561
G1 X70.232 Y138.385 E24.94762
G1 X68.960 Y136.182 E25.18161
G1 X68.910 Y136.060 E25.19371
G1 X68.251 Y133.602 E25.42780
G1 X68.151 Y132.200 E25.55708
G1 X68.151 Y67.800 E31.48044
G1 X68.251 Y66.398 E31.60972
G1 X68.910 Y63.940 E31.84381
G1 X68.960 Y63.819 E31.85582
G1 X70.275 Y61.559 E32.09632
M204 S3000
G1 X70.771 Y61.940 F7800.000
M204 S1200
G1 X72.492 Y60.207 E32.32094 F1080.000
G1 X72.596 Y60.128 E32.33295
G1 X74.657 Y58.938 E32.55189
G1 X74.778 Y58.887 E32.56396
G1 X77.080 Y58.271 E32.78314
G1 X77.211 Y58.253 E32.79531
G1 X78.400 Y58.176 E32.90487
G1 X121.600 Y58.176 E36.87831
G1 X122.790 Y58.253 E36.98801
G1 X122.920 Y58.271 E37.00003 F1080.000
G1 X125.222 Y58.887 E37.21924
G1 X125.342 Y58.937 E37.23124
G1 X127.404 Y60.128 E37.45023
G1 X127.508 Y60.207 E37.46223
G1 X129.192 Y61.891 E37.68123
G1 X129.272 Y61.996 E37.69342
G1 X130.463 Y64.058 E37.91247
G1 X130.513 Y64.179 E37.92448
G1 X131.129 Y66.480 E38.14356
G1 X131.146 Y66.609 E38.15557
G1 X131.224 Y67.800 E38.26534
G1 X131.224 Y132.200 E44.18871
G1 X131.129 Y133.520 E44.31047
G1 X130.513 Y135.820 E44.52945
G1 X130.463 Y135.942 E44.54156
G1 X129.272 Y138.005 E44.76065
G1 X129.192 Y138.108 E44.77265
G1 X127.508 Y139.793 E44.99175
G1 X127.405 Y139.872 E45.00375
G1 X125.342 Y141.063 E45.22284
G1 X125.221 Y141.113 E45.23485
G1 X122.920 Y141.729 E45.45392
G1 X122.773 Y141.749 E45.46762
G1 X121.600 Y141.824 E45.57571
G1 X78.400 Y141.824 E49.54915
G1 X77.229 Y141.749 E49.65709
G1 X77.080 Y141.729 E49.67095
G1 X74.781 Y141.114 E49.88978
G1 X74.658 Y141.063 E49.90204
G1 X72.595 Y139.872 E50.12112
G1 X72.492 Y139.792 E50.13313
G1 X70.807 Y138.108 E50.35222
G1 X70.728 Y138.005 E50.36423
G1 X69.537 Y135.943 E50.58322
G1 X69.487 Y135.821 E50.59532
G1 X68.871 Y133.520 E50.81440
G1 X68.776 Y132.200 E50.93616
G1 X68.776 Y67.800 E56.85953
G1 X68.871 Y66.480 E56.98129
G1 X69.487 Y64.179 E57.20037
G1 X69.537 Y64.058 E57.21238
G1 X70.734 Y61.987 E57.43240
M204 S3000
G1 X71.230 Y62.368 F7800.000
M204 S1200
G1 X71.303 Y62.272 E57.44344 F1080.000
G1 X72.873 Y60.703 E57.64758
G1 X72.976 Y60.624 E57.65959
G1 X74.896 Y59.515 E57.86354
G1 X75.018 Y59.465 E57.87561
G1 X77.162 Y58.890 E58.07977
G1 X77.293 Y58.873 E58.09193
G1 X78.400 Y58.800 E58.19399
G1 X121.600 Y58.800 E62.16743
G1 X122.709 Y58.873 E62.26961
G1 X122.838 Y58.890 E62.28164 F1080.000
G1 X124.983 Y59.465 E62.48583
G1 X125.103 Y59.515 E62.49784
G1 X127.024 Y60.624 E62.70182
G1 X127.127 Y60.703 E62.71383
G1 X128.696 Y62.271 E62.91783
G1 X128.776 Y62.376 E62.93000
G1 X129.886 Y64.297 E63.13405
G1 X129.936 Y64.418 E63.14606
G1 X130.510 Y66.561 E63.35014
G1 X130.527 Y66.691 E63.36215
G1 X130.600 Y67.800 E63.46440
G1 X130.600 Y132.200 E69.38777
G1 X130.510 Y133.439 E69.50201
G1 X129.936 Y135.581 E69.70600
G1 X129.886 Y135.703 E69.71810
G1 X128.776 Y137.624 E69.92218
G1 X128.697 Y137.728 E69.93419
G1 X127.128 Y139.297 E70.13828
G1 X127.024 Y139.376 E70.15028
G1 X125.103 Y140.486 E70.35437
G1 X124.982 Y140.536 E70.36637
G1 X122.839 Y141.110 E70.57045
G1 X122.692 Y141.129 E70.58403
G1 X121.600 Y141.200 E70.68472
G1 X78.400 Y141.200 E74.65816
G1 X77.309 Y141.129 E74.75870
G1 X77.161 Y141.110 E74.77243
G1 X75.020 Y140.537 E74.97627
G1 X74.897 Y140.486 E74.98852
G1 X72.976 Y139.376 E75.19260
G1 X72.872 Y139.297 E75.20460
G1 X71.303 Y137.728 E75.40869
G1 X71.224 Y137.624 E75.42070
G1 X70.115 Y135.703 E75.62470
G1 X70.064 Y135.582 E75.63678
G1 X69.490 Y133.439 E75.84086
G1 X69.400 Y132.200 E75.95511
G1 X69.400 Y67.800 E81.87847
G1 X69.490 Y66.561 E81.99272
G1 X70.064 Y64.418 E82.19679
G1 X70.114 Y64.297 E82.20880
G1 X71.199 Y62.419 E82.40832
M204 S3000
G1 X71.719 Y62.757 F7800.000
M204 S1200
G1 X71.799 Y62.653 E82.42040 F1080.000
G1 X73.253 Y61.199 E82.60953
G1 X73.356 Y61.119 E82.62154
G1 X75.136 Y60.092 E82.81049
G1 X75.257 Y60.042 E82.82256
G1 X77.243 Y59.510 E83.01171
G1 X78.400 Y59.425 E83.11839
G1 X121.600 Y59.425 E87.09183
G1 X122.627 Y59.493 E87.18650
G1 X122.757 Y59.510 E87.19852 F1080.000
G1 X124.743 Y60.042 E87.38771
G1 X124.864 Y60.092 E87.39971
G1 X126.643 Y61.119 E87.58870
G1 X126.747 Y61.199 E87.60071
G1 X128.200 Y62.652 E87.78971
G1 X128.281 Y62.757 E87.80187
G1 X129.308 Y64.537 E87.99092
G1 X129.358 Y64.657 E88.00293
G1 X129.890 Y66.643 E88.19200
G1 X129.907 Y66.772 E88.20401
G1 X129.975 Y67.800 E88.29874
G1 X129.975 Y132.200 E94.22211
G1 X129.890 Y133.357 E94.32884
G1 X129.359 Y135.342 E94.51783
G1 X129.308 Y135.463 E94.52992
G1 X128.280 Y137.244 E94.71900
G1 X128.201 Y137.347 E94.73100
G1 X126.747 Y138.801 E94.92009
G1 X126.644 Y138.880 E94.93210
G1 X124.863 Y139.908 E95.12117
G1 X124.743 Y139.958 E95.13318
G1 X122.757 Y140.490 E95.32225
G1 X122.612 Y140.509 E95.33572
G1 X121.600 Y140.575 E95.42900
G1 X78.400 Y140.575 E99.40244
G1 X77.243 Y140.490 E99.50917
G1 X75.259 Y139.959 E99.69803
G1 X75.136 Y139.908 E99.71026
G1 X73.356 Y138.880 E99.89933
G1 X73.253 Y138.801 E99.91134
G1 X71.799 Y137.347 E100.10042
G1 X71.720 Y137.244 E100.11243
G1 X70.692 Y135.464 E100.30143
G1 X70.642 Y135.343 E100.31351
G1 X70.110 Y133.357 E100.50258
G1 X70.025 Y132.200 E100.60931
G1 X70.025 Y67.800 E106.53268
G1 X70.110 Y66.643 E106.63940
G1 X70.642 Y64.657 E106.82847
G1 X70.692 Y64.537 E106.84048
G1 X71.689 Y62.809 E107.02395
M204 S3000
G1 X72.215 Y63.137 F7800.000
M204 S1200
G1 X72.295 Y63.033 E107.03602 F1080.000
G1 X73.633 Y61.695 E107.21015
G1 X73.737 Y61.615 E107.22215
G1 X75.375 Y60.669 E107.39611
G1 X75.496 Y60.619 E107.40817
G1 X77.325 Y60.129 E107.58232
G1 X78.400 Y60.050 E107.68149
G1 X121.600 Y60.050 E111.65492
G1 X122.546 Y60.112 E111.74208
G1 X122.675 Y60.129 E111.75410 F1080.000
G1 X124.504 Y60.619 E111.92827
G1 X124.625 Y60.669 E111.94028
G1 X126.263 Y61.615 E112.11427
G1 X126.367 Y61.695 E112.12628
G1 X127.704 Y63.032 E112.30028
G1 X127.785 Y63.137 E112.31243
G1 X128.731 Y64.776 E112.48648
G1 X128.781 Y64.896 E112.49848
G1 X129.271 Y66.724 E112.67256
G1 X129.288 Y66.854 E112.68456
G1 X129.350 Y67.800 E112.77178
G1 X129.350 Y132.200 E118.69515
G1 X129.271 Y133.276 E118.79435
G1 X128.781 Y135.103 E118.96835
G1 X128.731 Y135.224 E118.98043
G1 X127.785 Y136.863 E119.15451
G1 X127.705 Y136.967 E119.16651
G1 X126.367 Y138.305 E119.34059
G1 X126.263 Y138.385 E119.35260
G1 X124.624 Y139.331 E119.52667
G1 X124.504 Y139.381 E119.53868
G1 X122.676 Y139.871 E119.71275
G1 X121.600 Y139.950 E119.81196
G1 X78.400 Y139.950 E123.78539
G1 X77.324 Y139.871 E123.88461
G1 X75.498 Y139.382 E124.05848
G1 X75.376 Y139.331 E124.07069
G1 X73.737 Y138.385 E124.24476
G1 X73.633 Y138.305 E124.25676
G1 X72.295 Y136.967 E124.43084
G1 X72.215 Y136.863 E124.44285
G1 X71.269 Y135.225 E124.61685
G1 X71.219 Y135.104 E124.62893
G1 X70.729 Y133.276 E124.80300
G1 X70.650 Y132.200 E124.90220
G1 X70.650 Y67.800 E130.82557
G1 X70.729 Y66.724 E130.92478
G1 X71.219 Y64.896 E131.09885
G1 X71.269 Y64.776 E131.11086
G1 X72.185 Y63.189 E131.27932
M204 S3000
G1 X72.711 Y63.518 F7800.000
M204 S1200
G1 X72.790 Y63.414 E131.29139 F1080.000
G1 X74.014 Y62.190 E131.45051
G1 X74.117 Y62.111 E131.46252
G1 X75.614 Y61.247 E131.62148
G1 X75.735 Y61.197 E131.63354
G1 X77.406 Y60.749 E131.79267
G1 X78.400 Y60.675 E131.88432
G1 X121.600 Y60.675 E135.85776
G1 X122.464 Y60.732 E135.93741
G1 X122.594 Y60.749 E135.94943 F1080.000
G1 X124.265 Y61.197 E136.10858
G1 X124.386 Y61.247 E136.12059
G1 X125.883 Y62.111 E136.27958
G1 X125.986 Y62.190 E136.29159
G1 X127.209 Y63.413 E136.45060
G1 X127.289 Y63.517 E136.46273
G1 X128.154 Y65.015 E136.62178
G1 X128.204 Y65.135 E136.63378
G1 X128.651 Y66.806 E136.79285
G1 X128.668 Y66.935 E136.80486
G1 X128.725 Y67.800 E136.88456
G1 X128.725 Y132.200 E142.80793
G1 X128.651 Y133.194 E142.89962
G1 X128.204 Y134.864 E143.05861
G1 X128.154 Y134.985 E143.07069
G1 X127.289 Y136.483 E143.22976
G1 X127.209 Y136.587 E143.24177
G1 X125.986 Y137.809 E143.40084
G1 X125.883 Y137.889 E143.41285
G1 X124.385 Y138.754 E143.57192
G1 X124.265 Y138.804 E143.58392
G1 X122.594 Y139.251 E143.74299
G1 X121.600 Y139.325 E143.83468
G1 X78.400 Y139.325 E147.80812
G1 X77.406 Y139.251 E147.89981
G1 X75.737 Y138.804 E148.05869
G1 X75.615 Y138.754 E148.07089
G1 X74.117 Y137.889 E148.22995
G1 X74.013 Y137.809 E148.24196
G1 X72.791 Y136.586 E148.40103
G1 X72.711 Y136.483 E148.41304
G1 X71.847 Y134.986 E148.57204
G1 X71.796 Y134.865 E148.58411
G1 X71.349 Y133.194 E148.74318
G1 X71.275 Y132.200 E148.83487
G1 X71.275 Y67.800 E154.75824
G1 X71.349 Y66.806 E154.84993
G1 X71.796 Y65.135 E155.00899
G1 X71.846 Y65.015 E155.02100
G1 X72.681 Y63.570 E155.17447
M204 S3000
G1 E148.77447 F4200.00000
G92 E0
G1 Z0.550 F7800.000
G1 X78.250 Y67.650 F7800.000
G1 Z0.350 F7800.000
G1 E6.40000 F4200.00000
M204 S1200
G1 X121.750 Y67.651 E10.40104 F1080.000
G1 X121.750 Y132.350 E16.35189 F1080.000
G1 X78.250 Y132.350 E20.35293
G1 X78.250 Y67.710 E26.29838
M204 S3000
G1 X78.596 Y67.850 F7800.000
G1 X78.875 Y68.275 F7800.000
M204 S1200
G1 X121.125 Y68.276 E30.18446 F1080.000
G1 X121.125 Y131.725 E36.02037 F1080.000
G1 X78.875 Y131.725 E39.90645
G1 X78.875 Y68.335 E45.73695
M204 S3000
G1 X120.500 Y113.765 F7800.000
M204 S1200
G1 X120.500 Y131.100 E47.33144 F1080.000
G1 X79.500 Y131.100 E51.10258
G1 X79.500 Y68.900 E56.82364
G1 X120.500 Y68.901 E60.59477
G1 X120.500 Y113.705 E64.71571 F1080.000
M204 S3000
G1 X107.987 Y79.090 F7800.000
M204 S1200
G1 X107.507 Y79.153 E64.76020 F1080.000
G1 X107.028 Y79.090 E64.80469
G1 X106.581 Y78.905 E64.84918
G1 X106.197 Y78.610 E64.89368
G1 X105.902 Y78.226 E64.93817
G1 X105.723 Y77.794 E64.98126
G1 X105.654 Y77.302 E65.02697
G1 X105.717 Y76.820 E65.07160
G1 X105.902 Y76.374 E65.11610
G1 X106.197 Y75.990 E65.16059
G1 X106.581 Y75.695 E65.20508
G1 X107.028 Y75.510 E65.24957
G1 X107.492 Y75.449 E65.29266 F1080.000
G1 X107.985 Y75.510 E65.33837
G1 X108.434 Y75.695 E65.38301
G1 X108.817 Y75.990 E65.42750
G1 X109.112 Y76.374 E65.47199
G1 X109.297 Y76.820 E65.51648
G1 X109.360 Y77.300 E65.56098
G1 X109.297 Y77.780 E65.60547
G1 X109.112 Y78.226 E65.64996
G1 X108.817 Y78.610 E65.69445
G1 X108.434 Y78.905 E65.73895
G1 X108.042 Y79.067 E65.77792
M204 S3000
G1 X107.866 Y79.471 F7800.000
G1 X108.281 Y79.644 F7800.000
M204 S1200
G1 X108.150 Y79.699 E65.79100 F1080.000
G1 X107.507 Y79.783 E65.85063
G1 X106.864 Y79.699 E65.91026
G1 X106.266 Y79.451 E65.96988
G1 X105.751 Y79.056 E66.02951
G1 X105.357 Y78.542 E66.08913
G1 X105.115 Y77.959 E66.14710
G1 X105.023 Y77.304 E66.20794
G1 X105.109 Y76.657 E66.26797
G1 X105.357 Y76.058 E66.32760
G1 X105.751 Y75.544 E66.38722
G1 X106.266 Y75.149 E66.44685
G1 X106.864 Y74.901 E66.50647
G1 X107.489 Y74.819 E66.56444 F1080.000
G1 X108.146 Y74.900 E66.62528
G1 X108.749 Y75.149 E66.68531
G1 X109.263 Y75.544 E66.74494
G1 X109.658 Y76.058 E66.80456
G1 X109.906 Y76.657 E66.86419
G1 X109.990 Y77.300 E66.92381
G1 X109.906 Y77.943 E66.98344
G1 X109.658 Y78.542 E67.04307
G1 X109.263 Y79.056 E67.10269
G1 X108.749 Y79.451 E67.16232
G1 X108.337 Y79.621 E67.20334
M204 S3000
G1 X108.576 Y80.199 F7800.000
M204 S1200
G1 X108.313 Y80.307 E67.22951 F1080.000
G1 X107.507 Y80.414 E67.30427
G1 X106.701 Y80.307 E67.37903
G1 X105.950 Y79.996 E67.45379
G1 X105.306 Y79.502 E67.52855
G1 X104.811 Y78.857 E67.60331
G1 X104.508 Y78.125 E67.67615
G1 X104.393 Y77.307 E67.75213
G1 X104.500 Y76.494 E67.82754
G1 X104.811 Y75.743 E67.90230
G1 X105.306 Y75.098 E67.97706
G1 X105.950 Y74.604 E68.05182
G1 X106.701 Y74.293 E68.12658
G1 X107.487 Y74.189 E68.19943 F1080.000
G1 X108.306 Y74.290 E68.27541
G1 X109.064 Y74.604 E68.35082
G1 X109.709 Y75.098 E68.42558
G1 X110.204 Y75.743 E68.50034
G1 X110.515 Y76.494 E68.57510
G1 X110.621 Y77.300 E68.64986
G1 X110.515 Y78.106 E68.72462
G1 X110.204 Y78.857 E68.79938
G1 X109.709 Y79.502 E68.87414
G1 X109.064 Y79.996 E68.94890
G1 X108.631 Y80.176 E68.99197
M204 S3000
G1 X94.082 Y77.780 F7800.000
M204 S1200
G1 X93.896 Y78.226 E69.03646 F1080.000
G1 X93.602 Y78.610 E69.08095
G1 X93.218 Y78.905 E69.12545
G1 X92.771 Y79.090 E69.16994
G1 X92.292 Y79.153 E69.21443
G1 X91.812 Y79.090 E69.25892
G1 X91.365 Y78.905 E69.30341
G1 X90.981 Y78.610 E69.34791
G1 X90.687 Y78.226 E69.39240
G1 X90.502 Y77.780 E69.43689
G1 X90.439 Y77.300 E69.48138
G1 X90.502 Y76.820 E69.52587
G1 X90.687 Y76.374 E69.57037
G1 X90.981 Y75.990 E69.61486
G1 X91.365 Y75.695 E69.65935
G1 X91.812 Y75.510 E69.70384
G1 X92.277 Y75.449 E69.74693 F1080.000
G1 X92.770 Y75.510 E69.79264
G1 X93.218 Y75.695 E69.83728
G1 X93.602 Y75.990 E69.88177
G1 X93.896 Y76.374 E69.92626
G1 X94.082 Y76.820 E69.97075
G1 X94.145 Y77.300 E70.01525
G1 X94.089 Y77.720 E70.05422
M204 S3000
G1 X94.352 Y78.075 F7800.000
G1 X94.709 Y77.802 F7800.000
M204 S1200
G1 X94.690 Y77.943 E70.06731 F1080.000
G1 X94.442 Y78.542 E70.12693
G1 X94.048 Y79.056 E70.18656
G1 X93.533 Y79.451 E70.24618
G1 X92.934 Y79.699 E70.30581
G1 X92.292 Y79.783 E70.36543
G1 X91.649 Y79.699 E70.42506
G1 X91.050 Y79.451 E70.48469
G1 X90.536 Y79.056 E70.54431
G1 X90.141 Y78.542 E70.60394
G1 X89.893 Y77.943 E70.66356
G1 X89.808 Y77.300 E70.72319
G1 X89.893 Y76.657 E70.78281
G1 X90.141 Y76.058 E70.84244
G1 X90.536 Y75.544 E70.90207
G1 X91.050 Y75.149 E70.96169
G1 X91.649 Y74.901 E71.02132
G1 X92.274 Y74.819 E71.07928 F1080.000
G1 X92.930 Y74.900 E71.14013
G1 X93.533 Y75.149 E71.20016
G1 X94.048 Y75.544 E71.25978
G1 X94.442 Y76.058 E71.31941
G1 X94.690 Y76.657 E71.37903
G1 X94.775 Y77.300 E71.43866
G1 X94.717 Y77.742 E71.47968
M204 S3000
G1 X95.336 Y77.824 F7800.000
M204 S1200
G1 X95.299 Y78.106 E71.50585 F1080.000
G1 X94.988 Y78.857 E71.58061
G1 X94.493 Y79.502 E71.65537
G1 X93.848 Y79.996 E71.73013
G1 X93.097 Y80.307 E71.80489
G1 X92.292 Y80.414 E71.87965
G1 X91.486 Y80.307 E71.95441
