;FLAVOR:RepRap
;TIME:4359
M190 S50.000000
M104 S210.000000
M109 S210.000000
M109 S210.000000
M109 S210.000000
M109 S210.000000
G21 ;metric values
G90 ;absolute positioning
M82 ;set extruder to absolute mode
M107 ;start with the fan off
G92 X0 Y0 Z0 ;Zero X Y and Z axis
G1 Z15.0 F9000 ;move the platform down 15mm
G92 E0 ;zero the extruded length
G1 F200 E3 ;extrude 3mm of feed stock
G92 E0 ;zero the extruded length again
G1 F9000
;Put printing message on LCD screen
M117 Printing...
;Generated with Cura_SteamEngine 2.1.3
;LAYER_COUNT:42
;LAYER:0
M107
G0 F7200.000000 X84.667 Y47.391 Z0.300
G0 X84.105 Y49.360
;TYPE:SKIRT
G1 F1200.000 X84.153 Y48.903 E0.01994
G1 X84.249 Y48.376 E0.04319
G1 X84.421 Y47.868 E0.06647
G1 X84.667 Y47.391 E0.08976
G1 X84.982 Y46.957 E0.11303
G1 X85.357 Y46.574 E0.13630
G1 X85.785 Y46.250 E0.15960
G1 X86.256 Y45.994 E0.18286
G1 X86.760 Y45.811 E0.20613
G1 X87.286 Y45.705 E0.22942
G1 X87.734 Y45.677 E0.24890
G1 X88.259 Y45.677 E0.27169
G1 X88.794 Y45.717 E0.29497
G1 X89.317 Y45.836 E0.31825
G1 X89.816 Y46.031 E0.34150
G1 X90.163 Y46.231 E0.35888
G1 X109.038 Y46.231 E1.17806
G1 X109.134 Y46.165 E1.18312
G1 X109.616 Y45.931 E1.20637
G1 X110.128 Y45.771 E1.22965
G1 X110.658 Y45.688 E1.25293
G1 X110.944 Y45.677 E1.26535
G1 X111.467 Y45.677 E1.28805
G1 X112.002 Y45.717 E1.31134
G1 X112.525 Y45.836 E1.33462
G1 X112.625 Y45.875 E1.33927
G1 X112.706 Y45.875 E1.34279
G1 X113.241 Y45.915 E1.36607
G1 X113.764 Y46.034 E1.38935
G1 X114.263 Y46.229 E1.41260
G1 X114.728 Y46.497 E1.43590
G1 X115.148 Y46.830 E1.45916
G1 X115.514 Y47.222 E1.48243
G1 X115.817 Y47.664 E1.50569
G1 X116.052 Y48.147 E1.52900
G1 X116.212 Y48.658 E1.55224
G1 X116.295 Y49.188 E1.57552
G1 X116.306 Y49.475 E1.58799
G1 X116.306 Y50.274 E1.62267
G1 X116.410 Y50.606 E1.63777
G1 X116.493 Y51.136 E1.66105
G1 X116.504 Y51.423 E1.67351
G1 X116.504 Y54.238 E1.79568
G1 X116.464 Y54.773 E1.81897
G1 X116.345 Y55.296 E1.84225
G1 X116.150 Y55.795 E1.86550
G1 X115.882 Y56.260 E1.88879
G1 X115.549 Y56.680 E1.91205
G1 X115.157 Y57.046 E1.93533
G1 X115.101 Y57.085 E1.93829
G1 X115.104 Y57.932 E1.97505
G1 X115.263 Y59.400 E2.03913
G1 X115.549 Y60.140 E2.07357
G1 X115.898 Y60.741 E2.10373
G1 X116.404 Y61.349 E2.13806
G1 X116.891 Y61.830 E2.16777
G1 X117.351 Y62.130 E2.19160
G1 X117.652 Y62.349 E2.20776
G1 X118.398 Y62.780 E2.24515
G1 X118.685 Y62.667 E2.25853
G1 X119.208 Y62.546 E2.28183
G1 X119.743 Y62.504 E2.30512
G1 X120.277 Y62.542 E2.32836
G1 X120.801 Y62.659 E2.35166
G1 X121.301 Y62.852 E2.37492
G1 X121.557 Y62.987 E2.38748
G1 X124.007 Y64.402 E2.51027
G1 X124.451 Y64.704 E2.53357
G1 X124.844 Y65.068 E2.55682
G1 X124.906 Y65.145 E2.56111
G1 X125.585 Y65.538 E2.59516
G1 X126.028 Y65.840 E2.61843
G1 X126.421 Y66.205 E2.64171
G1 X126.756 Y66.624 E2.66499
G1 X127.025 Y67.088 E2.68827
G1 X127.221 Y67.587 E2.71154
G1 X127.342 Y68.110 E2.73483
G1 X127.383 Y68.654 E2.75851
G1 X127.383 Y69.052 E2.77578
G1 X127.343 Y69.587 E2.79907
G1 X127.224 Y70.110 E2.82235
G1 X127.029 Y70.609 E2.84560
G1 X126.901 Y70.851 E2.85748
G1 X126.189 Y72.085 E2.91931
G1 X125.887 Y72.528 E2.94258
G1 X125.523 Y72.922 E2.96586
G1 X125.104 Y73.257 E2.98914
G1 X124.758 Y73.458 E3.00651
G1 X115.320 Y89.804 E3.82569
G1 X115.329 Y89.919 E3.83069
G1 X115.291 Y90.454 E3.85397
G1 X115.174 Y90.977 E3.87723
G1 X114.980 Y91.477 E3.90051
G1 X114.850 Y91.726 E3.91270
G1 X114.586 Y92.185 E3.93568
G1 X114.284 Y92.629 E3.95898
G1 X113.921 Y93.023 E3.98223
G1 X113.834 Y93.093 E3.98708
G1 X113.795 Y93.160 E3.99044
G1 X113.494 Y93.603 E4.01369
G1 X113.129 Y93.997 E4.03700
G1 X112.711 Y94.332 E4.06025
G1 X112.247 Y94.601 E4.08352
G1 X111.748 Y94.798 E4.10681
G1 X111.226 Y94.919 E4.13006
G1 X110.691 Y94.961 E4.15335
G1 X110.156 Y94.923 E4.17663
G1 X109.633 Y94.806 E4.19989
G1 X109.132 Y94.613 E4.22319
G1 X108.878 Y94.479 E4.23566
G1 X108.178 Y94.075 E4.27073
G1 X107.834 Y93.999 E4.28602
G1 X107.333 Y93.806 E4.30932
G1 X107.070 Y93.668 E4.32221
G1 X104.641 Y92.263 E4.44400
G1 X104.199 Y91.961 E4.46723
G1 X103.805 Y91.596 E4.49054
G1 X103.471 Y91.177 E4.51379
G1 X103.202 Y90.713 E4.53707
G1 X103.006 Y90.214 E4.56034
G1 X102.885 Y89.691 E4.58364
G1 X102.880 Y89.622 E4.58664
G1 X102.155 Y89.208 E4.62287
G1 X101.515 Y88.923 E4.65328
G1 X101.223 Y88.773 E4.66753
G1 X100.969 Y88.705 E4.67894
G1 X100.495 Y88.555 E4.70052
G1 X99.924 Y88.494 E4.72544
G1 X99.826 Y88.485 E4.72971
G1 X99.096 Y88.510 E4.76141
G1 X98.449 Y88.641 E4.79006
G1 X98.221 Y88.719 E4.80052
G1 X97.721 Y88.870 E4.82319
G1 X97.116 Y89.169 E4.85247
G1 X96.308 Y89.636 E4.89298
G1 X96.263 Y89.940 E4.90631
G1 X96.107 Y90.453 E4.92959
G1 X95.876 Y90.937 E4.95286
G1 X95.576 Y91.381 E4.97612
G1 X95.213 Y91.776 E4.99940
G1 X94.795 Y92.112 E5.02268
G1 X94.548 Y92.269 E5.03538
G1 X92.539 Y93.426 E5.13599
G1 X92.055 Y93.658 E5.15929
G1 X91.543 Y93.816 E5.18254
G1 X91.444 Y93.831 E5.18689
G1 X90.326 Y94.477 E5.24293
G1 X89.843 Y94.710 E5.26620
G1 X89.331 Y94.869 E5.28947
G1 X88.800 Y94.949 E5.31278
G1 X88.264 Y94.951 E5.33604
G1 X87.734 Y94.872 E5.35929
G1 X87.221 Y94.715 E5.38258
G1 X86.737 Y94.484 E5.40585
G1 X86.292 Y94.184 E5.42915
G1 X85.898 Y93.821 E5.45240
G1 X85.561 Y93.403 E5.47570
G1 X85.405 Y93.155 E5.48841
G1 X85.365 Y93.085 E5.49191
G1 X85.225 Y92.968 E5.49983
G1 X84.869 Y92.566 E5.52314
G1 X84.619 Y92.191 E5.54270
G1 X84.355 Y91.735 E5.56556
G1 X84.122 Y91.252 E5.58884
G1 X83.963 Y90.740 E5.61211
G1 X83.882 Y90.210 E5.63538
G1 X83.880 Y89.802 E5.65308
G1 X74.442 Y73.455 E6.47230
G1 X74.342 Y73.407 E6.47711
G1 X73.898 Y73.106 E6.50039
G1 X73.504 Y72.743 E6.52365
G1 X73.167 Y72.325 E6.54695
G1 X73.017 Y72.088 E6.55912
G1 X72.751 Y71.629 E6.58215
G1 X72.518 Y71.146 E6.60542
G1 X72.358 Y70.634 E6.62870
G1 X72.343 Y70.537 E6.63296
G1 X72.298 Y70.459 E6.63687
G1 X72.065 Y69.976 E6.66014
G1 X71.907 Y69.463 E6.68344
G1 X71.826 Y68.933 E6.70671
G1 X71.826 Y68.397 E6.72997
G1 X71.904 Y67.867 E6.75322
G1 X72.061 Y67.354 E6.77650
G1 X72.292 Y66.870 E6.79978
G1 X72.593 Y66.426 E6.82306
G1 X72.956 Y66.031 E6.84634
G1 X73.373 Y65.695 E6.86958
G1 X73.619 Y65.539 E6.88223
G1 X74.709 Y64.911 E6.93682
G1 X74.984 Y64.620 E6.95420
G1 X75.601 Y64.168 E6.98739
G1 X77.635 Y62.987 E7.08947
G1 X78.118 Y62.753 E7.11276
G1 X78.630 Y62.593 E7.13604
G1 X79.160 Y62.511 E7.15932
G1 X79.696 Y62.509 E7.18258
G1 X80.227 Y62.586 E7.20587
G1 X80.740 Y62.742 E7.22914
G1 X80.817 Y62.779 E7.23285
G1 X81.534 Y62.361 E7.26887
G1 X81.914 Y62.083 E7.28930
G1 X82.513 Y61.640 E7.32164
G1 X82.828 Y61.365 E7.33978
G1 X83.240 Y60.854 E7.36827
G1 X83.579 Y60.263 E7.39784
G1 X83.851 Y59.531 E7.43173
G1 X84.027 Y58.853 E7.46213
G1 X84.055 Y58.324 E7.48512
G1 X84.096 Y57.936 E7.50206
G1 X84.096 Y56.276 E7.57410
G1 X83.940 Y56.048 E7.58609
G1 X83.705 Y55.565 E7.60940
G1 X83.545 Y55.054 E7.63264
G1 X83.462 Y54.524 E7.65592
G1 X83.451 Y54.237 E7.66839
G1 X83.451 Y51.423 E7.79052
G1 X83.491 Y50.888 E7.81380
G1 X83.610 Y50.365 E7.83708
G1 X83.805 Y49.866 E7.86033
G1 X84.073 Y49.401 E7.88362
G1 X84.105 Y49.360 E7.88588
G0 F7200.00000 X84.493 Y49.505
G1 F1200.000 X84.551 Y48.945 E7.91031
G1 X84.643 Y48.448 E7.93225
G1 X84.813 Y47.971 E7.95423
G1 X85.055 Y47.527 E7.97617
G1 X85.364 Y47.127 E7.99811
G1 X85.732 Y46.781 E8.02003
G1 X86.150 Y46.497 E8.04197
G1 X86.608 Y46.282 E8.06392
G1 X87.093 Y46.142 E8.08583
G1 X87.734 Y46.077 E8.11379
G1 X88.259 Y46.077 E8.13658
G1 X88.763 Y46.117 E8.15852
G1 X89.254 Y46.236 E8.18045
G1 X89.721 Y46.430 E8.20240
G1 X90.046 Y46.631 E8.21898
G1 X109.155 Y46.631 E9.04831
G1 X109.513 Y46.415 E9.06646
G1 X109.982 Y46.225 E9.08842
G1 X110.474 Y46.112 E9.11033
G1 X110.944 Y46.077 E9.13079
G1 X111.467 Y46.077 E9.15348
G1 X111.971 Y46.117 E9.17543
G1 X112.462 Y46.236 E9.19735
G1 X112.556 Y46.275 E9.20177
G1 X112.706 Y46.275 E9.20828
G1 X113.210 Y46.315 E9.23022
G1 X113.701 Y46.434 E9.25215
G1 X114.168 Y46.628 E9.27410
G1 X114.598 Y46.894 E9.29604
G1 X114.981 Y47.224 E9.31798
G1 X115.307 Y47.611 E9.33994
G1 X115.568 Y48.044 E9.36188
G1 X115.758 Y48.512 E9.38380
G1 X115.871 Y49.005 E9.40576
G1 X115.906 Y49.475 E9.42621
G1 X115.906 Y50.337 E9.46362
G1 X115.956 Y50.460 E9.46938
G1 X116.069 Y50.953 E9.49134
G1 X116.104 Y51.423 E9.51179
G1 X116.104 Y54.238 E9.63396
G1 X116.064 Y54.742 E9.65590
G1 X115.945 Y55.233 E9.67783
G1 X115.751 Y55.700 E9.69978
G1 X115.485 Y56.130 E9.72172
G1 X115.155 Y56.513 E9.74366
G1 X114.768 Y56.839 E9.76562
G1 X114.700 Y56.880 E9.76907
G1 X114.704 Y57.947 E9.81538
G1 X114.872 Y59.498 E9.88309
G1 X115.190 Y60.320 E9.92134
G1 X115.564 Y60.965 E9.95370
G1 X116.112 Y61.624 E9.99089
G1 X116.637 Y62.141 E10.02287
G1 X117.116 Y62.453 E10.04768
G1 X117.442 Y62.691 E10.06520
G1 X118.371 Y63.227 E10.11175
G1 X118.466 Y63.176 E10.11643
G1 X118.944 Y63.009 E10.13840
G1 X119.441 Y62.920 E10.16031
G1 X119.947 Y62.910 E10.18228
G1 X120.447 Y62.979 E10.20418
G1 X120.931 Y63.127 E10.22615
G1 X121.357 Y63.333 E10.24669
G1 X123.807 Y64.748 E10.36948
G1 X124.224 Y65.035 E10.39145
G1 X124.590 Y65.383 E10.41337
G1 X124.646 Y65.457 E10.41739
G1 X125.385 Y65.884 E10.45444
G1 X125.801 Y66.171 E10.47637
G1 X126.167 Y66.520 E10.49832
G1 X126.474 Y66.922 E10.52027
G1 X126.713 Y67.367 E10.54219
G1 X126.879 Y67.845 E10.56415
G1 X126.968 Y68.342 E10.58607
G1 X126.983 Y68.654 E10.59962
G1 X126.983 Y69.052 E10.61690
G1 X126.943 Y69.556 E10.63884
G1 X126.824 Y70.047 E10.66077
G1 X126.555 Y70.651 E10.68946
G1 X125.843 Y71.885 E10.75129
G1 X125.556 Y72.302 E10.77326
G1 X125.208 Y72.668 E10.79518
G1 X124.806 Y72.975 E10.81713
G1 X124.469 Y73.157 E10.83376
G1 X114.916 Y89.703 E11.66295
G1 X114.923 Y90.123 E11.68118
G1 X114.853 Y90.623 E11.70309
G1 X114.705 Y91.107 E11.72506
G1 X114.503 Y91.526 E11.74524
G1 X114.239 Y91.985 E11.76823
G1 X113.953 Y92.402 E11.79017
G1 X113.605 Y92.769 E11.81212
G1 X113.523 Y92.832 E11.81661
G1 X113.449 Y92.960 E11.82303
G1 X113.163 Y93.376 E11.84494
G1 X112.814 Y93.743 E11.86692
G1 X112.412 Y94.050 E11.88887
G1 X111.967 Y94.289 E11.91079
G1 X111.490 Y94.456 E11.93272
G1 X110.992 Y94.545 E11.95468
G1 X110.487 Y94.555 E11.97660
G1 X109.986 Y94.486 E11.99855
G1 X109.503 Y94.338 E12.02047
G1 X109.078 Y94.133 E12.04095
G1 X108.321 Y93.697 E12.07887
G1 X108.187 Y93.678 E12.08474
G1 X107.703 Y93.531 E12.10669
G1 X107.271 Y93.322 E12.12752
G1 X104.842 Y91.917 E12.24931
G1 X104.425 Y91.630 E12.27128
G1 X104.060 Y91.281 E12.29319
G1 X103.753 Y90.879 E12.31515
G1 X103.514 Y90.434 E12.33707
G1 X103.348 Y89.956 E12.35903
G1 X103.259 Y89.458 E12.38098
G1 X103.258 Y89.378 E12.38446
G1 X102.329 Y88.847 E12.43090
G1 X101.697 Y88.566 E12.46091
G1 X101.370 Y88.399 E12.47685
G1 X101.089 Y88.323 E12.48948
G1 X100.583 Y88.163 E12.51252
G1 X99.957 Y88.095 E12.53984
G1 X99.829 Y88.085 E12.54542
G1 X99.072 Y88.111 E12.57829
G1 X99.041 Y88.114 E12.57964
G1 X98.310 Y88.261 E12.61200
G1 X98.105 Y88.336 E12.62148
G1 X97.576 Y88.496 E12.64546
G1 X96.930 Y88.815 E12.67673
G1 X95.935 Y89.390 E12.72661
G1 X95.932 Y89.496 E12.73121
G1 X95.838 Y89.992 E12.75312
G1 X95.667 Y90.468 E12.77507
G1 X95.422 Y90.911 E12.79704
G1 X95.112 Y91.309 E12.81893
G1 X94.742 Y91.654 E12.84089
G1 X94.348 Y91.922 E12.86157
G1 X92.339 Y93.079 E12.96219
G1 X91.882 Y93.296 E12.98414
G1 X91.397 Y93.438 E13.00608
G1 X91.305 Y93.450 E13.01010
G1 X90.126 Y94.131 E13.06919
G1 X89.669 Y94.348 E13.09115
G1 X89.184 Y94.491 E13.11309
G1 X88.683 Y94.556 E13.13502
G1 X88.178 Y94.541 E13.15695
G1 X87.681 Y94.447 E13.17890
G1 X87.205 Y94.275 E13.20086
G1 X86.763 Y94.031 E13.22278
G1 X86.364 Y93.720 E13.24473
G1 X86.019 Y93.350 E13.26669
G1 X85.751 Y92.956 E13.28737
G1 X85.684 Y92.840 E13.29318
G1 X85.344 Y92.513 E13.31366
G1 X84.966 Y91.990 E13.34166
G1 X84.702 Y91.534 E13.36453
G1 X84.484 Y91.078 E13.38647
G1 X84.340 Y90.593 E13.40842
G1 X84.275 Y90.092 E13.43035
G1 X84.287 Y89.704 E13.44720
G1 X74.730 Y73.153 E14.27666
G1 X74.369 Y72.953 E14.29457
G1 X73.970 Y72.642 E14.31653
G1 X73.626 Y72.272 E14.33846
G1 X73.363 Y71.888 E14.35866
G1 X73.097 Y71.429 E14.38168
G1 X72.879 Y70.972 E14.40365
G1 X72.736 Y70.488 E14.42556
G1 X72.724 Y70.396 E14.42958
G1 X72.645 Y70.259 E14.43645
G1 X72.427 Y69.802 E14.45842
G1 X72.284 Y69.318 E14.48033
G1 X72.220 Y68.816 E14.50229
G1 X72.235 Y68.311 E14.52422
G1 X72.330 Y67.814 E14.54618
G1 X72.501 Y67.339 E14.56809
G1 X72.745 Y66.896 E14.59004
G1 X73.056 Y66.497 E14.61199
G1 X73.426 Y66.153 E14.63392
G1 X73.819 Y65.886 E14.65454
G1 X74.957 Y65.231 E14.71152
G1 X74.982 Y65.196 E14.71339
G1 X75.340 Y64.840 E14.73530
G1 X75.802 Y64.514 E14.75984
G1 X77.836 Y63.333 E14.86192
G1 X78.292 Y63.114 E14.88388
G1 X78.777 Y62.970 E14.90583
G1 X79.278 Y62.904 E14.92776
G1 X79.783 Y62.918 E14.94969
G1 X80.280 Y63.011 E14.97163
G1 X80.756 Y63.182 E14.99358
G1 X80.840 Y63.228 E14.99774
G1 X81.758 Y62.694 E15.04383
G1 X82.138 Y62.415 E15.06429
G1 X82.770 Y61.947 E15.09842
G1 X83.115 Y61.647 E15.11827
G1 X83.572 Y61.078 E15.14994
G1 X83.943 Y60.432 E15.18227
G1 X84.232 Y59.654 E15.21829
G1 X84.424 Y58.917 E15.25134
G1 X84.453 Y58.366 E15.27529
G1 X84.496 Y57.959 E15.29305
G1 X84.496 Y56.156 E15.37130
G1 X84.450 Y56.101 E15.37441
G1 X84.189 Y55.668 E15.39636
G1 X83.999 Y55.200 E15.41828
G1 X83.886 Y54.707 E15.44023
G1 X83.851 Y54.237 E15.46068
G1 X83.851 Y51.423 E15.58281
G1 X83.891 Y50.919 E15.60475
G1 X84.010 Y50.428 E15.62668
G1 X84.204 Y49.961 E15.64863
G1 X84.470 Y49.531 E15.67057
G1 X84.493 Y49.505 E15.67208
G1 F4200.00000 E9.27208
G1 Z0.500
G0 F7200.000 X81.719 Y96.029 Z0.500
G1 Z0.300
G1 F4200.000 E15.67208
G1 F1200.00000 X82.073 Y96.054 E15.68748
G1 X82.603 Y96.131 E15.71072
G1 X83.117 Y96.287 E15.73404
G1 X83.601 Y96.517 E15.75729
G1 X84.046 Y96.816 E15.78056
G1 X84.441 Y97.179 E15.80384
G1 X84.779 Y97.596 E15.82714
G1 X85.050 Y98.058 E15.85039
G1 X85.250 Y98.556 E15.87368
G1 X85.374 Y99.077 E15.89692
G1 X85.419 Y99.645 E15.92165
G1 X85.419 Y100.095 E15.94118
G1 X85.379 Y100.630 E15.96446
G1 X85.260 Y101.153 E15.98774
G1 X85.065 Y101.652 E16.01099
G1 X84.865 Y101.999 E16.02837
G1 X84.865 Y118.556 E16.74695
G1 X84.901 Y118.958 E16.76447
G1 X84.970 Y119.207 E16.77568
G1 X85.145 Y119.569 E16.79313
G1 X85.806 Y120.671 E16.84890
G1 X86.117 Y120.153 E16.87512
G1 X86.298 Y119.778 E16.89320
G1 X86.363 Y119.545 E16.90369
G1 X86.400 Y119.129 E16.92182
G1 X86.400 Y102.579 E17.64009
G1 X86.335 Y102.484 E17.64509
G1 X86.100 Y102.001 E17.66840
G1 X85.940 Y101.490 E17.69164
G1 X85.857 Y100.960 E17.71492
G1 X85.846 Y100.673 E17.72739
G1 X85.846 Y100.224 E17.74687
G1 X85.886 Y99.689 E17.77016
G1 X86.005 Y99.166 E17.79344
G1 X86.200 Y98.667 E17.81669
G1 X86.468 Y98.202 E17.83998
G1 X86.801 Y97.782 E17.86324
G1 X87.193 Y97.416 E17.88652
G1 X87.635 Y97.113 E17.90978
G1 X88.118 Y96.878 E17.93309
G1 X88.629 Y96.718 E17.95633
G1 X89.159 Y96.635 E17.97961
G1 X89.441 Y96.624 E17.99186
G1 X96.474 Y96.615 E18.29709
G1 X96.689 Y96.467 E18.30842
G1 X97.172 Y96.232 E18.33173
G1 X97.683 Y96.072 E18.35497
G1 X98.213 Y95.989 E18.37825
G1 X98.500 Y95.978 E18.39072
G1 X101.500 Y95.978 E18.52092
G1 X102.035 Y96.018 E18.54420
G1 X102.558 Y96.137 E18.56748
G1 X103.057 Y96.332 E18.59073
G1 X103.522 Y96.600 E18.61403
G1 X103.528 Y96.605 E18.61436
G1 X110.201 Y96.597 E18.90397
G1 X110.483 Y96.608 E18.91622
G1 X110.832 Y96.635 E18.93141
G1 X111.362 Y96.716 E18.95468
G1 X111.874 Y96.875 E18.97795
G1 X112.357 Y97.108 E19.00122
G1 X112.800 Y97.410 E19.02449
G1 X113.193 Y97.775 E19.04777
G1 X113.527 Y98.194 E19.07103
G1 X113.796 Y98.659 E19.09434
G1 X113.992 Y99.158 E19.11761
G1 X114.113 Y99.680 E19.14086
G1 X114.154 Y100.224 E19.16454
G1 X114.154 Y100.673 E19.18403
G1 X114.114 Y101.208 E19.20731
