; G-Code generated by Simplify3D(R) Version 3.0.0
; Oct 12, 2017 at 2:19:30 PM
; Settings Summary
;   processName,Process12
;   applyToModels,main_holder_1x
;   profileName,neil2017 (modified)
;   profileVersion,2016-09-03 23:52:25
;   baseProfile,Default
;   printMaterial,PLA
;   printQuality,Medium
;   printExtruders,
;   extruderName,Neil
;   extruderToolheadNumber,0
;   extruderDiameter,0.4
;   extruderAutoWidth,1
;   extruderWidth,0.48
;   extrusionMultiplier,0.9
;   extruderUseRetract,1
;   extruderRetractionDistance,6.5
;   extruderExtraRestartDistance,0
;   extruderRetractionZLift,0.2
;   extruderRetractionSpeed,4200
;   extruderUseCoasting,0
;   extruderCoastingDistance,0.2
;   extruderUseWipe,0
;   extruderWipeDistance,5
;   primaryExtruder,0
;   layerHeight,0.3
;   topSolidLayers,2
;   bottomSolidLayers,2
;   perimeterOutlines,2
;   printPerimetersInsideOut,1
;   startPointOption,2
;   startPointOriginX,0
;   startPointOriginY,0
;   startPointOriginZ,300
;   sequentialIslands,1
;   spiralVaseMode,0
;   firstLayerHeightPercentage,100
;   firstLayerWidthPercentage,100
;   firstLayerUnderspeed,0.6
;   useRaft,0
;   raftExtruder,0
;   raftLayers,2
;   raftOffset,3
;   raftSeparationDistance,0.14
;   raftInfill,85
;   disableRaftBaseLayers,0
;   useSkirt,1
;   skirtExtruder,0
;   skirtLayers,1
;   skirtOutlines,5
;   skirtOffset,1.6
;   usePrimePillar,0
;   primePillarExtruder,999
;   primePillarWidth,12
;   primePillarLocation,7
;   primePillarSpeedMultiplier,1
;   useOozeShield,0
;   oozeShieldExtruder,999
;   oozeShieldOffset,2
;   oozeShieldOutlines,1
;   oozeShieldSidewallShape,1
;   oozeShieldSidewallAngle,30
;   oozeShieldSpeedMultiplier,1
;   infillExtruder,0
;   internalInfillPattern,Rectilinear
;   externalInfillPattern,Rectilinear
;   infillPercentage,25
;   outlineOverlapPercentage,15
;   infillExtrusionWidthPercentage,110
;   minInfillLength,5
;   infillLayerInterval,1
;   infillAngles,45,-45
;   overlapInfillAngles,0
;   generateSupport,1
;   supportExtruder,0
;   supportInfillPercentage,30
;   supportExtraInflation,0
;   denseSupportLayers,0
;   denseSupportInfillPercentage,70
;   supportLayerInterval,1
;   supportHorizontalPartOffset,0.3
;   supportUpperSeparationLayers,1
;   supportLowerSeparationLayers,1
;   supportType,1
;   supportGridSpacing,1
;   maxOverhangAngle,25
;   supportAngles,0,25,65
;   temperatureName,Extruder 1 Temperature,Heated Bed
;   temperatureNumber,0,0
;   temperatureSetpointCount,1,1
;   temperatureSetpointLayers,1,1
;   temperatureSetpointTemperatures,210,50
;   temperatureStabilizeAtStartup,0,1
;   temperatureHeatedBed,0,1
;   temperatureRelayBetweenLayers,0,0
;   temperatureRelayBetweenLoops,0,0
;   fanLayers,1,2,3,4
;   fanSpeeds,0,30,60,100
;   blipFanToFullPower,0
;   adjustSpeedForCooling,1
;   minSpeedLayerTime,15
;   minCoolingSpeedSlowdown,20
;   increaseFanForCooling,0
;   minFanLayerTime,45
;   maxCoolingFanSpeed,100
;   increaseFanForBridging,0
;   bridgingFanSpeed,100
;   use5D,1
;   relativeEdistances,0
;   allowEaxisZeroing,1
;   independentExtruderAxes,0
;   includeM10123,0
;   stickySupport,1
;   applyToolheadOffsets,0
;   gcodeXoffset,0
;   gcodeYoffset,0
;   gcodeZoffset,0
;   overrideMachineDefinition,1
;   machineTypeOverride,0
;   strokeXoverride,200
;   strokeYoverride,200
;   strokeZoverride,200
;   originOffsetXoverride,0
;   originOffsetYoverride,0
;   originOffsetZoverride,0
;   homeXdirOverride,-1
;   homeYdirOverride,-1
;   homeZdirOverride,-1
;   flipXoverride,1
;   flipYoverride,-1
;   flipZoverride,1
;   toolheadOffsets,0,0|0,0|0,0|0,0|0,0|0,0
;   overrideFirmwareConfiguration,0
;   firmwareTypeOverride,RepRap (Marlin/Repetier/Sprinter)
;   GPXconfigOverride,r2
;   baudRateOverride,115200
;   overridePrinterModels,0
;   printerModelsOverride
;   startingGcode,G92 X0 Y0 Z0; Zero all axis
;   layerChangeGcode,
;   retractionGcode,
;   toolChangeGcode,
;   endingGcode,G91; set to relative positioning,G0 Z5; Move up 5mm,G90; return to absolute positioning,G0 X0 Y0; Return X and Y to origin,M104 S0 ; turn off extruder,M140 S0 ; turn off bed,M84 ; disable motors
;   createX3G,0
;   celebration,0
;   celebrationSong,Random Song
;   createMB5G,0
;   postProcessing,
;   defaultSpeed,2100
;   outlineUnderspeed,0.5
;   solidInfillUnderspeed,1
;   supportUnderspeed,0.9
;   rapidXYspeed,7200
;   rapidZspeed,1002
;   minBridgingArea,50
;   bridgingExtraInflation,0
;   bridgingExtrusionMultiplier,1
;   bridgingSpeedMultiplier,1
;   filamentDiameter,1.76
;   filamentPricePerKg,46
;   filamentDensity,1.25
;   useMinPrintHeight,0
;   minPrintHeight,0
;   useMaxPrintHeight,0
;   maxPrintHeight,0
;   useDiaphragm,0
;   diaphragmLayerInterval,20
;   robustSlicing,1
;   mergeAllIntoSolid,0
;   onlyRetractWhenCrossingOutline,1
;   retractBetweenLayers,1
;   useRetractionMinTravel,0
;   retractionMinTravel,3
;   retractWhileWiping,0
;   onlyWipeOutlines,1
;   avoidCrossingOutline,0
;   maxMovementDetourFactor,3
;   toolChangeRetractionDistance,12
;   toolChangeExtraRestartDistance,-0.5
;   toolChangeRetractionSpeed,600
;   allowThinWallGapFill,1
;   thinWallAllowedOverlapPercentage,10
;   horizontalSizeCompensation,0
G90
M82
M106 S0
M140 S50
M190 S50
M104 S210 T0
G92 X0 Y0 Z0; Zero all axis
G92 E0
G1 E-6.5000 F4200
G1 Z0.500 F1002
; layer 1, Z = 0.3
T0
; tool H0.300 W0.480
; skirt
G1 X86.578 Y32.868 F7200
G1 Z0.300 F1002
G1 E0.0000 F1260
G92 E0
G1 X86.916 Y32.077 E0.0458 F1260
G1 X88.478 Y30.550 E0.1622
G1 X89.276 Y30.230 E0.2079
G1 X112.743 Y30.492 E1.4581
G1 X113.533 Y30.830 E1.5039
G1 X115.060 Y32.392 E1.6203
G1 X115.380 Y33.189 E1.6661
G1 X114.776 Y87.289 E4.5482
G1 X115.102 Y89.496 E4.6670
G1 X115.717 Y90.803 E4.7440
G1 X116.555 Y91.772 E4.8122
G1 X116.577 Y91.788 E4.8137
G1 X116.613 Y91.816 E4.8161
G1 X117.866 Y92.818 E4.9016
G1 X164.446 Y120.409 E7.7855
G1 X164.961 Y121.097 E7.8313
G1 X165.503 Y123.213 E7.9477
G1 X165.381 Y124.064 E7.9935
G1 X153.421 Y144.256 E9.2437
G1 X152.733 Y144.771 E9.2894
G1 X150.617 Y145.313 E9.4058
G1 X149.766 Y145.191 E9.4516
G1 X103.217 Y117.618 E12.3337
G1 X101.142 Y116.797 E12.4526
G1 X99.702 Y116.676 E12.5295
G1 X98.445 Y116.917 E12.5977
G1 X98.420 Y116.928 E12.5992
G1 X98.378 Y116.946 E12.6016
G1 X96.883 Y117.530 E12.6871
G1 X49.699 Y144.073 E15.5711
G1 X48.846 Y144.176 E15.6169
G1 X46.742 Y143.587 E15.7333
G1 X46.066 Y143.056 E15.7790
G1 X34.560 Y122.602 E17.0292
G1 X34.457 Y121.749 E17.0750
G1 X35.046 Y119.645 E17.1914
G1 X35.577 Y118.969 E17.2372
G1 X82.731 Y92.443 E20.1193
G1 X84.479 Y91.057 E20.2381
G1 X85.304 Y89.871 E20.3151
G1 X85.723 Y88.661 E20.3833
G1 X85.726 Y88.633 E20.3848
G1 X85.732 Y88.589 E20.3872
G1 X85.974 Y87.002 E20.4727
G1 X86.578 Y32.868 E23.3566
G1 X87.057 Y32.968 F7200
G92 E0
G1 X87.320 Y32.354 E0.0356 F1260
G1 X88.746 Y30.960 E0.1418
G1 X89.366 Y30.711 E0.1774
G1 X112.642 Y30.971 E1.4174
G1 X113.256 Y31.234 E1.4530
G1 X114.650 Y32.659 E1.5592
G1 X114.899 Y33.280 E1.5949
G1 X114.295 Y87.322 E4.4739
G1 X114.638 Y89.636 E4.5986
G1 X115.311 Y91.067 E4.6828
G1 X116.227 Y92.127 E4.7574
G1 X116.289 Y92.173 E4.7615
G1 X116.317 Y92.194 E4.7634
G1 X117.593 Y93.214 E4.8504
G1 X164.119 Y120.774 E7.7311
G1 X164.520 Y121.308 E7.7667
G1 X165.014 Y123.240 E7.8729
G1 X164.920 Y123.902 E7.9085
G1 X153.056 Y143.929 E9.1485
G1 X152.522 Y144.330 E9.1841
G1 X150.590 Y144.824 E9.2903
G1 X149.929 Y144.730 E9.3259
G1 X103.428 Y117.186 E12.2050
G1 X101.253 Y116.325 E12.3296
G1 X99.677 Y116.192 E12.4139
G1 X98.301 Y116.456 E12.4885
G1 X98.231 Y116.487 E12.4926
G1 X98.198 Y116.500 E12.4945
G1 X96.677 Y117.095 E12.5815
G1 X49.547 Y143.608 E15.4622
G1 X48.883 Y143.688 E15.4978
G1 X46.963 Y143.151 E15.6040
G1 X46.437 Y142.738 E15.6396
G1 X35.025 Y122.450 E16.8796
G1 X34.945 Y121.787 E16.9152
G1 X35.482 Y119.867 E17.0214
G1 X35.895 Y119.341 E17.0570
G1 X82.999 Y92.843 E19.9361
G1 X84.833 Y91.389 E20.0607
G1 X85.735 Y90.091 E20.1449
G1 X86.195 Y88.767 E20.2196
G1 X86.203 Y88.691 E20.2237
G1 X86.208 Y88.656 E20.2256
G1 X86.453 Y87.041 E20.3126
G1 X87.057 Y32.968 E23.1932
G1 X87.536 Y33.069 F7200
G92 E0
G1 X87.724 Y32.630 E0.0254 F1260
G1 X89.013 Y31.370 E0.1215
G1 X89.456 Y31.192 E0.1469
G1 X112.541 Y31.450 E1.3767
G1 X112.980 Y31.638 E1.4022
G1 X114.241 Y32.927 E1.4982
G1 X114.418 Y33.370 E1.5236
G1 X113.815 Y87.355 E4.3996
G1 X114.174 Y89.777 E4.5301
G1 X114.904 Y91.331 E4.6216
G1 X115.902 Y92.485 E4.7028
G1 X115.907 Y92.488 E4.7031
G1 X115.927 Y92.502 E4.7045
G1 X116.001 Y92.557 E4.7094
G1 X116.021 Y92.572 E4.7107
G1 X117.319 Y93.610 E4.7992
G1 X163.792 Y121.138 E7.6766
G1 X164.079 Y121.520 E7.7021
G1 X164.526 Y123.266 E7.7981
G1 X164.458 Y123.739 E7.8235
G1 X152.692 Y143.602 E9.0534
G1 X152.310 Y143.889 E9.0788
G1 X150.564 Y144.336 E9.1748
G1 X150.091 Y144.268 E9.2003
G1 X103.640 Y116.753 E12.0763
G1 X101.364 Y115.853 E12.2067
G1 X99.651 Y115.708 E12.2982
G1 X98.154 Y115.995 E12.3794
G1 X98.149 Y115.998 E12.3797
G1 X98.126 Y116.008 E12.3811
G1 X98.042 Y116.046 E12.3860
G1 X98.019 Y116.055 E12.3873
G1 X96.471 Y116.660 E12.4759
G1 X49.394 Y143.143 E15.3532
G1 X48.921 Y143.200 E15.3787
G1 X47.184 Y142.714 E15.4747
G1 X46.809 Y142.419 E15.5001
G1 X35.490 Y122.298 E16.7300
G1 X35.433 Y121.824 E16.7554
G1 X35.919 Y120.088 E16.8515
G1 X36.214 Y119.712 E16.8769
G1 X83.268 Y93.242 E19.7529
G1 X85.186 Y91.721 E19.8833
G1 X86.167 Y90.311 E19.9748
G1 X86.667 Y88.870 E20.0561
G1 X86.667 Y88.864 E20.0564
G1 X86.670 Y88.839 E20.0577
G1 X86.680 Y88.748 E20.0626
G1 X86.683 Y88.723 E20.0640
G1 X86.933 Y87.080 E20.1525
G1 X87.536 Y33.069 E23.0299
G1 X88.015 Y33.170 F7200
G92 E0
G1 X88.128 Y32.907 E0.0153 F1260
G1 X89.280 Y31.780 E0.1011
G1 X89.546 Y31.673 E0.1164
G1 X112.440 Y31.929 E1.3361
G1 X112.704 Y32.041 E1.3513
G1 X113.831 Y33.194 E1.4372
G1 X113.937 Y33.460 E1.4524
G1 X113.335 Y87.387 E4.3254
G1 X113.709 Y89.917 E4.4616
G1 X114.498 Y91.596 E4.5604
G1 X115.581 Y92.847 E4.6486
G1 X115.635 Y92.884 E4.6521
G1 X115.647 Y92.892 E4.6529
G1 X115.714 Y92.941 E4.6572
G1 X115.726 Y92.950 E4.6580
G1 X117.046 Y94.006 E4.7481
G1 X163.465 Y121.502 E7.6222
G1 X163.637 Y121.731 E7.6374
G1 X164.037 Y123.293 E7.7233
G1 X163.996 Y123.577 E7.7386
G1 X152.328 Y143.276 E8.9582
G1 X152.099 Y143.447 E8.9735
G1 X150.537 Y143.847 E9.0594
G1 X150.254 Y143.807 E9.0746
G1 X103.852 Y116.321 E11.9476
G1 X101.474 Y115.380 E12.0838
G1 X99.626 Y115.224 E12.1826
G1 X98.001 Y115.536 E12.2708
G1 X97.942 Y115.565 E12.2742
G1 X97.928 Y115.571 E12.2750
G1 X97.853 Y115.604 E12.2794
G1 X97.839 Y115.610 E12.2802
G1 X96.265 Y116.226 E12.3703
G1 X49.242 Y142.678 E15.2443
G1 X48.958 Y142.712 E15.2596
G1 X47.406 Y142.278 E15.3455
G1 X47.180 Y142.101 E15.3607
G1 X35.955 Y122.146 E16.5804
G1 X35.921 Y121.862 E16.5957
G1 X36.355 Y120.309 E16.6815
G1 X36.532 Y120.084 E16.6968
G1 X83.536 Y93.642 E19.5697
G1 X85.540 Y92.053 E19.7060
G1 X86.599 Y90.531 E19.8048
G1 X87.142 Y88.967 E19.8929
G1 X87.146 Y88.902 E19.8964
G1 X87.147 Y88.887 E19.8972
G1 X87.156 Y88.805 E19.9016
G1 X87.158 Y88.790 E19.9024
G1 X87.412 Y87.119 E19.9924
G1 X88.015 Y33.170 E22.8665
G1 X88.494 Y33.271 F7200
G92 E0
G1 X88.532 Y33.183 E0.0051 F1260
G1 X89.548 Y32.190 E0.0808
G1 X89.636 Y32.154 E0.0859
G1 X112.339 Y32.408 E1.2954
G1 X112.427 Y32.445 E1.3004
G1 X113.421 Y33.461 E1.3761
G1 X113.456 Y33.550 E1.3812
G1 X112.854 Y87.420 E4.2511
G1 X113.245 Y90.057 E4.3931
G1 X114.092 Y91.860 E4.4992
G1 X115.256 Y93.206 E4.5940
G1 X115.259 Y93.210 E4.5943
G1 X115.364 Y93.279 E4.6010
G1 X115.368 Y93.282 E4.6013
G1 X115.426 Y93.325 E4.6051
G1 X115.430 Y93.328 E4.6054
G1 X116.772 Y94.402 E4.6969
G1 X163.139 Y121.867 E7.5677
G1 X163.196 Y121.943 E7.5728
G1 X163.548 Y123.320 E7.6485
G1 X163.535 Y123.414 E7.6536
G1 X151.963 Y142.949 E8.8631
G1 X151.887 Y143.006 E8.8682
G1 X150.511 Y143.358 E8.9439
G1 X150.416 Y143.345 E8.9490
G1 X104.064 Y115.889 E11.8188
G1 X101.585 Y114.908 E11.9609
G1 X99.600 Y114.740 E12.0670
G1 X97.852 Y115.076 E12.1618
G1 X97.848 Y115.077 E12.1620
G1 X97.735 Y115.132 E12.1687
G1 X97.731 Y115.134 E12.1690
G1 X97.665 Y115.163 E12.1728
G1 X97.660 Y115.165 E12.1731
G1 X96.059 Y115.791 E12.2647
G1 X49.090 Y142.213 E15.1355
G1 X48.995 Y142.224 E15.1405
G1 X47.627 Y141.841 E15.2162
G1 X47.552 Y141.782 E15.2213
G1 X36.420 Y121.994 E16.4308
G1 X36.409 Y121.899 E16.4359
G1 X36.792 Y120.531 E16.5116
G1 X36.851 Y120.456 E16.5167
G1 X83.805 Y94.042 E19.3866
G1 X85.893 Y92.385 E19.5286
G1 X87.031 Y90.750 E19.6347
G1 X87.614 Y89.069 E19.7295
G1 X87.616 Y89.064 E19.7298
G1 X87.625 Y88.939 E19.7364
G1 X87.625 Y88.934 E19.7367
G1 X87.633 Y88.862 E19.7405
G1 X87.633 Y88.857 E19.7408
G1 X87.892 Y87.158 E19.8324
G1 X88.494 Y33.271 E22.7032
G92 E0
G1 E-6.5000 F4200
G1 Z0.500 F1002
; inner perimeter
G1 X91.038 Y34.730 F7200
G1 Z0.300 F1002
G1 E0.0000 F4200
G92 E0
G1 X110.880 Y34.952 E1.0571 F945
G1 X110.292 Y87.594 E3.8616
G1 X110.767 Y90.800 E4.0342
G1 X111.184 Y91.720 E4.0880
G1 X111.927 Y93.270 E4.1796
G1 X113.244 Y94.792 E4.2868
G1 X113.407 Y95.050 E4.3031
G1 X113.882 Y95.369 E4.3335
G1 X115.313 Y96.513 E4.4312
G1 X160.603 Y123.340 E7.2353
G1 X150.490 Y140.413 E8.2924
G1 X105.195 Y113.583 E11.0968
G1 X102.181 Y112.391 E11.2695
G1 X101.176 Y112.292 E11.3233
G1 X99.462 Y112.160 E11.4149
G1 X97.485 Y112.540 E11.5221
G1 X97.180 Y112.553 E11.5384
G1 X96.666 Y112.805 E11.5688
G1 X94.960 Y113.472 E11.6664
G1 X49.082 Y139.280 E14.4706
G1 X39.353 Y121.985 E15.5277
G1 X85.235 Y96.174 E18.3320
G1 X85.691 Y95.816 E18.3629
G1 X87.776 Y94.160 E18.5048
G1 X88.364 Y93.339 E18.5586
G1 X89.335 Y91.920 E18.6501
G1 X89.995 Y90.018 E18.7574
G1 X90.136 Y89.748 E18.7737
G1 X90.174 Y89.177 E18.8041
G1 X90.450 Y87.366 E18.9017
G1 X91.038 Y34.730 E21.7059
; outer perimeter
G1 X90.563 Y34.245 F7200
G92 E0
G1 X111.366 Y34.477 E1.1082 F630
G1 X110.773 Y87.561 E3.9363
G1 X111.232 Y90.663 E4.1033
G1 X111.619 Y91.517 E4.1532
G1 X112.332 Y93.004 E4.2411
G1 X113.630 Y94.505 E4.3468
G1 X113.759 Y94.708 E4.3596
G1 X114.167 Y94.981 E4.3857
G1 X115.587 Y96.117 E4.4826
G1 X161.261 Y123.172 E7.3105
G1 X150.658 Y141.071 E8.4188
G1 X104.983 Y114.015 E11.2468
G1 X102.067 Y112.862 E11.4138
G1 X101.134 Y112.770 E11.4638
G1 X99.489 Y112.644 E11.5516
G1 X97.540 Y113.018 E11.6573
G1 X97.301 Y113.028 E11.6701
G1 X96.860 Y113.244 E11.6963
G1 X95.166 Y113.907 E11.7932
G1 X48.899 Y139.934 E14.6211
G1 X38.699 Y121.802 E15.7293
G1 X84.968 Y95.774 E18.5573
G1 X85.394 Y95.439 E18.5862
G1 X87.425 Y93.826 E18.7244
G1 X87.970 Y93.063 E18.7743
G1 X88.902 Y91.702 E18.8622
G1 X89.553 Y89.827 E18.9679
G1 X89.664 Y89.615 E18.9807
G1 X89.697 Y89.125 E19.0068
G1 X89.970 Y87.327 E19.1037
G1 X90.563 Y34.245 E21.9316
; inner perimeter
G1 X97.581 Y88.726 F7200
G92 E0
G1 X94.982 Y89.768 E0.1492 F945
G1 X92.742 Y91.448 E0.2983
G1 X91.012 Y93.650 E0.4475
G1 X89.912 Y96.225 E0.5967
G1 X89.516 Y98.997 E0.7458
G1 X89.850 Y101.777 E0.8950
G1 X90.892 Y104.376 E1.0442
G1 X92.572 Y106.616 E1.1933
G1 X94.775 Y108.345 E1.3425
G1 X97.349 Y109.446 E1.4916
G1 X100.121 Y109.842 E1.6408
G1 X102.901 Y109.508 E1.7900
G1 X105.500 Y108.465 E1.9391
G1 X107.740 Y106.786 E2.0883
G1 X109.470 Y104.583 E2.2375
G1 X110.570 Y102.008 E2.3866
G1 X110.967 Y99.237 E2.5358
G1 X110.632 Y96.457 E2.6849
G1 X109.590 Y93.858 E2.8341
G1 X107.910 Y91.617 E2.9833
G1 X105.708 Y89.888 E3.1324
G1 X103.133 Y88.788 E3.2816
G1 X100.361 Y88.391 E3.4308
G1 X97.581 Y88.726 E3.5799
; outer perimeter
G1 X97.701 Y89.195 F7200
G92 E0
G1 X95.219 Y90.190 E0.1424 F630
G1 X93.080 Y91.794 E0.2849
G1 X91.429 Y93.897 E0.4273
G1 X90.378 Y96.356 E0.5697
G1 X90.000 Y99.002 E0.7122
