;FLAVOR:RepRap
;TIME:7605
M190 S50.000000
M104 S210.000000
M109 S210.000000
G21 ;metric values
G90 ;absolute positioning
M82 ;set extruder to absolute mode
M107 ;start with the fan off
G92 X0 Y0 Z0 ;Zero X Y and Z axis
G1 Z15.0 F9000 ;move the platform down 15mm
G92 E0 ;zero the extruded length
G1 F200 E3 ;extrude 3mm of feed stock
G92 E0 ;zero the extruded length again
G1 F9000
;Put printing message on LCD screen
M117 Printing...
;Generated with Cura_SteamEngine 2.1.3
;LAYER_COUNT:58
;LAYER:0
M107
G0 F7200.000000 X84.330 Y28.272 Z0.300
G0 X84.171 Y30.120
;TYPE:SKIRT
G1 F1200.000 X84.171 Y29.330 E0.03429
G1 X84.211 Y28.795 E0.05757
G1 X84.330 Y28.272 E0.08085
G1 X84.525 Y27.773 E0.10410
G1 X84.793 Y27.308 E0.12739
G1 X85.126 Y26.888 E0.15066
G1 X85.518 Y26.522 E0.17393
G1 X85.960 Y26.219 E0.19719
G1 X86.443 Y25.984 E0.22050
G1 X86.954 Y25.824 E0.24374
G1 X87.484 Y25.741 E0.26702
G1 X87.771 Y25.730 E0.27949
G1 X87.862 Y25.730 E0.28344
G1 X88.042 Y25.665 E0.29174
G1 X88.568 Y25.559 E0.31503
G1 X89.010 Y25.532 E0.33425
G1 X89.534 Y25.532 E0.35699
G1 X90.069 Y25.572 E0.38027
G1 X90.592 Y25.691 E0.40355
G1 X91.091 Y25.886 E0.42680
G1 X91.438 Y26.086 E0.44419
G1 X110.313 Y26.086 E1.26336
G1 X110.408 Y26.021 E1.26836
G1 X110.891 Y25.786 E1.29167
G1 X111.402 Y25.626 E1.31491
G1 X111.932 Y25.543 E1.33819
G1 X112.219 Y25.532 E1.35066
G1 X112.743 Y25.532 E1.37340
G1 X113.278 Y25.572 E1.39668
G1 X113.801 Y25.691 E1.41996
G1 X113.901 Y25.730 E1.42462
G1 X113.982 Y25.730 E1.42814
G1 X114.517 Y25.770 E1.45142
G1 X115.040 Y25.889 E1.47470
G1 X115.539 Y26.084 E1.49795
G1 X116.004 Y26.352 E1.52124
G1 X116.424 Y26.685 E1.54450
G1 X116.790 Y27.077 E1.56778
G1 X117.093 Y27.519 E1.59104
G1 X117.328 Y28.002 E1.61435
G1 X117.488 Y28.513 E1.63759
G1 X117.571 Y29.043 E1.66087
G1 X117.582 Y29.330 E1.67334
G1 X117.582 Y30.129 E1.70801
G1 X117.686 Y30.461 E1.72311
G1 X117.769 Y30.991 E1.74639
G1 X117.780 Y31.278 E1.75886
G1 X117.780 Y34.093 E1.88103
G1 X117.740 Y34.628 E1.90431
G1 X117.621 Y35.151 E1.92759
G1 X117.426 Y35.650 E1.95084
G1 X117.158 Y36.115 E1.97414
G1 X116.825 Y36.535 E1.99740
G1 X116.433 Y36.901 E2.02068
G1 X116.348 Y36.959 E2.02514
G1 X116.380 Y82.720 E4.01118
G1 X116.598 Y84.219 E4.07692
G1 X116.692 Y84.435 E4.08714
G1 X117.079 Y85.376 E4.13130
G1 X117.092 Y85.392 E4.13219
G1 X117.834 Y86.367 E4.18537
G1 X118.558 Y86.905 E4.22452
G1 X118.982 Y87.234 E4.24781
G1 X158.652 Y110.139 E6.23587
G1 X158.939 Y110.026 E6.24926
G1 X159.462 Y109.905 E6.27256
G1 X159.997 Y109.864 E6.29584
G1 X160.532 Y109.903 E6.31912
G1 X161.055 Y110.020 E6.34238
G1 X161.555 Y110.214 E6.36566
G1 X161.806 Y110.346 E6.37797
G1 X163.727 Y111.455 E6.47423
G1 X164.170 Y111.757 E6.49750
G1 X164.619 Y112.183 E6.52437
G1 X164.642 Y112.209 E6.52587
G1 X165.829 Y112.894 E6.58535
G1 X166.272 Y113.196 E6.60862
G1 X166.665 Y113.560 E6.63187
G1 X167.000 Y113.979 E6.65515
G1 X167.269 Y114.443 E6.67843
G1 X167.466 Y114.942 E6.70171
G1 X167.587 Y115.464 E6.72497
G1 X167.629 Y116.012 E6.74882
G1 X167.629 Y116.406 E6.76592
G1 X167.589 Y116.941 E6.78920
G1 X167.470 Y117.464 E6.81248
G1 X167.275 Y117.963 E6.83573
G1 X167.145 Y118.209 E6.84781
G1 X166.432 Y119.441 E6.90959
G1 X166.129 Y119.884 E6.93288
G1 X165.764 Y120.277 E6.95616
G1 X165.345 Y120.612 E6.97944
G1 X165.005 Y120.808 E6.99647
G1 X155.567 Y137.156 E7.81573
G1 X155.576 Y137.274 E7.82086
G1 X155.538 Y137.809 E7.84414
G1 X155.421 Y138.332 E7.86740
G1 X155.227 Y138.832 E7.89068
G1 X155.093 Y139.087 E7.90318
G1 X154.833 Y139.537 E7.92573
G1 X154.531 Y139.980 E7.94900
G1 X154.166 Y140.373 E7.97228
G1 X154.088 Y140.436 E7.97663
G1 X154.043 Y140.513 E7.98050
G1 X153.741 Y140.956 E8.00377
G1 X153.377 Y141.349 E8.02702
G1 X152.958 Y141.684 E8.05030
G1 X152.494 Y141.953 E8.07358
G1 X151.995 Y142.150 E8.09686
G1 X151.473 Y142.271 E8.12012
G1 X150.925 Y142.313 E8.14397
G1 X150.919 Y142.313 E8.14423
G1 X150.384 Y142.273 E8.16752
G1 X149.861 Y142.154 E8.19079
G1 X149.362 Y141.959 E8.21405
G1 X149.124 Y141.834 E8.22571
G1 X148.425 Y141.432 E8.26071
G1 X148.062 Y141.348 E8.27688
G1 X147.330 Y141.028 E8.31155
G1 X144.895 Y139.622 E8.43358
G1 X144.452 Y139.320 E8.45685
G1 X144.058 Y138.955 E8.48016
G1 X143.723 Y138.536 E8.50344
G1 X143.455 Y138.072 E8.52670
G1 X143.258 Y137.573 E8.54998
G1 X143.137 Y137.051 E8.57324
G1 X143.129 Y136.946 E8.57781
G1 X103.487 Y114.096 E10.56362
G1 X102.080 Y113.535 E10.62936
G1 X101.809 Y113.505 E10.64120
G1 X100.827 Y113.372 E10.68420
G1 X100.796 Y113.377 E10.68557
G1 X99.603 Y113.528 E10.73776
G1 X98.802 Y113.876 E10.77566
G1 X98.279 Y114.088 E10.80015
G1 X58.608 Y136.990 E12.78819
G1 X58.563 Y137.295 E12.80157
G1 X58.406 Y137.808 E12.82485
G1 X58.175 Y138.291 E12.84809
G1 X57.874 Y138.735 E12.87137
G1 X57.510 Y139.130 E12.89468
G1 X57.092 Y139.466 E12.91796
G1 X56.859 Y139.614 E12.92994
G1 X54.401 Y141.040 E13.05327
G1 X53.918 Y141.274 E13.07656
G1 X53.406 Y141.433 E13.09983
G1 X53.308 Y141.448 E13.10413
G1 X52.632 Y141.836 E13.13796
G1 X52.149 Y142.067 E13.16119
G1 X51.636 Y142.224 E13.18448
G1 X50.841 Y142.313 E13.21919
G1 X50.828 Y142.313 E13.21976
G1 X50.293 Y142.273 E13.24304
G1 X49.770 Y142.154 E13.26632
G1 X49.271 Y141.959 E13.28957
G1 X48.806 Y141.691 E13.31287
G1 X48.386 Y141.358 E13.33613
G1 X48.020 Y140.966 E13.35940
G1 X47.711 Y140.513 E13.38320
G1 X47.668 Y140.439 E13.38692
G1 X47.529 Y140.322 E13.39480
G1 X47.173 Y139.921 E13.41807
G1 X46.921 Y139.541 E13.43786
G1 X46.657 Y139.083 E13.46081
G1 X46.425 Y138.600 E13.48406
G1 X46.266 Y138.087 E13.50737
G1 X46.186 Y137.557 E13.53063
G1 X46.186 Y137.158 E13.54795
G1 X36.748 Y120.812 E14.36713
G1 X36.644 Y120.762 E14.37214
G1 X36.199 Y120.461 E14.39545
G1 X35.805 Y120.098 E14.41871
G1 X35.468 Y119.680 E14.44201
G1 X35.315 Y119.437 E14.45447
G1 X34.605 Y118.206 E14.51615
G1 X34.372 Y117.722 E14.53946
G1 X34.214 Y117.210 E14.56271
G1 X34.133 Y116.680 E14.58598
G1 X34.123 Y116.407 E14.59784
G1 X34.123 Y116.011 E14.61503
G1 X34.163 Y115.476 E14.63831
G1 X34.282 Y114.953 E14.66159
G1 X34.477 Y114.454 E14.68484
G1 X34.745 Y113.989 E14.70813
G1 X35.078 Y113.569 E14.73139
G1 X35.470 Y113.203 E14.75467
G1 X35.924 Y112.893 E14.77853
G1 X36.607 Y112.499 E14.81275
G1 X36.846 Y112.239 E14.82808
G1 X37.264 Y111.903 E14.85135
G1 X37.508 Y111.748 E14.86390
G1 X39.945 Y110.341 E14.98603
G1 X40.428 Y110.109 E15.00928
G1 X40.940 Y109.950 E15.03255
G1 X41.471 Y109.869 E15.05586
G1 X42.007 Y109.869 E15.07912
G1 X42.537 Y109.947 E15.10237
G1 X43.050 Y110.104 E15.12566
G1 X43.146 Y110.150 E15.13028
G1 X82.754 Y87.247 E17.11597
G1 X83.953 Y86.302 E17.18222
G1 X84.122 Y86.073 E17.19457
G1 X84.714 Y85.308 E17.23656
G1 X84.729 Y85.267 E17.23845
G1 X85.193 Y84.161 E17.29050
G1 X85.305 Y83.206 E17.33224
G1 X85.372 Y82.727 E17.35323
G1 X85.372 Y36.929 E19.34087
G1 X85.131 Y36.738 E19.35421
G1 X84.765 Y36.346 E19.37749
G1 X84.462 Y35.904 E19.40075
G1 X84.227 Y35.421 E19.42406
G1 X84.067 Y34.910 E19.44730
G1 X83.984 Y34.380 E19.47058
G1 X83.973 Y34.093 E19.48304
G1 X83.973 Y31.278 E19.60522
G1 X84.013 Y30.743 E19.62850
G1 X84.132 Y30.220 E19.65178
G1 X84.171 Y30.120 E19.65644
G0 F7200.00000 X84.571 Y30.189
G1 F1200.000 X84.571 Y29.330 E19.69372
G1 X84.611 Y28.826 E19.71566
G1 X84.730 Y28.335 E19.73759
G1 X84.924 Y27.868 E19.75953
G1 X85.190 Y27.438 E19.78148
G1 X85.520 Y27.055 E19.80342
G1 X85.907 Y26.729 E19.82538
G1 X86.340 Y26.468 E19.84732
G1 X86.808 Y26.278 E19.86924
G1 X87.301 Y26.165 E19.89119
G1 X87.771 Y26.130 E19.91165
G1 X87.906 Y26.130 E19.91751
G1 X88.375 Y25.996 E19.93868
G1 X89.010 Y25.932 E19.96638
G1 X89.534 Y25.932 E19.98912
G1 X90.038 Y25.972 E20.01106
G1 X90.529 Y26.091 E20.03299
G1 X90.996 Y26.285 E20.05493
G1 X91.321 Y26.486 E20.07152
G1 X110.430 Y26.486 E20.90085
G1 X110.788 Y26.270 E20.91900
G1 X111.256 Y26.080 E20.94092
G1 X111.749 Y25.967 E20.96287
G1 X112.219 Y25.932 E20.98333
G1 X112.743 Y25.932 E21.00607
G1 X113.247 Y25.972 E21.02801
G1 X113.738 Y26.091 E21.04994
G1 X113.832 Y26.130 E21.05435
G1 X113.982 Y26.130 E21.06086
G1 X114.486 Y26.170 E21.08281
G1 X114.977 Y26.289 E21.10473
G1 X115.444 Y26.483 E21.12668
G1 X115.874 Y26.749 E21.14862
G1 X116.257 Y27.079 E21.17056
G1 X116.583 Y27.466 E21.19252
G1 X116.844 Y27.899 E21.21447
G1 X117.034 Y28.367 E21.23639
G1 X117.147 Y28.860 E21.25834
G1 X117.182 Y29.330 E21.27879
G1 X117.182 Y30.192 E21.31621
G1 X117.232 Y30.315 E21.32197
G1 X117.345 Y30.808 E21.34392
G1 X117.380 Y31.278 E21.36437
G1 X117.380 Y34.093 E21.48654
G1 X117.340 Y34.597 E21.50849
G1 X117.221 Y35.088 E21.53041
G1 X117.027 Y35.555 E21.55236
G1 X116.761 Y35.985 E21.57430
G1 X116.431 Y36.368 E21.59625
G1 X116.044 Y36.694 E21.61821
G1 X115.948 Y36.752 E21.62307
G1 X115.980 Y82.749 E23.61935
G1 X116.209 Y84.329 E23.68864
G1 X116.322 Y84.587 E23.70087
G1 X116.731 Y85.581 E23.74751
G1 X116.774 Y85.634 E23.75048
G1 X117.550 Y86.654 E23.80610
G1 X118.313 Y87.221 E23.84736
G1 X118.762 Y87.570 E23.87204
G1 X158.624 Y110.585 E25.86970
G1 X158.720 Y110.534 E25.87442
G1 X159.197 Y110.368 E25.89634
G1 X159.695 Y110.279 E25.91830
G1 X160.200 Y110.270 E25.94022
G1 X160.701 Y110.340 E25.96217
G1 X161.184 Y110.489 E25.98411
G1 X161.606 Y110.693 E26.00445
G1 X163.527 Y111.802 E26.10072
G1 X163.943 Y112.088 E26.12263
G1 X164.320 Y112.449 E26.14528
G1 X164.386 Y112.524 E26.14962
G1 X165.629 Y113.241 E26.21190
G1 X166.045 Y113.527 E26.23381
G1 X166.411 Y113.876 E26.25575
G1 X166.718 Y114.277 E26.27767
G1 X166.958 Y114.723 E26.29965
G1 X167.124 Y115.200 E26.32157
G1 X167.214 Y115.698 E26.34354
G1 X167.229 Y116.012 E26.35718
G1 X167.229 Y116.406 E26.37428
G1 X167.189 Y116.910 E26.39622
G1 X167.070 Y117.401 E26.41815
G1 X166.799 Y118.009 E26.44704
G1 X166.086 Y119.241 E26.50882
G1 X165.799 Y119.657 E26.53075
G1 X165.450 Y120.023 E26.55270
G1 X165.047 Y120.329 E26.57466
G1 X164.717 Y120.506 E26.59091
G1 X155.162 Y137.055 E27.42026
G1 X155.170 Y137.478 E27.43862
G1 X155.100 Y137.978 E27.46053
G1 X154.952 Y138.462 E27.48250
G1 X154.747 Y138.887 E27.50298
G1 X154.487 Y139.337 E27.52553
G1 X154.200 Y139.753 E27.54747
G1 X153.851 Y140.119 E27.56942
G1 X153.776 Y140.176 E27.57350
G1 X153.697 Y140.313 E27.58037
G1 X153.410 Y140.729 E27.60230
G1 X153.061 Y141.095 E27.62425
G1 X152.660 Y141.402 E27.64617
G1 X152.214 Y141.642 E27.66815
G1 X151.737 Y141.808 E27.69007
G1 X151.239 Y141.898 E27.71203
G1 X150.925 Y141.913 E27.72568
G1 X150.919 Y141.913 E27.72594
G1 X150.415 Y141.873 E27.74788
G1 X149.924 Y141.754 E27.76981
G1 X149.324 Y141.487 E27.79831
G1 X148.567 Y141.052 E27.83620
G1 X148.418 Y141.030 E27.84274
G1 X147.936 Y140.879 E27.86466
G1 X147.530 Y140.681 E27.88426
G1 X145.095 Y139.275 E28.00629
G1 X144.678 Y138.989 E28.02824
G1 X144.312 Y138.640 E28.05019
G1 X144.006 Y138.238 E28.07211
G1 X143.766 Y137.793 E28.09406
G1 X143.600 Y137.315 E28.11602
G1 X143.510 Y136.818 E28.13794
G1 X143.508 Y136.703 E28.14293
G1 X103.669 Y113.739 E30.13862
G1 X102.178 Y113.144 E30.20830
G1 X101.862 Y113.109 E30.22209
G1 X100.825 Y112.968 E30.26751
G1 X100.746 Y112.981 E30.27099
G1 X99.495 Y113.140 E30.32572
G1 X98.652 Y113.505 E30.36559
G1 X98.101 Y113.728 E30.39139
G1 X58.236 Y136.742 E32.38914
G1 X58.233 Y136.850 E32.39383
G1 X58.138 Y137.347 E32.41579
G1 X57.966 Y137.823 E32.43776
G1 X57.721 Y138.265 E32.45969
G1 X57.410 Y138.663 E32.48161
G1 X57.040 Y139.008 E32.50357
G1 X56.658 Y139.268 E32.52362
G1 X54.200 Y140.694 E32.64695
G1 X53.744 Y140.912 E32.66889
G1 X53.259 Y141.056 E32.69085
G1 X53.167 Y141.068 E32.69487
G1 X52.433 Y141.489 E32.73160
G1 X51.976 Y141.705 E32.75353
G1 X51.491 Y141.846 E32.77545
G1 X50.841 Y141.913 E32.80381
G1 X50.828 Y141.913 E32.80438
G1 X50.324 Y141.873 E32.82632
G1 X49.833 Y141.754 E32.84825
G1 X49.366 Y141.560 E32.87019
G1 X48.936 Y141.294 E32.89214
G1 X48.553 Y140.964 E32.91408
G1 X48.227 Y140.577 E32.93604
G1 X48.057 Y140.313 E32.94967
G1 X47.991 Y140.199 E32.95539
G1 X47.648 Y139.868 E32.97607
G1 X47.268 Y139.341 E33.00427
G1 X47.004 Y138.883 E33.02721
G1 X46.787 Y138.426 E33.04917
G1 X46.644 Y137.941 E33.07111
G1 X46.580 Y137.440 E33.09304
G1 X46.591 Y137.059 E33.10958
G1 X37.037 Y120.512 E33.93883
G1 X36.670 Y120.308 E33.95705
G1 X36.271 Y119.997 E33.97901
G1 X35.927 Y119.628 E34.00090
G1 X35.661 Y119.237 E34.02143
G1 X34.951 Y118.006 E34.08310
G1 X34.734 Y117.549 E34.10506
G1 X34.591 Y117.064 E34.12700
G1 X34.523 Y116.407 E34.15567
G1 X34.523 Y116.011 E34.17286
G1 X34.563 Y115.507 E34.19480
G1 X34.682 Y115.016 E34.21672
G1 X34.876 Y114.549 E34.23867
G1 X35.142 Y114.119 E34.26062
G1 X35.472 Y113.736 E34.28256
G1 X35.859 Y113.410 E34.30452
G1 X36.124 Y113.239 E34.31821
G1 X36.865 Y112.812 E34.35532
G1 X36.947 Y112.706 E34.36114
G1 X37.317 Y112.361 E34.38309
G1 X37.708 Y112.095 E34.40362
G1 X40.145 Y110.688 E34.52575
G1 X40.601 Y110.470 E34.54768
G1 X41.086 Y110.328 E34.56962
G1 X41.588 Y110.263 E34.59158
G1 X42.093 Y110.278 E34.61351
G1 X42.590 Y110.373 E34.63547
G1 X43.065 Y110.544 E34.65738
G1 X43.167 Y110.600 E34.66243
G1 X82.977 Y87.581 E36.65823
G1 X84.243 Y86.583 E36.72819
G1 X84.438 Y86.318 E36.74247
G1 X85.067 Y85.505 E36.78709
G1 X85.098 Y85.422 E36.79093
G1 X85.584 Y84.266 E36.84535
G1 X85.701 Y83.262 E36.88922
G1 X85.772 Y82.755 E36.91144
G1 X85.772 Y36.730 E38.90893
G1 X85.681 Y36.674 E38.91357
G1 X85.298 Y36.344 E38.93551
G1 X84.972 Y35.957 E38.95747
G1 X84.711 Y35.524 E38.97942
G1 X84.521 Y35.056 E39.00134
G1 X84.408 Y34.563 E39.02329
G1 X84.373 Y34.093 E39.04374
G1 X84.373 Y31.278 E39.16591
G1 X84.413 Y30.774 E39.18786
G1 X84.532 Y30.283 E39.20978
G1 X84.571 Y30.189 E39.21420
G0 F7200.00000 X87.971 Y31.478
;TYPE:SUPPORT
G1 F1200.000 X87.971 Y29.530 E39.29874
G1 X89.169 Y29.530 E39.35074
G1 X89.190 Y29.332 E39.35938
G1 X89.334 Y29.332 E39.36563
G1 X89.334 Y82.932 E41.69188
G1 X89.085 Y84.704 E41.76954
G1 X89.067 Y85.000 E41.78241
G1 X89.031 Y85.073 E41.78594
G1 X88.418 Y86.897 E41.86945
G1 X87.604 Y88.117 E41.93310
G1 X87.156 Y88.756 E41.96697
G1 X84.922 Y90.571 E42.09190
G1 X38.506 Y117.365 E44.41790
G1 X37.923 Y116.354 E44.46855
G1 X37.923 Y116.126 E44.47845
G1 X39.681 Y115.112 E44.56653
G1 X39.581 Y114.939 E44.57520
G1 X41.672 Y113.732 E44.67998
G1 X42.392 Y114.975 E44.74233
G1 X84.891 Y90.402 E46.87291
G1 X86.709 Y88.968 E46.97341
G1 X87.128 Y88.397 E47.00415
G1 X88.067 Y87.183 E47.07075
G1 X88.232 Y86.738 E47.09135
G1 X88.905 Y85.136 E47.16677
G1 X89.068 Y83.733 E47.22807
G1 X89.172 Y82.990 E47.26063
G1 X89.172 Y33.893 E49.39144
G1 X87.773 Y33.893 E49.45216
G1 X87.773 Y31.478 E49.55697
G1 X87.971 Y31.478 E49.56557
G0 F7200.00000 X87.933 Y31.992
G1 F1200.000 X89.174 Y31.992 E49.61942
G1 F4200.00000 E43.21942
G1 Z0.500
G0 F7200.000 X112.546 Y33.893 Z0.500
G1 Z0.300
G1 F4200.000 E49.61942
G1 F1200.00000 X112.580 Y82.998 E51.75059
G1 X112.910 Y85.270 E51.85023
G1 X113.178 Y85.880 E51.87915
G1 X113.778 Y87.340 E51.94765
G1 X114.072 Y87.699 E51.96779
G1 X115.135 Y89.096 E52.04398
G1 X116.227 Y89.906 E52.10299
G1 X116.860 Y90.397 E52.13775
G1 X159.379 Y114.947 E54.26859
G1 X160.079 Y113.737 E54.32926
G1 X161.797 Y114.729 E54.41536
G1 X162.210 Y115.193 E54.44232
G1 X163.829 Y116.127 E54.52344
G1 X163.829 Y116.353 E54.53325
G1 X163.243 Y117.365 E54.58400
G1 X116.832 Y90.570 E56.90984
G1 X115.416 Y89.465 E56.98779
G1 X115.169 Y89.303 E57.00061
G1 X115.123 Y89.233 E57.00425
G1 X113.854 Y87.798 E57.08739
G1 X113.191 Y86.456 E57.15235
G1 X112.873 Y85.773 E57.18505
G1 X112.418 Y82.922 E57.31035
G1 X112.419 Y29.332 E59.63616
G1 X112.543 Y29.332 E59.64154
G1 X112.543 Y29.530 E59.65014
G1 X113.782 Y29.530 E59.70391
G1 X113.782 Y31.478 E59.78845
G1 X113.980 Y31.478 E59.79705
