;FLAVOR:RepRap
;TIME:7222
M190 S50.000000
M104 S210.000000
M109 S210.000000
G21 ;metric values
G90 ;absolute positioning
M82 ;set extruder to absolute mode
M107 ;start with the fan off
G92 X0 Y0 Z0 ;Zero X Y and Z axis
G1 Z15.0 F9000 ;move the platform down 15mm
G92 E0 ;zero the extruded length
G1 F200 E3 ;extrude 3mm of feed stock
G92 E0 ;zero the extruded length again
G1 F9000
;Put printing message on LCD screen
M117 Printing...
;Generated with Cura_SteamEngine 2.1.3
;LAYER_COUNT:67
;LAYER:0
M107
G1 F4200.000000 E-6.40000
G1 Z20.200
G0 F7200.000 X35.438 Y117.907 Z0.500
;TYPE:SKIRT
G1 Z0.300
G1 F4200.000 E0.00000
G1 F1200.00000 X154.009 Y33.213 E6.32395
G1 X154.398 Y32.970 E6.34386
G1 X154.847 Y32.729 E6.36597
G1 X155.338 Y32.511 E6.38929
G1 X155.702 Y32.402 E6.40578
G1 X156.193 Y32.283 E6.42770
G1 X156.722 Y32.196 E6.45097
G1 X157.097 Y32.182 E6.46726
G1 X157.607 Y32.190 E6.48939
G1 X158.142 Y32.239 E6.51271
G1 X158.519 Y32.322 E6.52946
G1 X159.010 Y32.459 E6.55159
G1 X159.514 Y32.642 E6.57486
G1 X159.858 Y32.818 E6.59163
G1 X160.298 Y33.075 E6.61374
G1 X160.739 Y33.380 E6.63701
G1 X161.024 Y33.635 E6.65361
G1 X161.385 Y33.995 E6.67574
G1 X161.736 Y34.401 E6.69903
G1 X161.944 Y34.715 E6.71538
G1 X162.203 Y35.154 E6.73750
G1 X162.440 Y35.635 E6.76077
G1 X162.567 Y36.007 E6.77783
G1 X162.705 Y36.497 E6.79992
G1 X162.812 Y37.023 E6.82322
G1 X162.839 Y37.402 E6.83971
G1 X162.849 Y37.912 E6.86185
G1 X162.820 Y38.448 E6.88515
G1 X162.754 Y38.810 E6.90111
G1 X162.637 Y39.306 E6.92323
G1 X162.475 Y39.817 E6.94650
G1 X162.308 Y40.176 E6.96368
G1 X162.068 Y40.625 E6.98578
G1 X161.822 Y41.020 E7.00597
G1 X77.131 Y159.588 E13.32974
G1 X76.917 Y159.860 E13.34476
G1 X76.285 Y160.586 E13.38654
G1 X75.781 Y161.063 E13.41665
G1 X75.028 Y161.649 E13.45806
G1 X74.446 Y162.018 E13.48797
G1 X73.589 Y162.453 E13.52968
G1 X73.272 Y162.596 E13.54477
G1 X68.201 Y164.580 E13.78110
G1 X67.753 Y164.722 E13.80150
G1 X67.130 Y164.876 E13.82935
G1 X66.601 Y164.965 E13.85263
G1 X66.226 Y164.981 E13.86892
G1 X65.590 Y164.974 E13.89653
G1 X65.056 Y164.928 E13.91979
G1 X64.671 Y164.844 E13.93689
G1 X64.052 Y164.673 E13.96476
G1 X63.548 Y164.492 E13.98800
G1 X63.202 Y164.315 E14.00487
G1 X62.648 Y163.993 E14.03268
G1 X62.206 Y163.690 E14.05594
G1 X61.914 Y163.429 E14.07293
G1 X61.460 Y162.976 E14.10077
G1 X61.110 Y162.570 E14.12403
G1 X60.899 Y162.252 E14.14060
G1 X60.574 Y161.699 E14.16843
G1 X60.338 Y161.218 E14.19169
G1 X60.210 Y160.840 E14.20901
G1 X60.038 Y160.222 E14.23685
G1 X59.933 Y159.696 E14.26013
G1 X59.906 Y159.313 E14.27679
G1 X59.896 Y158.672 E14.30461
G1 X59.928 Y158.137 E14.32787
G1 X59.999 Y157.763 E14.34439
G1 X60.151 Y157.140 E14.37223
G1 X60.292 Y156.691 E14.39265
G1 X60.424 Y156.350 E14.40852
G1 X60.557 Y155.845 E14.43119
G1 X60.565 Y155.530 E14.44486
G1 X60.501 Y155.218 E14.45868
G1 X60.366 Y154.929 E14.47253
G1 X60.044 Y154.521 E14.49508
G1 X40.516 Y134.992 E15.69369
G1 X40.106 Y134.668 E15.71637
G1 X39.823 Y134.535 E15.72994
G1 X39.507 Y134.468 E15.74396
G1 X39.191 Y134.476 E15.75768
G1 X38.681 Y134.608 E15.78054
G1 X38.359 Y134.734 E15.79555
G1 X37.918 Y134.874 E15.81563
G1 X37.291 Y135.030 E15.84367
G1 X36.763 Y135.121 E15.86692
G1 X36.382 Y135.137 E15.88347
G1 X35.746 Y135.130 E15.91108
G1 X35.212 Y135.084 E15.93434
G1 X34.827 Y135.000 E15.95144
G1 X34.208 Y134.829 E15.97931
G1 X33.704 Y134.648 E16.00255
G1 X33.358 Y134.471 E16.01942
G1 X32.804 Y134.149 E16.04723
G1 X32.362 Y133.846 E16.07049
G1 X32.070 Y133.585 E16.08748
G1 X31.616 Y133.132 E16.11532
G1 X31.266 Y132.726 E16.13858
G1 X31.055 Y132.408 E16.15515
G1 X30.730 Y131.855 E16.18298
G1 X30.494 Y131.374 E16.20624
G1 X30.366 Y130.996 E16.22356
G1 X30.194 Y130.378 E16.25140
G1 X30.089 Y129.852 E16.27468
G1 X30.062 Y129.469 E16.29134
G1 X30.052 Y128.828 E16.31916
G1 X30.084 Y128.293 E16.34242
G1 X30.155 Y127.919 E16.35895
G1 X30.307 Y127.296 E16.38678
G1 X30.451 Y126.839 E16.40757
G1 X32.432 Y121.769 E16.64381
G1 X32.574 Y121.451 E16.65893
G1 X33.009 Y120.593 E16.70068
G1 X33.380 Y120.008 E16.73074
G1 X33.966 Y119.256 E16.77212
G1 X34.436 Y118.759 E16.80180
G1 X35.160 Y118.126 E16.84354
G1 X35.438 Y117.907 E16.85890
G0 F7200.00000 X35.670 Y118.232
G1 F1200.000 X154.241 Y33.538 E23.18285
G1 X154.588 Y33.322 E23.20059
G1 X155.037 Y33.081 E23.22270
G1 X155.500 Y32.878 E23.24465
G1 X155.796 Y32.791 E23.25804
G1 X156.287 Y32.672 E23.27996
G1 X156.786 Y32.592 E23.30190
G1 X157.091 Y32.582 E23.31514
G1 X157.601 Y32.590 E23.33728
G1 X158.104 Y32.638 E23.35921
G1 X158.411 Y32.708 E23.37287
G1 X158.902 Y32.845 E23.39499
G1 X159.377 Y33.019 E23.41695
G1 X159.656 Y33.164 E23.43060
G1 X160.096 Y33.421 E23.45271
G1 X160.511 Y33.709 E23.47463
G1 X160.742 Y33.918 E23.48815
G1 X161.103 Y34.278 E23.51028
G1 X161.431 Y34.662 E23.53220
G1 X161.599 Y34.918 E23.54549
G1 X161.858 Y35.357 E23.56761
G1 X162.080 Y35.811 E23.58954
G1 X162.182 Y36.116 E23.60350
G1 X162.320 Y36.606 E23.62559
G1 X162.418 Y37.101 E23.64749
G1 X162.439 Y37.410 E23.66093
G1 X162.449 Y37.920 E23.68307
G1 X162.419 Y38.425 E23.70503
G1 X162.365 Y38.718 E23.71796
G1 X162.248 Y39.214 E23.74008
G1 X162.093 Y39.695 E23.76201
G1 X161.955 Y39.987 E23.77603
G1 X161.715 Y40.436 E23.79812
G1 X161.497 Y40.788 E23.81609
G1 X76.806 Y159.356 E30.13986
G1 X76.616 Y159.597 E30.15318
G1 X75.984 Y160.323 E30.19495
G1 X75.535 Y160.747 E30.22175
G1 X74.782 Y161.333 E30.26316
G1 X74.265 Y161.661 E30.28974
G1 X73.408 Y162.096 E30.33145
G1 X73.126 Y162.223 E30.34487
G1 X68.055 Y164.207 E30.58120
G1 X67.657 Y164.333 E30.59932
G1 X67.034 Y164.487 E30.62717
G1 X66.535 Y164.570 E30.64912
G1 X66.231 Y164.581 E30.66232
G1 X65.595 Y164.574 E30.68993
G1 X65.091 Y164.528 E30.71189
G1 X64.778 Y164.458 E30.72581
G1 X64.159 Y164.287 E30.75368
G1 X63.684 Y164.115 E30.77561
G1 X63.403 Y163.970 E30.78933
G1 X62.849 Y163.648 E30.81714
G1 X62.433 Y163.360 E30.83910
G1 X62.197 Y163.146 E30.85293
G1 X61.743 Y162.693 E30.88076
G1 X61.414 Y162.309 E30.90271
G1 X61.244 Y162.049 E30.91619
G1 X60.919 Y161.496 E30.94403
G1 X60.698 Y161.042 E30.96594
G1 X60.595 Y160.733 E30.98008
G1 X60.423 Y160.115 E31.00792
G1 X60.327 Y159.619 E31.02985
G1 X60.306 Y159.307 E31.04342
G1 X60.296 Y158.666 E31.07124
G1 X60.328 Y158.161 E31.09320
G1 X60.387 Y157.858 E31.10660
G1 X60.539 Y157.235 E31.13443
G1 X60.665 Y156.836 E31.15259
G1 X60.803 Y156.481 E31.16912
G1 X60.956 Y155.898 E31.19528
G1 X60.966 Y155.497 E31.21269
G1 X60.881 Y155.087 E31.23086
G1 X60.709 Y154.719 E31.24849
G1 X60.343 Y154.254 E31.27417
G1 X40.783 Y134.693 E32.47474
G1 X40.318 Y134.325 E32.50047
G1 X39.952 Y134.154 E32.51801
G1 X39.543 Y134.067 E32.53615
G1 X39.136 Y134.077 E32.55382
G1 X38.556 Y134.228 E32.57984
G1 X38.214 Y134.361 E32.59576
G1 X37.822 Y134.486 E32.61362
G1 X37.195 Y134.642 E32.64166
G1 X36.696 Y134.725 E32.66361
G1 X36.387 Y134.737 E32.67703
G1 X35.751 Y134.730 E32.70464
G1 X35.247 Y134.684 E32.72660
G1 X34.934 Y134.614 E32.74052
G1 X34.315 Y134.443 E32.76839
G1 X33.840 Y134.271 E32.79032
G1 X33.559 Y134.126 E32.80404
G1 X33.005 Y133.804 E32.83185
G1 X32.589 Y133.516 E32.85381
G1 X32.353 Y133.302 E32.86764
G1 X31.899 Y132.849 E32.89547
G1 X31.570 Y132.465 E32.91742
G1 X31.400 Y132.205 E32.93090
G1 X31.075 Y131.652 E32.95874
G1 X30.854 Y131.198 E32.98065
G1 X30.751 Y130.889 E32.99479
G1 X30.579 Y130.271 E33.02263
G1 X30.483 Y129.775 E33.04456
G1 X30.462 Y129.463 E33.05813
G1 X30.452 Y128.822 E33.08595
G1 X30.484 Y128.317 E33.10791
G1 X30.543 Y128.014 E33.12131
G1 X30.695 Y127.391 E33.14914
G1 X30.823 Y126.984 E33.16766
G1 X32.804 Y121.914 E33.40390
G1 X32.931 Y121.632 E33.41732
G1 X33.366 Y120.774 E33.45907
G1 X33.696 Y120.254 E33.48580
G1 X34.282 Y119.502 E33.52717
G1 X34.700 Y119.060 E33.55358
G1 X35.424 Y118.427 E33.59531
G1 X35.670 Y118.232 E33.60894
G1 F4200.00000 E27.20894
G1 Z0.500
G0 F7200.000 X65.380 Y108.094 Z0.500
;TYPE:SUPPORT
G1 Z0.300
G1 F4200.000 E33.60894
G1 F1200.00000 X65.701 Y108.054 E33.62298
G1 X66.487 Y107.747 E33.65960
G1 X67.172 Y107.257 E33.69615
G1 X67.718 Y106.614 E33.73276
G1 X68.087 Y105.856 E33.76935
G1 X68.209 Y105.273 E33.79520
G1 X89.762 Y126.822 E35.11794
G1 X89.176 Y126.945 E35.14392
G1 X88.420 Y127.315 E35.18045
G1 X87.775 Y127.859 E35.21707
G1 X87.286 Y128.547 E35.25371
G1 X86.979 Y129.332 E35.29029
G1 X86.939 Y129.651 E35.30424
G1 X65.380 Y108.094 E36.62741
G1 F4200.00000 E30.22741
G1 Z0.500
G0 F7200.000 X67.885 Y106.640 Z0.500
G1 Z0.300
G1 F4200.000 E36.62741
G1 F1200.00000 X69.349 Y106.640 E36.69095
G0 F7200.00000 X69.316 Y106.608
G1 F1200.000 X69.316 Y111.801 E36.91632
G0 F7200.00000 X69.486 Y111.972
G1 F1200.000 X74.682 Y111.972 E37.14183
G0 F7200.00000 X74.648 Y111.939
G1 F1200.000 X74.648 Y117.133 E37.36725
G0 F7200.00000 X74.818 Y117.304
G1 F1200.000 X80.015 Y117.304 E37.59280
G0 F7200.00000 X79.980 Y117.270
G1 F1200.000 X79.980 Y122.464 E37.81822
G0 F7200.00000 X80.150 Y122.636
G1 F1200.000 X85.347 Y122.636 E38.04377
G0 F7200.00000 X85.312 Y122.601
G1 F1200.000 X85.312 Y127.796 E38.26924
G0 F7200.00000 X85.482 Y127.968
G1 F1200.000 X87.499 Y127.968 E38.35677
G1 F4200.00000 E31.95677
G1 Z0.500
G0 F7200.000 X104.656 Y104.581 Z0.500
G1 Z0.300
G1 F4200.000 E38.35677
G1 F1200.00000 X104.617 Y104.895 E38.37051
G1 X90.135 Y90.416 E39.25928
G1 X90.450 Y90.377 E39.27305
G1 X91.236 Y90.070 E39.30968
G1 X91.922 Y89.581 E39.34624
G1 X92.467 Y88.936 E39.38289
G1 X92.836 Y88.180 E39.41940
G1 X92.958 Y87.600 E39.44512
G1 X107.433 Y102.075 E40.33355
G1 X106.853 Y102.197 E40.35928
G1 X106.095 Y102.566 E40.39586
G1 X105.452 Y103.112 E40.43247
G1 X104.963 Y103.797 E40.46900
G1 X104.656 Y104.581 E40.50554
G1 F4200.00000 E34.10554
G1 Z0.500
G0 F7200.000 X106.640 Y102.123 Z0.500
G1 Z0.300
G1 F4200.000 E40.50554
G1 F1200.00000 X106.640 Y101.511 E40.53210
G0 F7200.00000 X106.438 Y101.308
G1 F1200.000 X101.257 Y101.308 E40.75696
G0 F7200.00000 X101.308 Y101.358
G1 F1200.000 X101.308 Y96.179 E40.98173
G0 F7200.00000 X101.106 Y95.976
G1 F1200.000 X95.923 Y95.976 E41.20667
G0 F7200.00000 X95.976 Y96.028
G1 F1200.000 X95.976 Y90.847 E41.43153
G0 F7200.00000 X95.774 Y90.644
G1 F1200.000 X90.590 Y90.644 E41.65651
G0 F7200.00000 X90.644 Y90.697
G1 F1200.000 X90.644 Y90.472 E41.66628
G1 F4200.00000 E35.26628
G1 Z0.500
G0 F7200.000 X115.199 Y72.699 Z0.500
G1 Z0.300
G1 F4200.000 E41.66628
G1 F1200.00000 X115.982 Y72.392 E41.70278
G1 X116.669 Y71.903 E41.73938
G1 X117.214 Y71.260 E41.77596
G1 X117.584 Y70.502 E41.81257
G1 X117.706 Y69.920 E41.83837
G1 X125.113 Y77.327 E42.29300
G1 X124.531 Y77.449 E42.31880
G1 X123.773 Y77.818 E42.35539
G1 X123.130 Y78.364 E42.39200
G1 X122.640 Y79.049 E42.42855
G1 X122.333 Y79.836 E42.46522
G1 X122.293 Y80.156 E42.47921
G1 X114.878 Y72.739 E42.93438
G1 X115.199 Y72.699 E42.94842
G1 F4200.00000 E36.54842
G1 Z0.500
G0 F7200.000 X117.304 Y71.400 Z0.500
G1 Z0.300
G1 F4200.000 E42.94842
G1 F1200.00000 X117.304 Y74.937 E43.10193
G0 F7200.00000 X117.014 Y74.648
G1 F1200.000 X122.207 Y74.648 E43.32731
G0 F7200.00000 X122.636 Y75.078
G1 F1200.000 X122.636 Y78.780 E43.48797
G1 F4200.00000 E37.08797
G1 Z0.500
G0 F7200.000 X140.011 Y55.085 Z0.500
G1 Z0.300
G1 F4200.000 E43.48797
G1 F1200.00000 X139.971 Y55.408 E43.50210
G1 X139.625 Y55.062 E43.52334
G1 X139.947 Y55.022 E43.53742
G1 X140.052 Y54.981 E43.54231
G1 X140.011 Y55.085 E43.54716
G1 F4200.00000 E37.14716
G1 Z0.500
G0 F7200.000 X142.365 Y52.667 Z0.500
G1 Z0.300
G1 F4200.000 E43.54716
G1 F1200.00000 X142.454 Y52.242 E43.56601
G1 X142.791 Y52.578 E43.58666
G1 X142.365 Y52.667 E43.60555
G1 F4200.00000 E37.20555
G1 Z0.500
G0 F7200.000 X65.207 Y104.555 Z0.500
;TYPE:WALL-INNER
G1 Z0.300
G1 F4200.000 E43.60555
G1 F1200.00000 X65.247 Y104.652 E43.61010
G1 X65.261 Y104.751 E43.61444
G1 X65.247 Y104.850 E43.61878
G1 X65.207 Y104.947 E43.62333
G1 X65.143 Y105.029 E43.62785
G1 X65.061 Y105.093 E43.63236
G1 X64.964 Y105.133 E43.63692
G1 X64.865 Y105.147 E43.64126
G1 X64.766 Y105.133 E43.64560
G1 X64.669 Y105.093 E43.65015
G1 X64.587 Y105.030 E43.65464
G1 X64.526 Y104.949 E43.65904
G1 X64.482 Y104.848 E43.66382
G1 X64.470 Y104.750 E43.66810
G1 X64.483 Y104.652 E43.67240
G1 X64.523 Y104.555 E43.67695
G1 X64.587 Y104.473 E43.68146
G1 X64.669 Y104.409 E43.68598
G1 X64.766 Y104.369 E43.69053
G1 X64.865 Y104.355 E43.69487
G1 X64.965 Y104.369 E43.69925
G1 X65.062 Y104.409 E43.70381
G1 X65.141 Y104.469 E43.70811
G1 X65.207 Y104.555 E43.71282
G0 F7200.00000 X65.429 Y104.187
;TYPE:WALL-OUTER
G1 F1200.000 X65.556 Y104.352 E43.72185
G1 X65.637 Y104.547 E43.73102
G1 X65.664 Y104.751 E43.73995
G1 X65.637 Y104.955 E43.74888
G1 X65.556 Y105.150 E43.75804
G1 X65.429 Y105.315 E43.76708
G1 X65.264 Y105.442 E43.77612
G1 X65.069 Y105.523 E43.78528
G1 X64.865 Y105.550 E43.79421
G1 X64.661 Y105.523 E43.80314
G1 X64.466 Y105.442 E43.81231
G1 X64.301 Y105.315 E43.82134
G1 X64.177 Y105.153 E43.83020
G1 X64.093 Y104.956 E43.83949
G1 X64.066 Y104.751 E43.84847
G1 X64.093 Y104.547 E43.85740
G1 X64.174 Y104.352 E43.86656
G1 X64.301 Y104.187 E43.87560
G1 X64.466 Y104.060 E43.88463
G1 X64.661 Y103.979 E43.89380
G1 X64.865 Y103.952 E43.90273
G1 X65.070 Y103.979 E43.91170
G1 X65.263 Y104.059 E43.92077
G1 X65.429 Y104.187 E43.92987
G0 F7200.00000 X64.875 Y104.746
G1 F4200.000 E37.52987
G1 Z0.500
G0 F7200.000 X89.273 Y87.273 Z0.500
;TYPE:WALL-INNER
G1 Z0.300
G1 F4200.000 E43.92987
G1 F1200.00000 X89.229 Y87.171 E43.93469
G1 X89.218 Y87.073 E43.93897
G1 X89.231 Y86.974 E43.94330
G1 X89.272 Y86.876 E43.94791
G1 X89.334 Y86.796 E43.95231
G1 X89.414 Y86.734 E43.95670
G1 X89.513 Y86.693 E43.96135
G1 X89.613 Y86.679 E43.96573
G1 X89.713 Y86.693 E43.97011
G1 X89.812 Y86.734 E43.97476
G1 X89.892 Y86.796 E43.97916
G1 X89.954 Y86.876 E43.98355
G1 X89.995 Y86.974 E43.98816
G1 X90.009 Y87.074 E43.99254
G1 X89.995 Y87.175 E43.99697
G1 X89.955 Y87.272 E44.00152
G1 X89.895 Y87.351 E44.00583
G1 X89.809 Y87.417 E44.01053
G1 X89.712 Y87.457 E44.01509
G1 X89.618 Y87.470 E44.01920
G1 X89.509 Y87.455 E44.02398
G1 X89.415 Y87.415 E44.02841
G1 X89.337 Y87.357 E44.03263
G1 X89.273 Y87.273 E44.03721
G0 F7200.00000 X88.925 Y87.478
;TYPE:WALL-OUTER
G1 F1200.000 X88.841 Y87.280 E44.04655
G1 X88.814 Y87.074 E44.05557
G1 X88.841 Y86.871 E44.06445
G1 X88.923 Y86.674 E44.07371
G1 X89.048 Y86.510 E44.08266
G1 X89.213 Y86.384 E44.09167
G1 X89.408 Y86.303 E44.10084
G1 X89.613 Y86.276 E44.10981
G1 X89.817 Y86.303 E44.11874
G1 X90.014 Y86.385 E44.12800
G1 X90.178 Y86.510 E44.13695
G1 X90.303 Y86.674 E44.14590
G1 X90.385 Y86.871 E44.15516
G1 X90.412 Y87.075 E44.16409
G1 X90.385 Y87.280 E44.17307
G1 X90.305 Y87.473 E44.18214
G1 X90.177 Y87.639 E44.19123
G1 X90.012 Y87.766 E44.20027
G1 X89.817 Y87.847 E44.20943
G1 X89.614 Y87.873 E44.21832
G1 X89.408 Y87.845 E44.22734
G1 X89.215 Y87.767 E44.23637
G1 X89.049 Y87.639 E44.24547
G1 X88.925 Y87.478 E44.25429
G0 F7200.00000 X89.604 Y87.076
G1 F4200.000 E37.85429
G1 Z0.500
G0 F7200.000 X107.676 Y105.143 Z0.500
;TYPE:WALL-INNER
G1 Z0.300
G1 F4200.000 E44.25429
G1 F1200.00000 X107.762 Y105.077 E44.25899
G1 X107.859 Y105.037 E44.26355
G1 X107.958 Y105.023 E44.26789
G1 X108.057 Y105.037 E44.27223
G1 X108.154 Y105.077 E44.27678
G1 X108.237 Y105.141 E44.28133
G1 X108.298 Y105.221 E44.28570
G1 X108.340 Y105.321 E44.29040
G1 X108.354 Y105.419 E44.29470
G1 X108.340 Y105.518 E44.29904
G1 X108.300 Y105.615 E44.30359
G1 X108.236 Y105.697 E44.30811
G1 X108.154 Y105.761 E44.31262
G1 X108.057 Y105.801 E44.31718
G1 X107.958 Y105.815 E44.32151
G1 X107.859 Y105.801 E44.32585
G1 X107.762 Y105.761 E44.33041
G1 X107.680 Y105.697 E44.33492
G1 X107.616 Y105.615 E44.33944
G1 X107.576 Y105.518 E44.34399
