;FLAVOR:RepRap
;TIME:5810
M190 S50.000000
M104 S210.000000
M109 S210.000000
G21 ;metric values
G90 ;absolute positioning
M82 ;set extruder to absolute mode
M107 ;start with the fan off
G92 X0 Y0 Z0 ;Zero X Y and Z axis
G1 Z15.0 F9000 ;move the platform down 15mm
G92 E0 ;zero the extruded length
G1 F200 E3 ;extrude 3mm of feed stock
G92 E0 ;zero the extruded length again
G1 F9000
;Put printing message on LCD screen
M117 Printing...
;Generated with Cura_SteamEngine 2.1.3
;LAYER_COUNT:333
;LAYER:0
M107
G1 F4200.000000 E-6.40000
G1 Z20.200
G0 F7200.000 X91.678 Y92.010 Z0.500
;TYPE:SKIRT
G1 Z0.300
G1 F4200.000 E0.00000
G1 F1200.00000 X92.010 Y91.678 E0.02038
G1 X94.029 Y90.129 E0.13082
G1 X94.436 Y89.894 E0.15122
G1 X96.788 Y88.920 E0.26170
G1 X97.241 Y88.798 E0.28206
G1 X99.764 Y88.465 E0.39251
G1 X100.236 Y88.465 E0.41299
G1 X102.759 Y88.798 E0.52344
G1 X103.212 Y88.920 E0.54380
G1 X105.564 Y89.894 E0.65429
G1 X105.971 Y90.129 E0.67468
G1 X107.990 Y91.678 E0.78513
G1 X108.322 Y92.010 E0.80550
G1 X109.871 Y94.029 E0.91595
G1 X110.106 Y94.436 E0.93634
G1 X111.080 Y96.788 E1.04683
G1 X111.202 Y97.241 E1.06719
G1 X111.535 Y99.764 E1.17764
G1 X111.535 Y100.236 E1.19812
G1 X111.202 Y102.759 E1.30857
G1 X111.080 Y103.212 E1.32893
G1 X110.106 Y105.564 E1.43941
G1 X109.871 Y105.971 E1.45981
G1 X108.322 Y107.990 E1.57025
G1 X107.990 Y108.322 E1.59063
G1 X105.971 Y109.871 E1.70107
G1 X105.564 Y110.106 E1.72147
G1 X103.212 Y111.080 E1.83195
G1 X102.759 Y111.202 E1.85231
G1 X100.236 Y111.535 E1.96276
G1 X99.764 Y111.535 E1.98325
G1 X97.241 Y111.202 E2.09370
G1 X96.788 Y111.080 E2.11406
G1 X94.436 Y110.106 E2.22454
G1 X94.029 Y109.871 E2.24494
G1 X92.010 Y108.322 E2.35538
G1 X91.678 Y107.990 E2.37576
G1 X90.129 Y105.971 E2.48620
G1 X89.894 Y105.564 E2.50660
G1 X88.920 Y103.212 E2.61708
G1 X88.798 Y102.759 E2.63744
G1 X88.465 Y100.236 E2.74789
G1 X88.465 Y99.764 E2.76837
G1 X88.798 Y97.241 E2.87882
G1 X88.920 Y96.788 E2.89918
G1 X89.894 Y94.436 E3.00967
G1 X90.129 Y94.029 E3.03006
G1 X91.678 Y92.010 E3.14051
G0 F7200.00000 X91.995 Y92.254
G1 F1200.000 X92.254 Y91.995 E3.15640
G1 X94.273 Y90.446 E3.26685
G1 X94.589 Y90.264 E3.28267
G1 X96.941 Y89.290 E3.39316
G1 X97.294 Y89.195 E3.40902
G1 X99.817 Y88.862 E3.51947
G1 X100.183 Y88.862 E3.53535
G1 X102.706 Y89.195 E3.64580
G1 X103.059 Y89.290 E3.66167
G1 X105.411 Y90.264 E3.77215
G1 X105.727 Y90.446 E3.78798
G1 X107.746 Y91.995 E3.89842
G1 X108.005 Y92.254 E3.91432
G1 X109.554 Y94.273 E4.02476
G1 X109.736 Y94.589 E4.04059
G1 X110.710 Y96.941 E4.15107
G1 X110.805 Y97.294 E4.16693
G1 X111.138 Y99.817 E4.27738
G1 X111.138 Y100.183 E4.29327
G1 X110.805 Y102.706 E4.40372
G1 X110.710 Y103.059 E4.41958
G1 X109.736 Y105.411 E4.53006
G1 X109.554 Y105.727 E4.54589
G1 X108.005 Y107.746 E4.65633
G1 X107.746 Y108.005 E4.67223
G1 X105.727 Y109.554 E4.78267
G1 X105.411 Y109.736 E4.79850
G1 X103.059 Y110.710 E4.90898
G1 X102.706 Y110.805 E4.92485
G1 X100.183 Y111.138 E5.03530
G1 X99.817 Y111.138 E5.05118
G1 X97.294 Y110.805 E5.16163
G1 X96.941 Y110.710 E5.17750
G1 X94.589 Y109.736 E5.28798
G1 X94.273 Y109.554 E5.30381
G1 X92.254 Y108.005 E5.41425
G1 X91.995 Y107.746 E5.43014
G1 X90.446 Y105.727 E5.54059
G1 X90.264 Y105.411 E5.55641
G1 X89.290 Y103.059 E5.66690
G1 X89.195 Y102.706 E5.68276
G1 X88.862 Y100.183 E5.79321
G1 X88.862 Y99.817 E5.80910
G1 X89.195 Y97.294 E5.91954
G1 X89.290 Y96.941 E5.93541
G1 X90.264 Y94.589 E6.04589
G1 X90.446 Y94.273 E6.06172
G1 X91.995 Y92.254 E6.17216
G0 F7200.00000 X92.313 Y92.497
G1 F1200.000 X92.497 Y92.313 E6.18346
G1 X94.516 Y90.764 E6.29390
G1 X94.742 Y90.633 E6.30524
G1 X97.094 Y89.659 E6.41572
G1 X97.346 Y89.592 E6.42704
G1 X99.869 Y89.259 E6.53748
G1 X100.131 Y89.259 E6.54885
G1 X102.654 Y89.592 E6.65930
G1 X102.906 Y89.659 E6.67062
G1 X105.258 Y90.633 E6.78110
G1 X105.484 Y90.764 E6.79244
G1 X107.503 Y92.313 E6.90288
G1 X107.687 Y92.497 E6.91418
G1 X109.236 Y94.516 E7.02462
G1 X109.367 Y94.742 E7.03596
G1 X110.341 Y97.094 E7.14644
G1 X110.408 Y97.346 E7.15776
G1 X110.741 Y99.869 E7.26820
G1 X110.741 Y100.131 E7.27958
G1 X110.408 Y102.654 E7.39002
G1 X110.341 Y102.906 E7.40134
G1 X109.367 Y105.258 E7.51182
G1 X109.236 Y105.484 E7.52316
G1 X107.687 Y107.503 E7.63360
G1 X107.503 Y107.687 E7.64490
G1 X105.484 Y109.236 E7.75534
G1 X105.258 Y109.367 E7.76668
G1 X102.906 Y110.341 E7.87716
G1 X102.654 Y110.408 E7.88848
G1 X100.131 Y110.741 E7.99893
G1 X99.869 Y110.741 E8.01030
G1 X97.346 Y110.408 E8.12075
G1 X97.094 Y110.341 E8.13206
G1 X94.742 Y109.367 E8.24255
G1 X94.516 Y109.236 E8.25388
G1 X92.497 Y107.687 E8.36433
G1 X92.313 Y107.503 E8.37562
G1 X90.764 Y105.484 E8.48606
G1 X90.633 Y105.258 E8.49740
G1 X89.659 Y102.906 E8.60788
G1 X89.592 Y102.654 E8.61920
G1 X89.259 Y100.131 E8.72965
G1 X89.259 Y99.869 E8.74102
G1 X89.592 Y97.346 E8.85147
G1 X89.659 Y97.094 E8.86278
G1 X90.633 Y94.742 E8.97327
G1 X90.764 Y94.516 E8.98460
G1 X92.313 Y92.497 E9.09505
G0 F7200.00000 X92.630 Y92.741
G1 F1200.000 X92.741 Y92.630 E9.10186
G1 X94.760 Y91.081 E9.21230
G1 X94.895 Y91.003 E9.21907
G1 X97.247 Y90.029 E9.32955
G1 X97.398 Y89.988 E9.33634
G1 X99.921 Y89.655 E9.44679
G1 X100.079 Y89.655 E9.45365
G1 X102.602 Y89.988 E9.56410
G1 X102.753 Y90.029 E9.57089
G1 X105.105 Y91.003 E9.68137
G1 X105.240 Y91.081 E9.68814
G1 X107.259 Y92.630 E9.79858
G1 X107.370 Y92.741 E9.80539
G1 X108.919 Y94.760 E9.91584
G1 X108.997 Y94.895 E9.92260
G1 X109.971 Y97.247 E10.03309
G1 X110.012 Y97.398 E10.03988
G1 X110.345 Y99.921 E10.15033
G1 X110.345 Y100.079 E10.15718
G1 X110.012 Y102.602 E10.26763
G1 X109.971 Y102.753 E10.27442
G1 X108.997 Y105.105 E10.38491
G1 X108.919 Y105.240 E10.39167
G1 X107.370 Y107.259 E10.50211
G1 X107.259 Y107.370 E10.50893
G1 X105.240 Y108.919 E10.61937
G1 X105.105 Y108.997 E10.62614
G1 X102.753 Y109.971 E10.73662
G1 X102.602 Y110.012 E10.74341
G1 X100.079 Y110.345 E10.85386
G1 X99.921 Y110.345 E10.86072
G1 X97.398 Y110.012 E10.97116
G1 X97.247 Y109.971 E10.97796
G1 X94.895 Y108.997 E11.08844
G1 X94.760 Y108.919 E11.09521
G1 X92.741 Y107.370 E11.20565
G1 X92.630 Y107.259 E11.21246
G1 X91.081 Y105.240 E11.32290
G1 X91.003 Y105.105 E11.32967
G1 X90.029 Y102.753 E11.44015
G1 X89.988 Y102.602 E11.44694
G1 X89.655 Y100.079 E11.55739
G1 X89.655 Y99.921 E11.56425
G1 X89.988 Y97.398 E11.67470
G1 X90.029 Y97.247 E11.68149
G1 X91.003 Y94.895 E11.79197
G1 X91.081 Y94.760 E11.79874
G1 X92.630 Y92.741 E11.90918
G0 F7200.00000 X92.984 Y92.947
G1 F1200.000 X95.048 Y91.372 E12.02186
G1 X97.451 Y90.385 E12.13461
G1 X100.026 Y90.052 E12.24729
G1 X102.600 Y90.398 E12.36001
G1 X104.997 Y91.398 E12.47273
G1 X107.053 Y92.984 E12.58542
G1 X108.628 Y95.048 E12.69810
G1 X109.615 Y97.451 E12.81085
G1 X109.948 Y100.026 E12.92353
G1 X109.602 Y102.600 E13.03625
G1 X108.602 Y104.997 E13.14897
G1 X107.016 Y107.053 E13.26167
G1 X104.952 Y108.628 E13.37435
G1 X102.549 Y109.615 E13.48709
G1 X99.974 Y109.948 E13.59978
G1 X97.400 Y109.602 E13.71249
G1 X95.003 Y108.602 E13.82521
G1 X92.947 Y107.016 E13.93791
G1 X91.372 Y104.952 E14.05059
G1 X90.385 Y102.549 E14.16333
G1 X90.052 Y99.974 E14.27602
G1 X90.398 Y97.400 E14.38874
G1 X91.398 Y95.003 E14.50146
G1 X92.984 Y92.947 E14.61415
G0 F7200.00000 X93.535 Y93.535
;TYPE:WALL-INNER
G1 F1200.000 X95.426 Y92.082 E14.71765
G1 X97.637 Y91.167 E14.82150
G1 X100.000 Y90.854 E14.92495
G1 X102.363 Y91.167 E15.02840
G1 X104.574 Y92.082 E15.13225
G1 X106.465 Y93.535 E15.23575
G1 X107.918 Y95.426 E15.33925
G1 X108.833 Y97.637 E15.44310
G1 X109.146 Y100.000 E15.54655
G1 X108.833 Y102.363 E15.65000
G1 X107.918 Y104.574 E15.75385
G1 X106.465 Y106.465 E15.85735
G1 X104.574 Y107.918 E15.96085
G1 X102.363 Y108.833 E16.06470
G1 X100.000 Y109.146 E16.16815
G1 X97.637 Y108.833 E16.27160
G1 X95.426 Y107.918 E16.37545
G1 X93.535 Y106.465 E16.47895
G1 X92.082 Y104.574 E16.58245
G1 X91.167 Y102.363 E16.68630
G1 X90.854 Y100.000 E16.78975
G1 X91.167 Y97.637 E16.89320
G1 X92.082 Y95.426 E16.99705
G1 X93.535 Y93.535 E17.10055
G0 F7200.00000 X94.894 Y93.938
G1 F1200.000 X94.950 Y94.355 E17.11881
G1 X95.109 Y94.736 E17.13672
G1 X95.366 Y95.076 E17.15522
G1 X95.698 Y95.329 E17.17334
G1 X96.086 Y95.489 E17.19155
G1 X96.500 Y95.544 E17.20968
G1 X96.915 Y95.489 E17.22785
G1 X97.298 Y95.330 E17.24584
G1 X97.636 Y95.074 E17.26425
G1 X97.892 Y94.736 E17.28265
G1 X98.051 Y94.353 E17.30065
G1 X98.106 Y93.938 E17.31881
G1 X98.051 Y93.524 E17.33694
G1 X97.891 Y93.137 E17.35511
G1 X97.636 Y92.802 E17.37339
G1 X97.303 Y92.550 E17.39151
G1 X96.914 Y92.386 E17.40983
G1 X96.501 Y92.332 E17.42791
G1 X96.086 Y92.387 E17.44608
G1 X95.698 Y92.548 E17.46431
G1 X95.364 Y92.802 E17.48252
G1 X95.110 Y93.136 E17.50073
G1 X94.950 Y93.524 E17.51895
G1 X94.894 Y93.938 E17.53708
G0 F7200.00000 X94.794 Y93.938
G0 X96.500 Y104.456
G1 F1200.000 X96.085 Y104.511 E17.55525
G1 X95.697 Y104.670 E17.57344
G1 X95.367 Y104.926 E17.59157
G1 X95.109 Y105.262 E17.60996
G1 X94.950 Y105.646 E17.62799
G1 X94.894 Y106.062 E17.64621
G1 X94.950 Y106.478 E17.66443
G1 X95.109 Y106.862 E17.68247
G1 X95.367 Y107.198 E17.70085
G1 X95.697 Y107.454 E17.71898
G1 X96.085 Y107.613 E17.73718
G1 X96.500 Y107.668 E17.75535
G1 X96.915 Y107.613 E17.77351
G1 X97.302 Y107.453 E17.79169
G1 X97.637 Y107.198 E17.80996
G1 X97.891 Y106.865 E17.82814
G1 X98.051 Y106.477 E17.84635
G1 X98.106 Y106.062 E17.86452
G1 X98.051 Y105.647 E17.88269
G1 X97.891 Y105.259 E17.90090
G1 X97.637 Y104.926 E17.91908
G1 X97.302 Y104.671 E17.93735
G1 X96.915 Y104.511 E17.95553
G1 X96.500 Y104.456 E17.97370
G0 F7200.00000 X105.523 Y100.852
G0 X105.609 Y100.803
G1 F1200.000 X105.863 Y101.136 E17.99187
G1 X106.198 Y101.391 E18.01014
G1 X106.585 Y101.551 E18.02832
G1 X107.000 Y101.606 E18.04649
G1 X107.415 Y101.551 E18.06466
G1 X107.803 Y101.392 E18.08285
G1 X108.133 Y101.136 E18.10098
G1 X108.391 Y100.800 E18.11937
G1 X108.550 Y100.416 E18.13740
G1 X108.606 Y100.000 E18.15562
G1 X108.550 Y99.586 E18.17375
G1 X108.390 Y99.198 E18.19197
G1 X108.136 Y98.864 E18.21018
G1 X107.802 Y98.610 E18.22839
G1 X107.414 Y98.450 E18.24660
G1 X107.000 Y98.394 E18.26474
G1 X106.583 Y98.450 E18.28300
G1 X106.202 Y98.609 E18.30091
G1 X105.862 Y98.866 E18.31941
G1 X105.609 Y99.198 E18.33753
G1 X105.449 Y99.586 E18.35574
G1 X105.394 Y100.000 E18.37387
G1 X105.449 Y100.415 E18.39204
G1 X105.609 Y100.803 E18.41025
G0 F7200.00000 X105.959 Y100.601
;TYPE:WALL-OUTER
G1 F1200.000 X106.149 Y100.850 E18.42384
G1 X106.399 Y101.041 E18.43750
G1 X106.689 Y101.161 E18.45112
G1 X107.000 Y101.202 E18.46473
G1 X107.310 Y101.161 E18.47830
G1 X107.601 Y101.041 E18.49197
G1 X107.850 Y100.849 E18.50561
G1 X108.040 Y100.601 E18.51917
G1 X108.160 Y100.312 E18.53275
G1 X108.202 Y100.000 E18.54641
G1 X108.160 Y99.690 E18.55999
G1 X108.040 Y99.399 E18.57365
G1 X107.850 Y99.150 E18.58725
G1 X107.601 Y98.960 E18.60084
G1 X107.310 Y98.840 E18.61450
G1 X107.000 Y98.798 E18.62808
G1 X106.688 Y98.840 E18.64174
G1 X106.400 Y98.960 E18.65528
G1 X106.149 Y99.150 E18.66894
G1 X105.959 Y99.399 E18.68254
G1 X105.839 Y99.690 E18.69620
G1 X105.798 Y100.000 E18.70977
G1 X105.839 Y100.311 E18.72338
G1 X105.959 Y100.601 E18.73701
G0 F7200.00000 X105.496 Y100.791
G0 X105.835 Y101.164
G0 X106.179 Y101.425
G0 X106.575 Y101.589
G0 X107.000 Y101.646
G0 X107.425 Y101.589
G0 X107.823 Y101.426
G0 X108.161 Y101.164
G0 X109.046 Y100.000
G0 X109.549 Y100.000
G1 F1200.000 X109.223 Y102.468 E18.84505
G1 X108.268 Y104.774 E18.95337
G1 X106.751 Y106.751 E19.06152
G1 X104.774 Y108.268 E19.16967
G1 X102.468 Y109.223 E19.27800
G1 X100.000 Y109.549 E19.38604
G1 X97.532 Y109.223 E19.49408
G1 X95.226 Y108.268 E19.60240
G1 X93.249 Y106.751 E19.71056
G1 X91.732 Y104.774 E19.81871
G1 X90.777 Y102.468 E19.92703
G1 X90.451 Y100.000 E20.03507
G1 X90.777 Y97.532 E20.14311
G1 X91.732 Y95.226 E20.25144
G1 X93.249 Y93.249 E20.35959
G1 X95.226 Y91.732 E20.46774
G1 X97.532 Y90.777 E20.57606
G1 X100.000 Y90.451 E20.68411
G1 X102.468 Y90.777 E20.79215
G1 X104.774 Y91.732 E20.90047
G1 X106.751 Y93.249 E21.00862
G1 X108.268 Y95.226 E21.11677
G1 X109.223 Y97.532 E21.22510
G1 X109.549 Y100.000 E21.33314
G0 F7200.00000 X109.045 Y100.001
G0 X108.161 Y101.164
G0 X107.823 Y101.426
G0 X98.004 Y105.271
G0 X97.541 Y105.461
G1 F1200.000 X97.351 Y105.212 E21.34673
G1 X97.101 Y105.021 E21.36039
G1 X96.811 Y104.901 E21.37401
G1 X96.500 Y104.860 E21.38762
G1 X96.190 Y104.901 E21.40119
G1 X95.899 Y105.021 E21.41485
G1 X95.650 Y105.213 E21.42850
G1 X95.460 Y105.461 E21.44206
G1 X95.340 Y105.750 E21.45564
G1 X95.298 Y106.062 E21.46930
G1 X95.340 Y106.374 E21.48297
G1 X95.460 Y106.663 E21.49655
G1 X95.650 Y106.911 E21.51011
G1 X95.899 Y107.103 E21.52375
G1 X96.190 Y107.223 E21.53741
G1 X96.500 Y107.264 E21.55098
G1 X96.811 Y107.223 E21.56460
G1 X97.101 Y107.103 E21.57822
G1 X97.351 Y106.912 E21.59187
G1 X97.541 Y106.663 E21.60547
G1 X97.661 Y106.373 E21.61909
G1 X97.702 Y106.062 E21.63270
G1 X97.661 Y105.751 E21.64632
G1 X97.541 Y105.461 E21.65994
G0 F7200.00000 X98.004 Y105.271
G0 X96.434 Y95.636
G0 X96.500 Y95.140
G1 F1200.000 X96.811 Y95.099 E21.67355
G1 X97.100 Y94.979 E21.68713
G1 X97.351 Y94.789 E21.70080
G1 X97.541 Y94.538 E21.71446
G1 X97.661 Y94.249 E21.72804
G1 X97.702 Y93.938 E21.74165
G1 X97.661 Y93.628 E21.75522
G1 X97.541 Y93.337 E21.76889
G1 X97.351 Y93.088 E21.78248
G1 X97.101 Y92.898 E21.79611
G1 X96.812 Y92.777 E21.80970
G1 X96.500 Y92.736 E21.82336
G1 X96.190 Y92.777 E21.83693
G1 X95.899 Y92.898 E21.85061
G1 X95.650 Y93.088 E21.86420
G1 X95.460 Y93.337 E21.87780
G1 X95.340 Y93.628 E21.89146
G1 X95.298 Y93.938 E21.90504
G1 X95.340 Y94.250 E21.91870
G1 X95.460 Y94.538 E21.93224
G1 X95.650 Y94.789 E21.94590
G1 X95.899 Y94.979 E21.95950
G1 X96.190 Y95.099 E21.97316
G1 X96.500 Y95.140 E21.98673
G0 F7200.00000 X96.235 Y95.670
;TYPE:SKIN
G1 F1200.000 X106.597 Y106.031 E22.62269
G0 X106.667 Y106.101
G0 F7200.000 X106.350 Y106.350
G1 F1200.000 X93.648 Y93.648 E23.40230
G0 X93.578 Y93.578
G0 F7200.000 X93.968 Y93.403
G1 F1200.000 X94.767 Y94.202 E23.45134
G0 X94.837 Y94.272
G0 F7200.000 X94.530 Y93.398
G1 F5313.653 X94.757 Y93.060 E23.47528
G1 F8323.69942 X95.024 Y92.761 E23.49033
G1 F9000.00000 X95.324 Y92.496 E23.50084
G1 X95.665 Y92.271 E23.51055
G1 X96.078 Y92.118 E23.52135
G1 X96.554 Y92.029 E23.53758
G0 F7200.00000 X96.783 Y91.692
G1 F1200.000 X105.253 Y100.162 E24.05745
G0 X105.323 Y100.232
G0 F7200.000 X105.281 Y99.624
G1 F1200.000 X97.184 Y91.527 E24.55442
G0 X97.114 Y91.457
G0 F7200.000 X97.584 Y91.361
G1 F1200.000 X105.431 Y99.208 E25.03604
G0 X105.501 Y99.278
G0 F7200.000 X105.658 Y98.869
G1 F1200.000 X98.060 Y91.271 E25.50239
G0 X97.990 Y91.201
G0 F7200.000 X98.560 Y91.206
G1 F1200.000 X105.950 Y98.596 E25.95596
G0 X106.020 Y98.666
G0 F7200.000 X106.309 Y98.389
G1 F1200.000 X99.059 Y91.139 E26.40095
G0 X98.989 Y91.069
G0 F7200.000 X99.559 Y91.073
G1 F1200.000 X106.750 Y98.265 E26.84234
G0 X106.820 Y98.335
G0 F7200.000 X107.326 Y98.275
G1 F1200.000 X100.076 Y91.025 E27.28733
G0 X100.006 Y90.955
G0 F7200.000 X100.728 Y91.112
G1 F1200.000 X108.888 Y99.271 E27.78813
G0 X108.958 Y99.341
G0 F7200.000 X108.848 Y99.797
G1 F9000.000 X108.829 Y100.343 E27.80177
G1 X108.734 Y100.814 E27.81542
G1 F7111.11111 X108.597 Y101.243 E27.83521
G0 F7200.00000 X108.728 Y101.940
G1 F1200.000 X108.129 Y101.341 E27.87198
G0 X108.059 Y101.271
G0 F7200.000 X107.792 Y101.570
G1 F1200.000 X108.638 Y102.415 E27.92387
G0 X108.708 Y102.485
G0 F7200.000 X108.473 Y102.816
G1 F1200.000 X107.374 Y101.718 E27.99130
G0 X107.304 Y101.648
G0 F7200.000 X106.837 Y101.746
G1 F1200.000 X108.307 Y103.216 E28.08152
G0 X108.377 Y103.286
G0 F7200.000 X108.141 Y103.615
